;FLAVOR:Marlin
;TIME:1915
;Filament used: 1.12677m
;Layer height: 0.2
;MINX:130.231
;MINY:123.244
;MINZ:0.2
;MAXX:229.768
;MAXY:190.057
;MAXZ:4
;Generated with Creality Slicer 4.8.2-177
M140 S60
M105
M190 S60
M104 S200
M105
M109 S200
M82 ;absolute extrusion mode
M201 X500.00 Y500.00 Z100.00 E5000.00 ;Setup machine max acceleration
M203 X500.00 Y500.00 Z10.00 E50.00 ;Setup machine max feedrate
M204 P500.00 R1000.00 T500.00 ;Setup Print/Retract/Travel acceleration
M205 X8.00 Y8.00 Z0.40 E5.00 ;Setup Jerk
M220 S100 ;Reset Feedrate
M221 S100 ;Reset Flowrate

G28 ;Home

G92 E0 ;Reset Extruder
G1 Z2.0 F3000 ;Move Z Axis up
G1 X10.1 Y20 Z0.28 F5000.0 ;Move to start position
G1 X10.1 Y200.0 Z0.28 F1500.0 E15 ;Draw the first line
G1 X10.4 Y200.0 Z0.28 F5000.0 ;Move to side a little
G1 X10.4 Y20 Z0.28 F1500.0 E30 ;Draw the second line
G92 E0 ;Reset Extruder
G1 Z2.0 F3000 ;Move Z Axis up

G92 E0
G92 E0
G1 F3600 E-8
;LAYER_COUNT:20
;LAYER:0
M107
G0 F6000 X133.64 Y127.507 Z0.2
;TYPE:SKIRT
G1 F3600 E0
G1 F1200 X134.292 Y126.833 E0.03119
G1 X134.783 Y126.395 E0.05307
G1 X134.984 Y126.226 E0.06181
G1 X135.323 Y125.951 E0.07633
G1 X136.081 Y125.398 E0.10753
G1 X137.177 Y124.757 E0.14976
G1 X137.471 Y124.607 E0.16074
G1 X137.787 Y124.451 E0.17246
G1 X138.65 Y124.082 E0.20368
G1 X139.92 Y123.687 E0.24792
G1 X140.311 Y123.591 E0.26131
G1 X141.231 Y123.407 E0.29251
G1 X142.148 Y123.302 E0.32321
G1 X142.483 Y123.278 E0.33438
G1 X143.137 Y123.251 E0.35615
G1 X143.769 Y123.244 E0.37717
G1 X208.971 Y123.246 E2.5458
G1 X209.694 Y123.257 E2.56985
G1 X210.997 Y123.355 E2.61331
G1 X211.212 Y123.384 E2.62053
G1 X212.107 Y123.542 E2.65076
G1 X212.375 Y123.601 E2.65988
G1 X213.489 Y123.908 E2.69832
G1 X213.956 Y124.073 E2.71479
G1 X214.208 Y124.168 E2.72375
G1 X215.341 Y124.67 E2.76496
G1 X215.466 Y124.734 E2.76963
G1 X216.282 Y125.196 E2.80082
G1 X217.218 Y125.851 E2.83882
G1 X217.568 Y126.124 E2.85358
G1 X218.283 Y126.732 E2.8848
G1 X218.942 Y127.399 E2.91599
G1 X219.438 Y127.984 E2.9415
G1 X219.64 Y128.24 E2.95234
G1 X220.236 Y129.071 E2.98635
G1 X220.341 Y129.233 E2.99278
G1 X220.987 Y130.375 E3.03641
G1 X221.492 Y131.404 E3.07454
G1 X222.663 Y133.716 E3.16074
G1 X223.892 Y135.978 E3.24636
G1 X225.124 Y138.102 E3.32803
G1 X226.285 Y139.968 E3.40112
G1 X226.651 Y140.571 E3.42458
G1 X227.103 Y141.393 E3.45578
G1 X227.476 Y142.232 E3.48632
G1 X227.75 Y142.922 E3.51102
G1 X227.821 Y143.097 E3.5173
G1 X228.303 Y144.327 E3.56124
G1 X228.511 Y144.905 E3.58167
G1 X228.606 Y145.194 E3.59179
G1 X228.682 Y145.434 E3.60016
G1 X228.872 Y146.06 E3.62192
G1 X229.038 Y146.671 E3.64298
G1 X229.129 Y147.063 E3.65636
G1 X229.243 Y147.604 E3.67475
G1 X229.35 Y148.164 E3.69371
G1 X229.45 Y148.788 E3.71473
G1 X229.512 Y149.27 E3.7309
G1 X229.56 Y149.725 E3.74611
G1 X229.612 Y150.334 E3.76644
G1 X229.636 Y150.678 E3.77791
G1 X229.658 Y151.112 E3.79236
G1 X229.67 Y151.513 E3.80571
G1 X229.684 Y152.339 E3.83318
G1 X229.765 Y160.124 E4.09213
G1 X229.768 Y160.815 E4.11511
G1 X229.762 Y161.519 E4.13853
G1 X229.714 Y162.455 E4.1697
G1 X229.586 Y163.385 E4.20092
G1 X229.38 Y164.299 E4.23209
G1 X229.096 Y165.193 E4.26328
G1 X228.608 Y166.329 E4.30441
G1 X228.413 Y166.718 E4.31888
G1 X227.449 Y168.591 E4.38894
G1 X226.34 Y170.907 E4.47435
G1 X225.338 Y173.16 E4.55636
G1 X224.611 Y174.932 E4.62007
G1 X224.338 Y175.576 E4.64333
G1 X224.08 Y176.139 E4.66393
G1 X223.631 Y177.051 E4.69774
G1 X222.508 Y179.417 E4.78485
G1 X221.386 Y181.972 E4.87766
G1 X221.323 Y182.121 E4.88304
G1 X220.9 Y183.011 E4.91581
G1 X220.662 Y183.459 E4.93269
G1 X220.187 Y184.267 E4.96386
G1 X219.645 Y185.033 E4.99507
G1 X219.145 Y185.634 E5.02107
G1 X218.881 Y185.929 E5.03424
G1 X218.226 Y186.6 E5.06543
G1 X217.517 Y187.214 E5.09662
G1 X217.018 Y187.586 E5.11732
G1 X216.673 Y187.829 E5.13136
G1 X215.884 Y188.336 E5.16255
G1 X215.055 Y188.774 E5.19374
G1 X214.334 Y189.085 E5.21985
G1 X213.962 Y189.23 E5.23313
G1 X213.074 Y189.533 E5.26434
G1 X212.164 Y189.759 E5.29553
G1 X211.506 Y189.873 E5.31774
G1 X211.053 Y189.937 E5.33295
G1 X209.688 Y190.044 E5.37849
G1 X208.866 Y190.057 E5.40584
G1 X143.884 Y190.057 E7.56715
G1 X143.032 Y190.046 E7.59549
G1 X142.12 Y189.995 E7.62587
G1 X141.854 Y189.969 E7.63476
G1 X140.925 Y189.838 E7.66596
G1 X140.448 Y189.739 E7.68216
G1 X140.145 Y189.669 E7.69251
G1 X139.241 Y189.419 E7.7237
G1 X138.627 Y189.2 E7.74538
G1 X138.414 Y189.117 E7.75299
G1 X137.556 Y188.74 E7.78416
G1 X136.46 Y188.121 E7.82602
G1 X136.11 Y187.896 E7.83986
G1 X135.343 Y187.356 E7.87106
G1 X134.625 Y186.752 E7.90227
G1 X134.084 Y186.221 E7.92748
G1 X133.797 Y185.919 E7.94134
G1 X133.181 Y185.212 E7.97253
G1 X132.627 Y184.455 E8.00373
G1 X132.256 Y183.86 E8.02705
G1 X132.035 Y183.479 E8.0417
G1 X131.599 Y182.649 E8.07288
G1 X131.236 Y181.784 E8.10408
G1 X131.006 Y181.093 E8.1283
G1 X130.902 Y180.743 E8.14045
G1 X130.673 Y179.834 E8.17163
G1 X130.486 Y178.549 E8.21482
G1 X130.453 Y178.164 E8.22767
G1 X130.413 Y177.191 E8.26006
G1 X130.415 Y176.549 E8.28141
G1 X130.418 Y176.313 E8.28926
G1 X130.435 Y175.661 E8.31095
G1 X130.526 Y172.814 E8.40569
G1 X130.575 Y170.174 E8.49352
G1 X130.552 Y167.686 E8.57627
G1 X130.457 Y165.185 E8.65951
G1 X130.348 Y163.68 E8.7097
G1 X130.34 Y163.425 E8.71819
G1 X130.26 Y162.174 E8.75988
G1 X130.238 Y161.576 E8.77978
G1 X130.231 Y160.786 E8.80606
G1 X130.236 Y160.075 E8.82971
G1 X130.317 Y152.31 E9.08799
G1 X130.32 Y149.658 E9.17619
G1 X130.262 Y147.412 E9.25092
G1 X130.246 Y146.979 E9.26533
G1 X130.238 Y146.653 E9.27618
G1 X130.232 Y145.778 E9.30528
G1 X130.236 Y145.18 E9.32517
G1 X130.317 Y137.367 E9.58505
G1 X130.333 Y136.463 E9.61512
G1 X130.357 Y135.67 E9.64151
G1 X130.425 Y134.735 E9.67269
G1 X130.525 Y134.059 E9.69541
G1 X130.611 Y133.58 E9.7116
G1 X130.816 Y132.665 E9.74279
G1 X131.098 Y131.771 E9.77397
G1 X131.349 Y131.14 E9.79655
G1 X131.442 Y130.926 E9.80431
G1 X131.634 Y130.506 E9.81967
G1 X132.068 Y129.674 E9.85089
G1 X132.782 Y128.589 E9.89409
G1 X133.047 Y128.234 E9.90882
G1 X133.64 Y127.507 E9.94002
G0 F6000 X133.95 Y127.76
G1 F1200 X134.592 Y127.1 E9.97065
G1 X135.04 Y126.701 E9.9906
G1 X135.241 Y126.532 E9.99934
G1 X135.459 Y126.353 E10.00872
G1 X135.572 Y126.263 E10.01352
G1 X136.317 Y125.722 E10.04414
G1 X137.359 Y125.113 E10.08429
G1 X137.653 Y124.963 E10.09526
G1 X137.96 Y124.812 E10.10664
G1 X138.807 Y124.45 E10.13728
G1 X140.016 Y124.076 E10.17937
G1 X140.407 Y123.98 E10.19276
G1 X141.309 Y123.799 E10.22336
G1 X142.177 Y123.701 E10.25241
G1 X142.512 Y123.677 E10.26359
G1 X143.142 Y123.651 E10.28456
G1 X143.769 Y123.644 E10.30541
G1 X208.965 Y123.646 E12.47384
G1 X209.688 Y123.657 E12.49789
G1 X210.944 Y123.751 E12.53978
G1 X211.159 Y123.78 E12.547
G1 X212.021 Y123.933 E12.57612
G1 X212.289 Y123.992 E12.58524
G1 X213.362 Y124.288 E12.62226
G1 X213.815 Y124.447 E12.63823
G1 X214.067 Y124.542 E12.64719
G1 X215.159 Y125.026 E12.68692
G1 X215.284 Y125.09 E12.69159
G1 X216.084 Y125.545 E12.7222
G1 X216.972 Y126.167 E12.75826
G1 X217.322 Y126.44 E12.77302
G1 X218.023 Y127.037 E12.80365
G1 X218.669 Y127.693 E12.83427
G1 X219.124 Y128.232 E12.85773
G1 X219.326 Y128.488 E12.86857
G1 X219.9 Y129.289 E12.90135
G1 X220.005 Y129.451 E12.90777
G1 X220.628 Y130.551 E12.94982
G1 X221.111 Y131.537 E12.98634
G1 X222.327 Y133.937 E13.07582
G1 X223.528 Y136.148 E13.15951
G1 X224.79 Y138.322 E13.24312
G1 X225.943 Y140.176 E13.31573
G1 X226.309 Y140.779 E13.33919
G1 X226.753 Y141.586 E13.36983
G1 X227.104 Y142.379 E13.39867
G1 X227.325 Y142.938 E13.41866
G1 X227.448 Y143.243 E13.4296
G1 X227.93 Y144.473 E13.47354
G1 X228.131 Y145.03 E13.49324
G1 X228.226 Y145.319 E13.50336
G1 X228.299 Y145.55 E13.51141
G1 X228.489 Y146.176 E13.53317
G1 X228.649 Y146.765 E13.55347
G1 X228.738 Y147.147 E13.56652
G1 X228.85 Y147.679 E13.5846
G1 X228.957 Y148.239 E13.60356
G1 X229.054 Y148.841 E13.62384
G1 X229.115 Y149.316 E13.63977
G1 X229.162 Y149.759 E13.65459
G1 X229.214 Y150.368 E13.67492
G1 X229.237 Y150.699 E13.68595
G1 X229.258 Y151.127 E13.70021
G1 X229.27 Y151.52 E13.71328
G1 X229.284 Y152.343 E13.74066
G1 X229.365 Y160.127 E13.99957
G1 X229.368 Y160.811 E14.02232
G1 X229.362 Y161.515 E14.04574
G1 X229.314 Y162.435 E14.07638
G1 X229.186 Y163.347 E14.10701
G1 X228.98 Y164.244 E14.13762
G1 X228.697 Y165.12 E14.16824
G1 X228.25 Y166.151 E14.20561
G1 X228.058 Y166.535 E14.21989
G1 X227.077 Y168.442 E14.29122
G1 X225.991 Y170.708 E14.3748
G1 X224.949 Y173.053 E14.46014
G1 X224.242 Y174.776 E14.52209
G1 X223.969 Y175.42 E14.54535
G1 X223.721 Y175.962 E14.56518
G1 X223.295 Y176.827 E14.59725
G1 X222.145 Y179.25 E14.68645
G1 X220.998 Y181.861 E14.78131
G1 X220.954 Y181.965 E14.78506
G1 X220.547 Y182.823 E14.81665
G1 X220.309 Y183.271 E14.83352
G1 X219.842 Y184.065 E14.86416
G1 X219.308 Y184.815 E14.89478
G1 X218.847 Y185.367 E14.9187
G1 X218.583 Y185.662 E14.93187
G1 X217.94 Y186.321 E14.96249
G1 X217.242 Y186.921 E14.9931
G1 X216.788 Y187.259 E15.01193
G1 X216.443 Y187.502 E15.02596
G1 X215.668 Y187.999 E15.05659
G1 X214.853 Y188.427 E15.0872
G1 X214.189 Y188.712 E15.11124
G1 X213.817 Y188.857 E15.12452
G1 X212.945 Y189.154 E15.15515
G1 X212.051 Y189.374 E15.18578
G1 X211.45 Y189.477 E15.20606
G1 X210.997 Y189.541 E15.22127
G1 X209.682 Y189.644 E15.26514
G1 X208.692 Y189.658 E15.29808
G1 X143.731 Y189.656 E17.45869
G1 X143.037 Y189.646 E17.48177
G1 X142.159 Y189.597 E17.51102
G1 X141.893 Y189.571 E17.51991
G1 X140.538 Y189.349 E17.56558
G1 X140.235 Y189.279 E17.57592
G1 X139.348 Y189.033 E17.60654
G1 X138.772 Y188.828 E17.62687
G1 X138.559 Y188.745 E17.63447
G1 X137.717 Y188.373 E17.66509
G1 X136.676 Y187.784 E17.70487
G1 X136.326 Y187.559 E17.71871
G1 X135.574 Y187.028 E17.74933
G1 X134.871 Y186.434 E17.77994
G1 X134.374 Y185.945 E17.80313
G1 X134.087 Y185.643 E17.81699
G1 X133.483 Y184.949 E17.84759
G1 X132.941 Y184.205 E17.8782
G1 X132.602 Y183.66 E17.89955
G1 X132.381 Y183.279 E17.9142
G1 X131.954 Y182.463 E17.94483
G1 X131.599 Y181.613 E17.97547
G1 X131.389 Y180.979 E17.99768
G1 X131.285 Y180.629 E18.00983
G1 X131.061 Y179.736 E18.04045
G1 X130.885 Y178.515 E18.08148
G1 X130.852 Y178.13 E18.09433
G1 X130.813 Y177.192 E18.12556
G1 X130.815 Y176.55 E18.14691
G1 X130.818 Y176.323 E18.15446
G1 X130.834 Y175.674 E18.17605
G1 X130.928 Y172.73 E18.27402
G1 X130.975 Y170.213 E18.35775
G1 X130.95 Y167.632 E18.4436
G1 X130.857 Y165.17 E18.52554
G1 X130.747 Y163.651 E18.5762
G1 X130.74 Y163.407 E18.58432
G1 X130.659 Y162.149 E18.62625
G1 X130.638 Y161.572 E18.64545
G1 X130.631 Y160.788 E18.67153
G1 X130.636 Y160.079 E18.69511
G1 X130.717 Y152.343 E18.95242
G1 X130.72 Y149.686 E19.04079
G1 X130.659 Y147.308 E19.11991
G1 X130.646 Y146.963 E19.1314
G1 X130.638 Y146.65 E19.14181
G1 X130.632 Y145.781 E19.17071
G1 X130.636 Y145.184 E19.19057
G1 X130.717 Y137.373 E19.45038
G1 X130.733 Y136.475 E19.48025
G1 X130.757 Y135.682 E19.50664
G1 X130.825 Y134.764 E19.53726
G1 X130.919 Y134.13 E19.55857
G1 X131.005 Y133.651 E19.57476
G1 X131.207 Y132.753 E19.60537
G1 X131.486 Y131.875 E19.63601
G1 X131.716 Y131.299 E19.65664
G1 X131.809 Y131.085 E19.6644
G1 X131.997 Y130.675 E19.67941
G1 X132.423 Y129.859 E19.71002
G1 X133.103 Y128.828 E19.7511
G1 X133.368 Y128.473 E19.76583
G1 X133.95 Y127.76 E19.79645
G0 F6000 X134.26 Y128.013
G1 F1200 X134.891 Y127.368 E19.82646
G1 X135.298 Y127.007 E19.84455
G1 X135.708 Y126.666 E19.86229
G1 X135.821 Y126.576 E19.86709
G1 X136.552 Y126.046 E19.89712
G1 X137.54 Y125.469 E19.93518
G1 X137.834 Y125.319 E19.94616
G1 X138.133 Y125.172 E19.95724
G1 X138.964 Y124.818 E19.98728
G1 X140.111 Y124.464 E20.02721
G1 X140.502 Y124.368 E20.0406
G1 X141.388 Y124.192 E20.07064
G1 X142.205 Y124.1 E20.09799
G1 X142.54 Y124.076 E20.10916
G1 X143.147 Y124.051 E20.12936
G1 X143.769 Y124.044 E20.15005
G1 X208.959 Y124.046 E22.31828
G1 X209.682 Y124.057 E22.34233
G1 X210.89 Y124.148 E22.38262
G1 X211.105 Y124.177 E22.38984
G1 X211.935 Y124.324 E22.41787
G1 X212.203 Y124.383 E22.427
G1 X213.236 Y124.667 E22.46263
G1 X213.674 Y124.822 E22.47809
G1 X213.926 Y124.917 E22.48704
G1 X214.977 Y125.382 E22.52527
G1 X215.102 Y125.446 E22.52994
G1 X215.886 Y125.893 E22.55996
G1 X216.726 Y126.482 E22.59408
G1 X217.076 Y126.755 E22.60884
G1 X217.763 Y127.342 E22.6389
G1 X218.395 Y127.987 E22.66893
G1 X218.81 Y128.48 E22.69037
G1 X219.012 Y128.736 E22.70121
G1 X219.564 Y129.506 E22.73272
G1 X219.669 Y129.668 E22.73914
G1 X220.269 Y130.727 E22.77963
G1 X220.776 Y131.761 E22.81793
G1 X221.977 Y134.13 E22.90627
G1 X223.173 Y136.333 E22.98964
G1 X224.442 Y138.52 E23.07374
G1 X225.602 Y140.384 E23.14676
G1 X225.968 Y140.987 E23.17022
G1 X226.401 Y141.779 E23.20025
G1 X226.733 Y142.526 E23.22743
G1 X227.076 Y143.388 E23.25829
G1 X227.558 Y144.618 E23.30223
G1 X227.751 Y145.155 E23.32121
G1 X227.846 Y145.444 E23.33133
G1 X227.916 Y145.667 E23.3391
G1 X228.106 Y146.293 E23.36086
G1 X228.261 Y146.859 E23.38038
G1 X228.347 Y147.231 E23.39308
G1 X228.457 Y147.754 E23.41085
G1 X228.564 Y148.314 E23.42982
G1 X228.657 Y148.893 E23.44932
G1 X228.718 Y149.362 E23.46505
G1 X228.733 Y149.492 E23.4694
G1 X228.763 Y149.793 E23.47946
G1 X228.815 Y150.402 E23.49979
G1 X228.837 Y150.721 E23.51043
G1 X228.858 Y151.141 E23.52442
G1 X228.87 Y151.527 E23.53726
G1 X228.884 Y152.347 E23.56454
G1 X228.965 Y160.129 E23.82338
G1 X228.968 Y160.808 E23.84597
G1 X228.962 Y161.512 E23.86938
G1 X228.914 Y162.414 E23.89942
G1 X228.787 Y163.308 E23.92946
G1 X228.581 Y164.187 E23.95949
G1 X228.298 Y165.045 E23.98953
G1 X227.892 Y165.973 E24.02322
G1 X227.702 Y166.352 E24.03733
G1 X226.725 Y168.252 E24.10839
G1 X225.617 Y170.565 E24.19369
G1 X224.594 Y172.863 E24.27735
G1 X223.874 Y174.62 E24.3405
G1 X223.601 Y175.264 E24.36377
G1 X223.362 Y175.786 E24.38286
G1 X222.906 Y176.713 E24.41723
G1 X221.788 Y179.068 E24.50393
G1 X220.645 Y181.67 E24.59846
G1 X220.586 Y181.81 E24.60351
G1 X220.194 Y182.635 E24.63389
G1 X219.956 Y183.083 E24.65076
G1 X219.497 Y183.861 E24.68081
G1 X218.972 Y184.596 E24.71085
G1 X218.549 Y185.1 E24.73273
G1 X218.285 Y185.395 E24.7459
G1 X217.653 Y186.041 E24.77596
G1 X216.967 Y186.628 E24.80599
G1 X216.558 Y186.932 E24.82294
G1 X216.213 Y187.175 E24.83697
G1 X215.452 Y187.662 E24.86702
G1 X214.651 Y188.08 E24.89707
G1 X214.043 Y188.34 E24.91907
G1 X213.671 Y188.485 E24.93235
G1 X212.816 Y188.775 E24.96237
G1 X211.939 Y188.989 E24.9924
G1 X211.394 Y189.081 E25.01078
G1 X210.941 Y189.145 E25.026
G1 X209.675 Y189.244 E25.06823
G1 X208.692 Y189.258 E25.10093
G1 X143.737 Y189.256 E27.26134
G1 X143.043 Y189.246 E27.28443
G1 X142.198 Y189.199 E27.31258
G1 X141.932 Y189.173 E27.32147
G1 X140.628 Y188.959 E27.36542
G1 X140.325 Y188.889 E27.37576
G1 X139.455 Y188.647 E27.4058
G1 X138.918 Y188.455 E27.42476
G1 X138.705 Y188.372 E27.43237
G1 X137.878 Y188.007 E27.46243
G1 X136.892 Y187.448 E27.50013
G1 X136.542 Y187.223 E27.51397
G1 X135.805 Y186.702 E27.54399
G1 X135.117 Y186.117 E27.57403
G1 X134.664 Y185.67 E27.59519
G1 X134.377 Y185.368 E27.60905
G1 X133.785 Y184.686 E27.63909
G1 X133.255 Y183.955 E27.66912
G1 X132.948 Y183.459 E27.68852
G1 X132.727 Y183.078 E27.70317
G1 X132.309 Y182.277 E27.73322
G1 X131.963 Y181.443 E27.76325
G1 X131.773 Y180.865 E27.78349
G1 X131.669 Y180.515 E27.79563
G1 X131.45 Y179.639 E27.82567
G1 X131.283 Y178.481 E27.86458
G1 X131.25 Y178.096 E27.87743
G1 X131.213 Y177.193 E27.90749
G1 X131.215 Y176.551 E27.92884
G1 X131.218 Y176.333 E27.9361
G1 X131.234 Y175.686 E27.95762
G1 X131.328 Y172.742 E28.05559
G1 X131.375 Y170.217 E28.13959
G1 X131.35 Y167.648 E28.22503
G1 X131.255 Y165.128 E28.30891
G1 X131.146 Y163.623 E28.3591
G1 X131.139 Y163.386 E28.36698
G1 X131.058 Y162.123 E28.40908
G1 X131.037 Y161.568 E28.42755
G1 X131.031 Y160.79 E28.45343
G1 X131.036 Y160.083 E28.47694
G1 X131.117 Y152.347 E28.73426
G1 X131.12 Y149.677 E28.82306
G1 X131.061 Y147.358 E28.90022
G1 X131.045 Y146.948 E28.91386
G1 X131.038 Y146.647 E28.92388
G1 X131.032 Y145.783 E28.95262
G1 X131.036 Y145.189 E28.97237
G1 X131.116 Y137.38 E29.23211
G1 X131.129 Y136.621 E29.25736
G1 X131.157 Y135.694 E29.28821
G1 X131.224 Y134.794 E29.31823
G1 X131.313 Y134.201 E29.33817
G1 X131.399 Y133.722 E29.35436
