;FLAVOR:Marlin
;TIME:3487
;Filament used: 2.06478m
;Layer height: 0.2
;MINX:127.566
;MINY:107.128
;MINZ:0.2
;MAXX:210.168
;MAXY:227.344
;MAXZ:4.4
;Generated with Creality Slicer 4.8.2-177
M140 S60
M105
M190 S60
M104 S200
M105
M109 S200
M82 ;absolute extrusion mode
M201 X500.00 Y500.00 Z100.00 E5000.00 ;Setup machine max acceleration
M203 X500.00 Y500.00 Z10.00 E50.00 ;Setup machine max feedrate
M204 P500.00 R1000.00 T500.00 ;Setup Print/Retract/Travel acceleration
M205 X8.00 Y8.00 Z0.40 E5.00 ;Setup Jerk
M220 S100 ;Reset Feedrate
M221 S100 ;Reset Flowrate

G28 ;Home

G92 E0 ;Reset Extruder
G1 Z2.0 F3000 ;Move Z Axis up
G1 X10.1 Y20 Z0.28 F5000.0 ;Move to start position
G1 X10.1 Y200.0 Z0.28 F1500.0 E15 ;Draw the first line
G1 X10.4 Y200.0 Z0.28 F5000.0 ;Move to side a little
G1 X10.4 Y20 Z0.28 F1500.0 E30 ;Draw the second line
G92 E0 ;Reset Extruder
G1 Z2.0 F3000 ;Move Z Axis up

G92 E0
G92 E0
G1 F3600 E-8
;LAYER_COUNT:22
;LAYER:0
M107
G0 F6000 X130.822 Y122.776 Z0.2
;TYPE:SKIRT
G1 F3600 E0
G1 F1200 X131.464 Y122.092 E0.0312
G1 X131.965 Y121.632 E0.05382
G1 X132.25 Y121.386 E0.06634
G1 X132.553 Y121.133 E0.07947
G1 X133.302 Y120.57 E0.11064
G1 X134.42 Y119.896 E0.15406
G1 X135.056 Y119.562 E0.17795
G1 X137.386 Y118.297 E0.26613
G1 X139.531 Y117.051 E0.34864
G1 X141.684 Y115.719 E0.43284
G1 X143.792 Y114.332 E0.51677
G1 X146.32 Y112.551 E0.61962
G1 X146.518 Y112.407 E0.62777
G1 X147.055 Y112.039 E0.64942
G1 X148.056 Y111.395 E0.68901
G1 X148.413 Y111.176 E0.70294
G1 X148.943 Y110.87 E0.72329
G1 X149.266 Y110.7 E0.73543
G1 X149.724 Y110.467 E0.75252
G1 X150.021 Y110.321 E0.76353
G1 X150.651 Y110.024 E0.7867
G1 X151.464 Y109.68 E0.81606
G1 X152.239 Y109.388 E0.8436
G1 X152.453 Y109.31 E0.85118
G1 X152.889 Y109.156 E0.86656
G1 X153.505 Y108.959 E0.88807
G1 X153.951 Y108.834 E0.90348
G1 X154.413 Y108.714 E0.91935
G1 X154.675 Y108.65 E0.92832
G1 X155.334 Y108.496 E0.95083
G1 X156 Y108.361 E0.97343
G1 X156.324 Y108.309 E0.98435
G1 X156.789 Y108.239 E0.99999
G1 X157.076 Y108.199 E1.00962
G1 X157.553 Y108.14 E1.02561
G1 X157.893 Y108.103 E1.03699
G1 X158.728 Y108.026 E1.06488
G1 X159.096 Y107.999 E1.07715
G1 X172.372 Y107.223 E1.51946
G1 X172.574 Y107.213 E1.52619
G1 X174.446 Y107.138 E1.5885
G1 X174.803 Y107.129 E1.60038
G1 X174.935 Y107.128 E1.60477
G1 X175.644 Y107.146 E1.62836
G1 X176.556 Y107.198 E1.65874
G1 X176.918 Y107.224 E1.67081
G1 X177.439 Y107.271 E1.68821
G1 X178.024 Y107.34 E1.70781
G1 X178.197 Y107.365 E1.71362
G1 X178.531 Y107.419 E1.72487
G1 X179.186 Y107.536 E1.747
G1 X179.858 Y107.669 E1.76979
G1 X180.431 Y107.799 E1.78933
G1 X180.85 Y107.91 E1.80375
G1 X181.276 Y108.031 E1.81848
G1 X181.554 Y108.114 E1.82812
G1 X182.267 Y108.337 E1.85297
G1 X182.803 Y108.52 E1.87181
G1 X182.965 Y108.58 E1.87756
G1 X183.289 Y108.705 E1.88911
G1 X183.648 Y108.851 E1.902
G1 X184.555 Y109.241 E1.93483
G1 X185.194 Y109.541 E1.95831
G1 X185.549 Y109.725 E1.97161
G1 X185.919 Y109.924 E1.98558
G1 X186.124 Y110.037 E1.99337
G1 X186.727 Y110.378 E2.01641
G1 X187.247 Y110.691 E2.0366
G1 X187.417 Y110.8 E2.04331
G1 X189.594 Y112.155 E2.1286
G1 X191.778 Y113.43 E2.21271
G1 X193.956 Y114.622 E2.29529
G1 X197.296 Y116.302 E2.41964
G1 X198.084 Y116.68 E2.44871
G1 X198.912 Y117.121 E2.47991
G1 X199.699 Y117.631 E2.51111
G1 X200.233 Y118.035 E2.53338
G1 X200.558 Y118.297 E2.54726
G1 X201.262 Y118.916 E2.57844
G1 X201.74 Y119.403 E2.60114
G1 X201.93 Y119.609 E2.61046
G1 X202.716 Y120.565 E2.65162
G1 X202.919 Y120.842 E2.66304
G1 X203.441 Y121.621 E2.69423
G1 X204.092 Y122.861 E2.74081
G1 X204.299 Y123.328 E2.7578
G1 X204.354 Y123.457 E2.76247
G1 X204.684 Y124.334 E2.79363
G1 X205.032 Y125.667 E2.83946
G1 X205.13 Y126.17 E2.8565
G1 X205.122 Y126.171 E2.85677
G1 X205.237 Y126.805 E2.8782
G1 X205.31 Y127.496 E2.90131
G1 X205.378 Y128.436 E2.93266
G1 X210.133 Y209.765 E5.64229
G1 X210.166 Y210.485 E5.66626
G1 X210.168 Y211.468 E5.69896
G1 X210.153 Y211.812 E5.71041
G1 X210.134 Y212.13 E5.721
G1 X210.121 Y212.309 E5.72697
G1 X210.013 Y213.24 E5.75815
G1 X209.742 Y214.481 E5.80039
G1 X209.645 Y214.827 E5.81235
G1 X209.517 Y215.253 E5.82714
G1 X209.201 Y216.136 E5.85833
G1 X208.64 Y217.31 E5.90161
G1 X208.435 Y217.681 E5.91571
G1 X208.196 Y218.092 E5.93152
G1 X208.149 Y218.169 E5.93452
G1 X207.627 Y218.948 E5.96571
G1 X206.894 Y219.844 E6.00421
G1 X206.599 Y220.168 E6.01879
G1 X206.263 Y220.521 E6.035
G1 X205.578 Y221.162 E6.0662
G1 X204.636 Y221.886 E6.10571
G1 X204.279 Y222.131 E6.12012
G1 X203.853 Y222.409 E6.13703
G1 X203.774 Y222.458 E6.14013
G1 X202.957 Y222.918 E6.17131
G1 X201.938 Y223.372 E6.20842
G1 X201.635 Y223.489 E6.21922
G1 X201.107 Y223.677 E6.23786
G1 X200.894 Y223.747 E6.24532
G1 X199.992 Y224.002 E6.27649
G1 X199.06 Y224.18 E6.30805
G1 X198.788 Y224.22 E6.3172
G1 X198.017 Y224.306 E6.343
G1 X197.091 Y224.376 E6.37389
G1 X147.014 Y227.305 E8.0423
G1 X146.332 Y227.336 E8.06501
G1 X145.671 Y227.344 E8.08699
G1 X145.263 Y227.337 E8.10057
G1 X144.557 Y227.303 E8.12407
G1 X144.049 Y227.251 E8.14106
G1 X143.799 Y227.22 E8.14944
G1 X142.874 Y227.065 E8.18063
G1 X141.586 Y226.71 E8.22507
G1 X141.055 Y226.528 E8.24374
G1 X140.182 Y226.186 E8.27492
G1 X139.341 Y225.771 E8.30611
G1 X138.726 Y225.408 E8.32987
G1 X138.474 Y225.248 E8.3398
G1 X138.216 Y225.079 E8.35005
G1 X138.056 Y224.971 E8.35647
G1 X137.302 Y224.414 E8.38765
G1 X136.333 Y223.532 E8.43123
G1 X136.025 Y223.216 E8.44591
G1 X135.701 Y222.869 E8.4617
G1 X135.101 Y222.148 E8.4929
G1 X134.424 Y221.148 E8.53306
G1 X134.197 Y220.77 E8.54773
G1 X134.013 Y220.453 E8.55992
G1 X133.588 Y219.617 E8.59111
G1 X133.118 Y218.399 E8.63453
G1 X132.988 Y217.992 E8.64875
G1 X132.855 Y217.545 E8.66426
G1 X132.638 Y216.632 E8.69547
G1 X132.54 Y216.035 E8.71559
G1 X132.509 Y215.807 E8.72324
G1 X132.438 Y215.129 E8.74592
G1 X132.376 Y214.283 E8.77413
G1 X127.613 Y132.838 E11.48763
G1 X127.576 Y132.029 E11.51457
G1 X127.566 Y131.386 E11.53596
G1 X127.568 Y131.229 E11.54118
G1 X127.62 Y130.292 E11.57239
G1 X127.702 Y129.652 E11.59385
G1 X127.775 Y129.19 E11.60941
G1 X127.881 Y128.616 E11.62882
G1 X128.111 Y127.706 E11.66004
G1 X128.456 Y126.725 E11.69463
G1 X128.617 Y126.328 E11.70888
G1 X128.816 Y125.868 E11.72555
G1 X129.237 Y125.03 E11.75674
G1 X129.935 Y123.935 E11.79993
G1 X130.241 Y123.512 E11.81729
G1 X130.822 Y122.776 E11.84848
G0 F6000 X131.136 Y123.024
G1 F1200 X131.768 Y122.355 E11.87909
G1 X132.227 Y121.935 E11.89978
G1 X132.512 Y121.689 E11.9123
G1 X132.807 Y121.443 E11.92508
G1 X133.543 Y120.89 E11.9557
G1 X134.606 Y120.25 E11.99697
G1 X135.282 Y119.895 E12.02236
G1 X137.544 Y118.667 E12.10797
G1 X139.763 Y117.378 E12.19332
G1 X141.893 Y116.06 E12.27663
G1 X144.012 Y114.665 E12.36101
G1 X146.565 Y112.868 E12.46485
G1 X146.754 Y112.73 E12.47264
G1 X147.272 Y112.375 E12.49352
G1 X147.837 Y112.012 E12.51586
G1 X147.913 Y111.961 E12.5189
G1 X148.265 Y111.736 E12.5328
G1 X148.622 Y111.517 E12.54673
G1 X149.133 Y111.222 E12.56635
G1 X149.448 Y111.056 E12.57819
G1 X149.906 Y110.823 E12.59529
G1 X150.192 Y110.683 E12.60588
G1 X150.822 Y110.386 E12.62904
G1 X151.605 Y110.055 E12.65732
G1 X152.38 Y109.763 E12.68486
G1 X152.587 Y109.687 E12.6922
G1 X153.023 Y109.533 E12.70758
G1 X153.616 Y109.343 E12.72829
G1 X154.051 Y109.221 E12.74331
G1 X154.513 Y109.101 E12.75919
G1 X154.766 Y109.039 E12.76785
G1 X155.425 Y108.885 E12.79036
G1 X156.067 Y108.756 E12.81214
G1 X156.383 Y108.704 E12.82279
G1 X156.848 Y108.634 E12.83843
G1 X157.125 Y108.596 E12.84773
G1 X157.602 Y108.537 E12.86372
G1 X157.93 Y108.502 E12.87469
G1 X158.765 Y108.425 E12.90258
G1 X159.119 Y108.398 E12.91439
G1 X172.59 Y107.612 E13.3632
G1 X174.462 Y107.537 E13.42551
G1 X174.806 Y107.529 E13.43695
G1 X174.938 Y107.528 E13.44135
G1 X175.621 Y107.545 E13.46407
G1 X176.533 Y107.597 E13.49445
G1 X176.882 Y107.623 E13.50609
G1 X177.403 Y107.67 E13.52349
G1 X177.967 Y107.736 E13.54238
G1 X178.14 Y107.761 E13.54819
G1 X178.462 Y107.813 E13.55904
G1 X178.888 Y107.888 E13.57343
G1 X179.108 Y107.929 E13.58087
G1 X179.78 Y108.062 E13.60365
G1 X180.332 Y108.186 E13.62247
G1 X180.74 Y108.294 E13.63651
G1 X181.166 Y108.415 E13.65124
G1 X181.434 Y108.495 E13.66054
G1 X182.147 Y108.718 E13.68539
G1 X182.665 Y108.895 E13.70359
G1 X182.827 Y108.955 E13.70934
G1 X183.138 Y109.076 E13.72044
G1 X183.497 Y109.222 E13.73333
G1 X183.707 Y109.31 E13.7409
G1 X184.397 Y109.608 E13.7659
G1 X185.012 Y109.897 E13.7885
G1 X185.36 Y110.078 E13.80155
G1 X185.927 Y110.385 E13.82299
G1 X186.53 Y110.726 E13.84603
G1 X187.031 Y111.028 E13.86549
G1 X187.194 Y111.133 E13.87194
G1 X189.402 Y112.507 E13.95844
G1 X191.578 Y113.777 E14.04223
G1 X193.762 Y114.972 E14.12504
G1 X197.122 Y116.663 E14.25015
G1 X197.911 Y117.041 E14.27925
G1 X198.723 Y117.474 E14.30985
G1 X199.495 Y117.977 E14.3405
G1 X199.982 Y118.347 E14.36084
G1 X200.307 Y118.609 E14.37473
G1 X200.998 Y119.217 E14.40534
G1 X201.446 Y119.674 E14.42662
G1 X201.636 Y119.88 E14.43594
G1 X202.394 Y120.801 E14.47562
G1 X202.597 Y121.078 E14.48704
G1 X203.108 Y121.844 E14.51767
G1 X203.727 Y123.024 E14.56198
G1 X203.931 Y123.485 E14.57875
G1 X203.986 Y123.614 E14.58342
G1 X204.31 Y124.475 E14.61401
G1 X204.639 Y125.744 E14.65762
G1 X204.737 Y126.247 E14.67466
G1 X204.73 Y126.248 E14.6749
G1 X204.843 Y126.876 E14.69612
G1 X204.911 Y127.525 E14.71782
G1 X204.979 Y128.459 E14.74897
G1 X209.734 Y209.784 E17.45847
G1 X209.767 Y210.504 E17.48244
G1 X209.768 Y211.451 E17.51394
G1 X209.753 Y211.795 E17.52539
G1 X209.735 Y212.101 E17.53559
G1 X209.722 Y212.28 E17.54156
G1 X209.616 Y213.194 E17.57216
G1 X209.356 Y214.373 E17.61232
G1 X209.259 Y214.719 E17.62427
G1 X209.176 Y215.002 E17.63408
G1 X209.135 Y215.134 E17.63867
G1 X208.824 Y216.001 E17.66931
G1 X208.29 Y217.117 E17.71046
G1 X208.085 Y217.488 E17.72456
G1 X207.855 Y217.884 E17.73979
G1 X207.808 Y217.961 E17.74279
G1 X207.294 Y218.725 E17.77341
G1 X206.598 Y219.574 E17.80993
G1 X206.303 Y219.898 E17.8245
G1 X205.977 Y220.241 E17.84024
G1 X205.304 Y220.869 E17.87086
G1 X204.41 Y221.556 E17.90836
G1 X204.053 Y221.801 E17.92276
G1 X203.642 Y222.069 E17.93908
G1 X203.563 Y222.118 E17.94217
G1 X202.76 Y222.569 E17.9728
G1 X201.794 Y222.998 E18.00796
G1 X201.491 Y223.115 E18.01876
G1 X200.982 Y223.297 E18.03674
G1 X200.769 Y223.367 E18.0442
G1 X199.883 Y223.616 E18.07481
G1 X199.002 Y223.784 E18.10464
G1 X198.73 Y223.824 E18.11378
G1 X197.987 Y223.907 E18.13865
G1 X196.881 Y223.989 E18.17553
G1 X146.991 Y226.906 E19.83771
G1 X146.315 Y226.936 E19.86022
G1 X145.678 Y226.944 E19.88141
G1 X145.27 Y226.937 E19.89498
G1 X144.59 Y226.904 E19.91762
G1 X144.099 Y226.854 E19.93404
G1 X143.849 Y226.823 E19.94242
G1 X142.941 Y226.671 E19.97304
G1 X141.716 Y226.331 E20.01532
G1 X141.185 Y226.149 E20.03399
G1 X140.328 Y225.813 E20.06461
G1 X139.503 Y225.404 E20.09524
G1 X138.94 Y225.071 E20.11699
G1 X138.688 Y224.911 E20.12692
G1 X138.44 Y224.748 E20.13679
G1 X138.28 Y224.64 E20.14321
G1 X137.54 Y224.092 E20.17384
G1 X136.619 Y223.253 E20.21527
G1 X136.311 Y222.937 E20.22995
G1 X135.997 Y222.601 E20.24525
G1 X135.409 Y221.892 E20.27588
G1 X134.767 Y220.942 E20.31402
G1 X134.54 Y220.564 E20.32868
G1 X134.362 Y220.257 E20.34049
G1 X133.945 Y219.436 E20.37111
G1 X133.499 Y218.277 E20.41242
G1 X133.369 Y217.87 E20.42663
G1 X133.24 Y217.436 E20.44169
G1 X133.028 Y216.54 E20.47231
G1 X132.937 Y215.981 E20.49115
G1 X132.906 Y215.753 E20.4988
G1 X132.837 Y215.1 E20.52064
G1 X132.765 Y214.098 E20.55405
G1 X128.013 Y132.819 E23.26202
G1 X127.976 Y132.01 E23.28896
G1 X127.966 Y131.391 E23.30955
G1 X127.968 Y131.234 E23.31477
G1 X128.02 Y130.315 E23.34538
G1 X128.097 Y129.715 E23.3655
G1 X128.17 Y129.253 E23.38106
G1 X128.273 Y128.697 E23.39987
G1 X128.5 Y127.805 E23.43048
G1 X128.827 Y126.875 E23.46327
G1 X128.988 Y126.478 E23.47752
G1 X129.181 Y126.032 E23.49368
G1 X129.595 Y125.21 E23.52429
G1 X130.259 Y124.169 E23.56536
G1 X130.565 Y123.746 E23.58273
G1 X131.136 Y123.024 E23.61334
G0 F6000 X131.45 Y123.273
G1 F1200 X132.072 Y122.618 E23.64339
G1 X132.488 Y122.238 E23.66213
G1 X132.773 Y121.992 E23.67465
G1 X133.06 Y121.752 E23.68709
G1 X133.783 Y121.21 E23.71714
G1 X134.791 Y120.604 E23.75626
G1 X135.451 Y120.257 E23.78106
G1 X137.771 Y118.998 E23.86886
G1 X139.953 Y117.731 E23.95278
G1 X142.118 Y116.391 E24.03746
G1 X144.249 Y114.989 E24.1223
G1 X146.754 Y113.224 E24.22422
G1 X146.989 Y113.053 E24.23389
G1 X147.488 Y112.712 E24.25399
G1 X148.474 Y112.077 E24.293
G1 X148.831 Y111.858 E24.30693
G1 X149.323 Y111.574 E24.32582
G1 X149.629 Y111.413 E24.33733
G1 X150.087 Y111.18 E24.35442
G1 X150.363 Y111.045 E24.36464
G1 X150.993 Y110.748 E24.3878
G1 X151.746 Y110.429 E24.415
G1 X152.521 Y110.137 E24.44255
G1 X152.72 Y110.064 E24.4496
G1 X153.156 Y109.91 E24.46498
G1 X153.727 Y109.727 E24.48492
G1 X153.89 Y109.68 E24.49056
G1 X154.152 Y109.609 E24.49959
G1 X154.614 Y109.489 E24.51547
G1 X154.857 Y109.429 E24.52379
G1 X155.516 Y109.275 E24.5463
G1 X156.134 Y109.15 E24.56727
G1 X156.443 Y109.1 E24.57768
G1 X156.908 Y109.03 E24.59332
G1 X157.174 Y108.993 E24.60225
G1 X157.651 Y108.934 E24.61824
G1 X157.966 Y108.9 E24.62878
G1 X158.801 Y108.823 E24.65667
G1 X159.143 Y108.797 E24.66808
G1 X172.419 Y108.021 E25.11039
G1 X174.478 Y107.937 E25.17893
G1 X174.809 Y107.929 E25.18994
G1 X174.941 Y107.928 E25.19433
G1 X175.599 Y107.945 E25.21623
G1 X176.511 Y107.997 E25.24661
G1 X176.846 Y108.021 E25.25778
G1 X177.367 Y108.068 E25.27518
G1 X177.91 Y108.132 E25.29336
G1 X178.083 Y108.157 E25.29918
G1 X178.393 Y108.206 E25.30962
G1 X178.819 Y108.281 E25.324
G1 X179.702 Y108.454 E25.35393
G1 X180.234 Y108.574 E25.37207
G1 X180.631 Y108.679 E25.38573
G1 X181.057 Y108.8 E25.40046
G1 X181.315 Y108.877 E25.40941
G1 X182.028 Y109.1 E25.43426
G1 X182.526 Y109.27 E25.45176
G1 X182.688 Y109.33 E25.45751
G1 X182.988 Y109.446 E25.4682
G1 X183.347 Y109.592 E25.48109
G1 X184.238 Y109.975 E25.51335
G1 X184.831 Y110.254 E25.53515
G1 X185.17 Y110.43 E25.54785
G1 X185.73 Y110.733 E25.56903
G1 X186.333 Y111.074 E25.59207
G1 X186.815 Y111.365 E25.6108
G1 X186.951 Y111.452 E25.61617
G1 X189.179 Y112.84 E25.70347
G1 X191.407 Y114.139 E25.78925
G1 X193.569 Y115.323 E25.87124
G1 X196.927 Y117.012 E25.99626
G1 X197.738 Y117.401 E26.02617
G1 X198.534 Y117.827 E26.0562
G1 X199.29 Y118.322 E26.08626
G1 X199.731 Y118.658 E26.1047
G1 X200.056 Y118.92 E26.11858
G1 X200.733 Y119.517 E26.1486
G1 X201.152 Y119.946 E26.16855
G1 X201.342 Y120.152 E26.17787
G1 X202.071 Y121.038 E26.21603
G1 X202.274 Y121.315 E26.22745
G1 X202.775 Y122.066 E26.25748
G1 X203.361 Y123.187 E26.29955
G1 X203.563 Y123.642 E26.31611
G1 X203.618 Y123.771 E26.32077
G1 X203.935 Y124.616 E26.35079
G1 X204.247 Y125.82 E26.39216
G1 X204.345 Y126.323 E26.4092
G1 X204.337 Y126.325 E26.40948
G1 X204.449 Y126.947 E26.4305
G1 X204.512 Y127.555 E26.45083
G1 X204.58 Y128.483 E26.48178
G1 X209.328 Y209.674 E29.18681
G1 X209.367 Y210.522 E29.21505
G1 X209.368 Y211.433 E29.24535
G1 X209.353 Y211.777 E29.2568
G1 X209.336 Y212.072 E29.26663
G1 X209.323 Y212.251 E29.2726
G1 X209.218 Y213.148 E29.30263
G1 X208.971 Y214.265 E29.34068
G1 X208.874 Y214.611 E29.35264
G1 X208.794 Y214.884 E29.3621
G1 X208.753 Y215.016 E29.36669
G1 X208.447 Y215.865 E29.39671
G1 X207.94 Y216.923 E29.43573
G1 X207.735 Y217.294 E29.44983
G1 X207.513 Y217.675 E29.4645
G1 X207.466 Y217.752 E29.4675
G1 X206.962 Y218.501 E29.49752
G1 X206.302 Y219.305 E29.53212
G1 X206.007 Y219.629 E29.54669
G1 X205.692 Y219.961 E29.56192
G1 X205.031 Y220.577 E29.59197
G1 X204.184 Y221.226 E29.62746
G1 X203.827 Y221.471 E29.64186
G1 X203.431 Y221.729 E29.65758
G1 X203.352 Y221.778 E29.66067
G1 X202.565 Y222.22 E29.69069
G1 X201.65 Y222.625 E29.72397
G1 X201.347 Y222.742 E29.73478
G1 X200.858 Y222.917 E29.75205
G1 X200.645 Y222.987 E29.75951
G1 X199.775 Y223.231 E29.78956
G1 X198.944 Y223.388 E29.81769
G1 X198.672 Y223.428 E29.82683
G1 X197.957 Y223.508 E29.85076
G1 X196.857 Y223.59 E29.88745
G1 X146.81 Y226.515 E31.55486
G1 X146.298 Y226.537 E31.57191
G1 X145.685 Y226.544 E31.5923
G1 X145.277 Y226.537 E31.60587
G1 X144.622 Y226.505 E31.62768
G1 X144.148 Y226.457 E31.64352
G1 X143.898 Y226.426 E31.6519
