;FLAVOR:Marlin
;TIME:8678
;Filament used: 5.10388m
;Layer height: 0.28
;MINX:150.192
;MINY:162.181
;MINZ:0.28
;MAXX:209.798
;MAXY:197.802
;MAXZ:159.88
;Generated with Creality Slicer 4.8.2-177
M140 S60
M105
M190 S60
M104 S200
M105
M109 S200
M82 ;absolute extrusion mode
M201 X500.00 Y500.00 Z100.00 E5000.00 ;Setup machine max acceleration
M203 X500.00 Y500.00 Z10.00 E50.00 ;Setup machine max feedrate
M204 P500.00 R1000.00 T500.00 ;Setup Print/Retract/Travel acceleration
M205 X8.00 Y8.00 Z0.40 E5.00 ;Setup Jerk
M220 S100 ;Reset Feedrate
M221 S100 ;Reset Flowrate

G28 ;Home

G92 E0 ;Reset Extruder
G1 Z2.0 F3000 ;Move Z Axis up
G1 X10.1 Y20 Z0.28 F5000.0 ;Move to start position
G1 X10.1 Y200.0 Z0.28 F1500.0 E15 ;Draw the first line
G1 X10.4 Y200.0 Z0.28 F5000.0 ;Move to side a little
G1 X10.4 Y20 Z0.28 F1500.0 E30 ;Draw the second line
G92 E0 ;Reset Extruder
G1 Z2.0 F3000 ;Move Z Axis up

G92 E0
G92 E0
G1 F3600 E-8
;LAYER_COUNT:571
;LAYER:0
M107
G0 F6000 X161.654 Y166.468 Z0.28
;TYPE:SKIRT
G1 F3600 E0
G1 F1200 X162.095 Y166.04 E0.02862
G1 X162.342 Y165.808 E0.04439
G1 X162.742 Y165.444 E0.06958
G1 X163.461 Y164.843 E0.11321
G1 X164.162 Y164.349 E0.15315
G1 X164.27 Y164.279 E0.15914
G1 X165.175 Y163.752 E0.2079
G1 X165.519 Y163.573 E0.22596
G1 X166.369 Y163.176 E0.26964
G1 X167.118 Y162.895 E0.30689
G1 X167.232 Y162.857 E0.31249
G1 X168.322 Y162.556 E0.36514
G1 X168.722 Y162.467 E0.38423
G1 X169.843 Y162.277 E0.43717
G1 X170.924 Y162.204 E0.48762
G1 X172.055 Y162.183 E0.54029
G1 X172.259 Y162.181 E0.54979
G1 X187.963 Y162.181 E1.28104
G1 X188.612 Y162.189 E1.31126
G1 X188.973 Y162.2 E1.32808
G1 X189.462 Y162.223 E1.35087
G1 X190.834 Y162.374 E1.41514
G1 X190.943 Y162.393 E1.42029
G1 X191.859 Y162.594 E1.46396
G1 X192.377 Y162.744 E1.48907
G1 X192.803 Y162.879 E1.50988
G1 X193.684 Y163.2 E1.55354
G1 X194.295 Y163.475 E1.58474
G1 X194.371 Y163.512 E1.58868
G1 X195.462 Y164.122 E1.64688
G1 X195.814 Y164.346 E1.66631
G1 X196.583 Y164.883 E1.70998
G1 X197.152 Y165.348 E1.7442
G1 X197.216 Y165.404 E1.74816
G1 X197.614 Y165.77 E1.77334
G1 X198.316 Y166.448 E1.81878
G1 X205.997 Y174.127 E2.32452
G1 X206.572 Y174.716 E2.36285
G1 X207.197 Y175.415 E2.40651
G1 X207.76 Y176.165 E2.45018
G1 X208.103 Y176.699 E2.47974
G1 X208.219 Y176.891 E2.49018
G1 X208.669 Y177.713 E2.53382
G1 X209.048 Y178.571 E2.57749
G1 X209.352 Y179.459 E2.6212
G1 X209.58 Y180.369 E2.66488
G1 X209.729 Y181.294 E2.70851
G1 X209.798 Y182.23 E2.75221
G1 X209.784 Y183.247 E2.79957
G1 X209.77 Y183.477 E2.8103
G1 X209.673 Y184.41 E2.85398
G1 X209.497 Y185.331 E2.89764
G1 X209.243 Y186.234 E2.94132
G1 X208.913 Y187.112 E2.985
G1 X208.51 Y187.959 E3.02867
G1 X208.036 Y188.768 E3.07233
G1 X207.664 Y189.31 E3.10294
G1 X207.538 Y189.482 E3.11287
G1 X206.952 Y190.214 E3.15653
G1 X206.306 Y190.893 E3.20017
G1 X205.604 Y191.516 E3.24388
G1 X204.715 Y192.167 E3.29518
G1 X202.529 Y193.607 E3.41707
G1 X200.066 Y195.34 E3.55731
G1 X199.573 Y195.699 E3.5857
G1 X198.792 Y196.219 E3.62939
G1 X197.969 Y196.67 E3.67309
G1 X197.112 Y197.049 E3.71673
G1 X196.225 Y197.354 E3.7604
G1 X195.315 Y197.582 E3.80409
G1 X194.389 Y197.732 E3.84777
G1 X193.454 Y197.802 E3.89143
G1 X192.516 Y197.793 E3.93511
G1 X191.931 Y197.746 E3.96243
G1 X191.487 Y197.698 E3.98323
G1 X189.42 Y197.448 E4.08018
G1 X186.911 Y197.218 E4.1975
G1 X184.394 Y197.058 E4.31494
G1 X181.907 Y196.971 E4.43081
G1 X179.379 Y196.954 E4.54853
G1 X176.828 Y197.008 E4.66734
G1 X174.364 Y197.131 E4.78222
G1 X171.829 Y197.329 E4.90062
G1 X169.222 Y197.608 E5.0227
G1 X168.209 Y197.729 E5.07021
G1 X167.274 Y197.801 E5.11387
G1 X166.336 Y197.793 E5.15755
G1 X165.402 Y197.705 E5.20124
G1 X164.479 Y197.538 E5.24491
G1 X163.574 Y197.292 E5.28858
G1 X162.693 Y196.971 E5.33224
G1 X161.842 Y196.576 E5.37593
G1 X161.157 Y196.189 E5.41257
G1 X160.525 Y195.774 E5.44777
G1 X159.719 Y195.203 E5.49377
G1 X158.952 Y194.645 E5.53793
G1 X156.864 Y193.215 E5.65577
G1 X155.791 Y192.52 E5.7153
G1 X155.272 Y192.173 E5.74437
G1 X154.515 Y191.619 E5.78805
G1 X153.854 Y191.046 E5.82879
G1 X153.705 Y190.906 E5.83831
G1 X153.049 Y190.235 E5.882
G1 X152.453 Y189.511 E5.92567
G1 X151.921 Y188.738 E5.96936
G1 X151.457 Y187.923 E6.01303
G1 X151.063 Y187.072 E6.0567
G1 X150.744 Y186.19 E6.10037
G1 X150.498 Y185.27 E6.14472
G1 X150.445 Y185.031 E6.15612
G1 X150.281 Y184.108 E6.19977
G1 X150.196 Y183.174 E6.24344
G1 X150.192 Y182.236 E6.28712
G1 X150.267 Y181.301 E6.33079
G1 X150.422 Y180.376 E6.37447
G1 X150.654 Y179.468 E6.41811
G1 X151.08 Y178.302 E6.47591
G1 X151.185 Y178.058 E6.48828
G1 X151.592 Y177.213 E6.53195
G1 X152.07 Y176.406 E6.57563
G1 X152.614 Y175.642 E6.6193
G1 X153.235 Y174.914 E6.66385
G1 X153.395 Y174.742 E6.67479
G1 X153.596 Y174.532 E6.68833
G1 X153.823 Y174.3 E6.70344
G1 X161.654 Y166.468 E7.21916
G0 F6000 X161.937 Y166.751
G1 F1200 X162.373 Y166.328 E7.24745
G1 X162.611 Y166.104 E7.26267
G1 X163.011 Y165.74 E7.28785
G1 X163.718 Y165.151 E7.3307
G1 X164.38 Y164.685 E7.36839
G1 X164.488 Y164.615 E7.37439
G1 X165.36 Y164.107 E7.42138
G1 X165.704 Y163.928 E7.43944
G1 X166.538 Y163.539 E7.48229
G1 X167.245 Y163.275 E7.51743
G1 X167.359 Y163.237 E7.52302
G1 X168.409 Y162.946 E7.57376
G1 X168.809 Y162.857 E7.59284
G1 X169.889 Y162.675 E7.64384
G1 X170.931 Y162.604 E7.69247
G1 X172.259 Y162.581 E7.75432
G1 X187.963 Y162.581 E8.48556
G1 X188.606 Y162.589 E8.5155
G1 X188.954 Y162.6 E8.53172
G1 X189.443 Y162.623 E8.55451
G1 X190.765 Y162.768 E8.61644
G1 X190.874 Y162.787 E8.62159
G1 X191.774 Y162.985 E8.6645
G1 X192.256 Y163.125 E8.68787
G1 X192.682 Y163.26 E8.70868
G1 X193.547 Y163.576 E8.75156
G1 X194.12 Y163.834 E8.78082
G1 X194.196 Y163.871 E8.78476
G1 X195.247 Y164.459 E8.84084
G1 X195.599 Y164.683 E8.86026
G1 X196.353 Y165.211 E8.90313
G1 X196.888 Y165.649 E8.93532
G1 X196.952 Y165.705 E8.93928
G1 X197.336 Y166.057 E8.96354
G1 X198.038 Y166.735 E9.00898
G1 X205.816 Y174.513 E9.52118
G1 X206.285 Y174.995 E9.55249
G1 X206.898 Y175.682 E9.59537
G1 X207.449 Y176.42 E9.63825
G1 X207.761 Y176.906 E9.66514
G1 X207.877 Y177.098 E9.67559
G1 X208.318 Y177.906 E9.71845
G1 X208.688 Y178.749 E9.76132
G1 X208.983 Y179.621 E9.80418
G1 X209.201 Y180.515 E9.84703
G1 X209.341 Y181.425 E9.8899
G1 X209.401 Y182.344 E9.93279
G1 X209.384 Y183.223 E9.97373
G1 X209.37 Y183.453 E9.98446
G1 X209.275 Y184.369 E10.02734
G1 X209.1 Y185.273 E10.07021
G1 X208.847 Y186.158 E10.11307
G1 X208.519 Y187.018 E10.15593
G1 X208.117 Y187.846 E10.19879
G1 X207.644 Y188.637 E10.24171
G1 X207.341 Y189.073 E10.26643
G1 X207.215 Y189.245 E10.27636
G1 X206.639 Y189.964 E10.31926
G1 X206.003 Y190.629 E10.3621
G1 X205.312 Y191.237 E10.40496
G1 X204.495 Y191.833 E10.45205
G1 X202.309 Y193.273 E10.57394
G1 X199.821 Y195.024 E10.71561
G1 X199.337 Y195.376 E10.74347
G1 X198.57 Y195.885 E10.78634
G1 X197.762 Y196.326 E10.8292
G1 X196.918 Y196.695 E10.87209
G1 X196.046 Y196.989 E10.91494
G1 X195.151 Y197.207 E10.95784
G1 X194.241 Y197.346 E11.0007
G1 X193.323 Y197.406 E11.04354
G1 X191.973 Y197.348 E11.10646
G1 X191.535 Y197.301 E11.12697
G1 X189.434 Y197.047 E11.22551
G1 X186.975 Y196.821 E11.3405
G1 X184.432 Y196.66 E11.45915
G1 X181.889 Y196.571 E11.57763
G1 X179.373 Y196.554 E11.69479
G1 X176.834 Y196.608 E11.81304
G1 X174.311 Y196.734 E11.93067
G1 X171.791 Y196.93 E12.04837
G1 X169.209 Y197.206 E12.16928
G1 X168.161 Y197.332 E12.21843
G1 X167.243 Y197.401 E12.2613
G1 X166.323 Y197.391 E12.30414
G1 X165.406 Y197.301 E12.34704
G1 X164.501 Y197.132 E12.38991
G1 X163.614 Y196.885 E12.43279
G1 X162.752 Y196.562 E12.47565
G1 X161.921 Y196.166 E12.51851
G1 X161.365 Y195.848 E12.54834
G1 X160.756 Y195.448 E12.58227
G1 X159.954 Y194.88 E12.62803
G1 X159.168 Y194.308 E12.67329
G1 X157.085 Y192.881 E12.79086
G1 X156.013 Y192.188 E12.8503
G1 X155.494 Y191.841 E12.87937
G1 X154.752 Y191.296 E12.92224
G1 X154.128 Y190.754 E12.96073
G1 X153.979 Y190.614 E12.97025
G1 X153.336 Y189.955 E13.01312
G1 X152.752 Y189.243 E13.056
G1 X152.233 Y188.483 E13.09886
G1 X151.782 Y187.68 E13.14174
G1 X151.402 Y186.842 E13.18459
G1 X151.096 Y185.973 E13.22748
G1 X150.888 Y185.184 E13.26548
G1 X150.835 Y184.945 E13.27688
G1 X150.675 Y184.038 E13.31976
G1 X150.594 Y183.121 E13.36263
G1 X150.594 Y182.201 E13.40547
G1 X150.672 Y181.283 E13.44837
G1 X150.831 Y180.376 E13.49125
G1 X151.067 Y179.486 E13.53412
G1 X151.447 Y178.46 E13.58507
G1 X151.552 Y178.216 E13.59744
G1 X151.953 Y177.387 E13.64032
G1 X152.423 Y176.596 E13.68316
G1 X152.961 Y175.848 E13.72606
G1 X153.528 Y175.186 E13.76665
G1 X153.688 Y175.014 E13.77759
G1 X153.881 Y174.812 E13.7906
G1 X154.106 Y174.583 E13.80555
G1 X161.937 Y166.751 E14.32126
G0 F6000 X162.339 Y166.917
G1 F1200 X162.651 Y166.615 E14.34148
G1 X162.88 Y166.4 E14.35611
G1 X163.28 Y166.036 E14.38129
G1 X163.974 Y165.458 E14.42335
G1 X164.597 Y165.021 E14.45878
G1 X164.705 Y164.951 E14.46478
G1 X165.545 Y164.462 E14.51004
G1 X165.889 Y164.283 E14.52809
G1 X166.708 Y163.902 E14.57015
G1 X167.371 Y163.654 E14.60311
G1 X167.485 Y163.616 E14.60871
G1 X168.496 Y163.336 E14.65756
G1 X168.896 Y163.247 E14.67664
G1 X169.936 Y163.072 E14.72575
G1 X170.939 Y163.004 E14.77256
G1 X172.259 Y162.981 E14.83403
G1 X187.963 Y162.981 E15.56528
G1 X188.601 Y162.989 E15.59499
G1 X188.935 Y162.999 E15.61055
G1 X189.424 Y163.022 E15.63334
G1 X190.697 Y163.163 E15.69298
G1 X190.806 Y163.182 E15.69813
G1 X191.688 Y163.376 E15.74018
G1 X192.135 Y163.507 E15.76187
G1 X192.561 Y163.642 E15.78268
G1 X193.409 Y163.952 E15.82472
G1 X193.945 Y164.194 E15.85211
G1 X194.021 Y164.231 E15.85604
G1 X195.032 Y164.797 E15.91
G1 X195.384 Y165.021 E15.92942
G1 X196.124 Y165.539 E15.97148
G1 X196.625 Y165.95 E16.00166
G1 X196.689 Y166.006 E16.00562
G1 X197.058 Y166.345 E16.02895
G1 X197.76 Y167.023 E16.0744
G1 X205.529 Y174.792 E16.586
G1 X205.998 Y175.274 E16.61731
G1 X206.599 Y175.948 E16.65936
G1 X207.137 Y176.673 E16.7014
G1 X207.418 Y177.112 E16.72567
G1 X207.534 Y177.304 E16.73612
G1 X207.967 Y178.097 E16.77819
G1 X208.327 Y178.925 E16.82023
G1 X208.613 Y179.782 E16.8623
G1 X208.822 Y180.661 E16.90437
G1 X208.952 Y181.554 E16.94639
G1 X209.003 Y182.456 E16.98846
G1 X208.985 Y183.199 E17.02306
G1 X208.971 Y183.429 E17.03379
G1 X208.876 Y184.327 E17.07584
G1 X208.703 Y185.213 E17.11788
G1 X208.451 Y186.08 E17.15992
G1 X208.124 Y186.922 E17.20198
G1 X207.723 Y187.732 E17.24407
G1 X207.018 Y188.837 E17.3051
G1 X206.892 Y189.009 E17.31503
G1 X206.327 Y189.713 E17.35706
G1 X205.701 Y190.364 E17.39911
G1 X205.021 Y190.958 E17.44116
G1 X204.275 Y191.499 E17.48407
G1 X202.088 Y192.94 E17.60602
G1 X199.605 Y194.686 E17.74736
G1 X199.102 Y195.053 E17.77636
G1 X198.349 Y195.552 E17.81842
G1 X197.555 Y195.982 E17.86047
G1 X196.726 Y196.34 E17.90251
G1 X195.868 Y196.624 E17.9446
G1 X194.989 Y196.831 E17.98665
G1 X194.095 Y196.959 E18.0287
G1 X193.194 Y197.008 E18.07072
G1 X192.016 Y196.951 E18.12563
G1 X191.583 Y196.903 E18.14592
G1 X189.52 Y196.654 E18.24268
G1 X186.998 Y196.422 E18.36061
G1 X184.438 Y196.26 E18.48005
G1 X181.906 Y196.171 E18.59802
G1 X179.367 Y196.154 E18.71625
G1 X176.805 Y196.208 E18.83558
G1 X174.296 Y196.334 E18.95255
G1 X171.754 Y196.532 E19.07128
G1 X169.121 Y196.813 E19.19458
G1 X168.114 Y196.934 E19.24181
G1 X167.213 Y197.002 E19.28388
G1 X166.31 Y196.99 E19.32593
G1 X165.412 Y196.898 E19.36796
G1 X164.525 Y196.727 E19.41003
G1 X163.657 Y196.478 E19.45207
G1 X162.814 Y196.153 E19.49414
G1 X162.003 Y195.755 E19.53621
G1 X161.573 Y195.506 E19.55935
G1 X160.987 Y195.121 E19.592
G1 X160.19 Y194.556 E19.63749
G1 X159.424 Y193.998 E19.68162
G1 X157.306 Y192.548 E19.80114
G1 X156.236 Y191.855 E19.8605
G1 X155.717 Y191.508 E19.88957
G1 X154.989 Y190.974 E19.93161
G1 X154.402 Y190.462 E19.96788
G1 X154.253 Y190.322 E19.9774
G1 X153.622 Y189.676 E20.01945
G1 X153.052 Y188.975 E20.06152
G1 X152.546 Y188.228 E20.10353
G1 X152.107 Y187.438 E20.14561
G1 X151.741 Y186.613 E20.18764
G1 X151.449 Y185.758 E20.22971
G1 X151.279 Y185.097 E20.26149
G1 X151.226 Y184.858 E20.27289
G1 X151.07 Y183.969 E20.31492
G1 X150.993 Y183.069 E20.35698
G1 X150.995 Y182.166 E20.39903
G1 X151.078 Y181.267 E20.44107
G1 X151.24 Y180.378 E20.48314
G1 X151.48 Y179.507 E20.52521
G1 X151.815 Y178.618 E20.56945
G1 X151.92 Y178.374 E20.58182
G1 X152.313 Y177.561 E20.62387
G1 X152.777 Y176.786 E20.66593
G1 X153.307 Y176.055 E20.70797
G1 X153.821 Y175.459 E20.74462
G1 X153.981 Y175.287 E20.75556
G1 X154.167 Y175.092 E20.7681
G1 X154.389 Y174.866 E20.78286
G1 X162.339 Y166.917 E21.30634
G1 F3600 E13.30634
;MESH:Clip_40-80.stl
G0 F6000 X169.08 Y173.66
G0 X169.763 Y174.342
G0 X163.103 Y181.803
G0 X163.094 Y182.481
;TYPE:WALL-INNER
G1 F3600 E21.30634
G1 F1200 X162.047 Y182.481 E21.3551
G1 X162.788 Y181.74 E21.40389
G1 X163.094 Y182.481 E21.44122
G0 F6000 X163.103 Y181.803
G0 X170.795 Y173.89
G1 F1200 X170.476 Y174.086 E21.45866
G1 X170.422 Y174.119 E21.4616
G1 X170.47 Y174.077
G1 X170.795 Y173.89 E21.4618
G0 F6000 X171.23 Y173.789
G1 F1200 X171.156 Y173.8 E21.46528
G1 X171.085 Y173.812 E21.46864
G1 X171.154 Y173.793 E21.46864
G1 X171.23 Y173.789 E21.46872
G0 F6000 X189.21 Y173.895
G1 F1200 X189.162 Y173.88 E21.47106
G1 X189.202 Y173.89
G1 X189.21 Y173.895
G0 F6000 X189.582 Y174.126
G1 F1200 X189.526 Y174.086 E21.47427
G1 X189.467 Y174.044 E21.47764
G1 X189.529 Y174.08 E21.47764
G1 X189.582 Y174.126 E21.47771
G0 F6000 X196.892 Y181.803
G0 X196.722 Y182.214
G0 X194.606 Y182.482
G1 F1200 X196.901 Y182.481 E21.58457
G1 X197.207 Y181.741 E21.62186
G1 X197.947 Y182.481 E21.67059
G1 X196.902 Y182.481 E21.71925
G1 X194.606 Y182.482 E21.71941
G1 F3600 E13.71941
G0 F6000 X192.493 Y184.982
G0 X193.098 Y186.295
G0 X193.098 Y186.537
;TYPE:WALL-OUTER
G1 F3600 E21.71941
G1 F1200 X191.542 Y184.981 E21.82187
G1 X194.441 Y182.081 E22.01281
G1 X196.633 Y182.081 E22.11488
G1 X196.735 Y181.834 E22.12732
G1 X189.36 Y174.46 E22.61295
G1 X189.118 Y174.286 E22.62683
G1 X188.831 Y174.194 E22.64086
G1 X188.675 Y174.181 E22.64815
G1 X171.309 Y174.181 E23.45678
G1 X171.006 Y174.23 E23.47108
G1 X170.64 Y174.454 E23.49106
G1 X163.26 Y181.834 E23.97704
G1 X163.362 Y182.081 E23.98949
G1 X165.555 Y182.081 E24.0916
G1 X168.453 Y184.982 E24.28254
G1 X166.898 Y186.536 E24.3849
G1 X166.332 Y185.97 E24.42218
G1 X167.323 Y184.981 E24.48737
G1 X165.223 Y182.881 E24.62566
G1 X161.588 Y182.881 E24.79492
G1 X161.47 Y182.849 E24.80061
G1 X161.371 Y182.689 E24.80937
G1 X161.436 Y182.526 E24.81754
G1 X170.047 Y173.916 E25.38456
G1 X170.238 Y173.749 E25.39637
G1 X170.64 Y173.518 E25.41796
G1 X171.089 Y173.397 E25.43962
G1 X171.341 Y173.381 E25.45137
G1 X188.657 Y173.381 E26.25768
G1 X188.907 Y173.397 E26.26934
G1 X189.356 Y173.518 E26.291
G1 X189.767 Y173.756 E26.31311
G1 X189.949 Y173.917 E26.32443
G1 X198.553 Y182.521 E26.89102
G1 X198.615 Y182.628 E26.89677
G1 X198.573 Y182.81 E26.90547
G1 X198.414 Y182.881 E26.91358
G1 X194.772 Y182.882 E27.08317
G1 X192.674 Y184.982 E27.22139
G1 X193.664 Y185.971 E27.28655
G1 X193.098 Y186.537 E27.32382
G0 F6000 X193.228 Y186.157
;TYPE:SKIN
G1 F1200 X191.92 Y184.849 E27.36689
G0 F6000 X192.715 Y185.361
G1 F1200 X192.361 Y184.725 E27.40244
G1 X194.341 Y182.745 E27.53921
G1 X194.582 Y182.702 E27.55117
G0 F6000 X194.627 Y182.746
G0 X196.722 Y182.214
G0 X197.028 Y181.754
G1 F1200 X189.614 Y174.341 E27.79527
G0 F6000 X189.739 Y174.183
G1 F1200 X197.11 Y181.554 E28.03796
G0 F6000 X197.248 Y182.258
G1 F1200 X198.178 Y182.621 E28.0466
G0 F6000 X198.263 Y182.681
G0 X190.332 Y175.187
G0 X188.967 Y173.977
G0 X188.757 Y173.766
G1 F1200 X188.49 Y173.782 E28.06088
G1 X181.982 Y173.78 E28.40832
G1 X171.8 Y173.78 E28.95188
G1 X171.419 Y173.965 E28.97449
G0 F6000 X171.38 Y173.926
G0 X170.427 Y174.385
G0 X170.283 Y174.243
G1 F1200 X170.142 Y174.385 E28.98427
G1 X165.192 Y179.334 E29.32604
G1 X163.071 Y181.456 E29.47254
G1 X162.708 Y182.225 E29.51406
G1 X163.529 Y182.48 E29.55604
G1 X164.943 Y182.48 E29.62508
G0 F6000 X165.001 Y182.255
G1 F1200 X167.966 Y185.219 E29.72269
G0 F6000 X168.107 Y185.078
G1 F1200 X165.284 Y182.255 E29.81564
G0 F6000 X165.284 Y182.281
G0 X163.471 Y182.681
G0 X163.471 Y182.705
G1 F1200 X163.28 Y182.513 E29.82194
G0 F6000 X161.903 Y182.55
