;FLAVOR:Marlin
;TIME:4303
;Filament used: 2.5585m
;Layer height: 0.28
;MINX:150.213
;MINY:162.181
;MINZ:0.28
;MAXX:209.799
;MAXY:197.803
;MAXZ:79.8
;Generated with Creality Slicer 4.8.2-177
M140 S60
M105
M190 S60
M104 S200
M105
M109 S200
M82 ;absolute extrusion mode
M201 X500.00 Y500.00 Z100.00 E5000.00 ;Setup machine max acceleration
M203 X500.00 Y500.00 Z10.00 E50.00 ;Setup machine max feedrate
M204 P500.00 R1000.00 T500.00 ;Setup Print/Retract/Travel acceleration
M205 X8.00 Y8.00 Z0.40 E5.00 ;Setup Jerk
M220 S100 ;Reset Feedrate
M221 S100 ;Reset Flowrate

G28 ;Home

G92 E0 ;Reset Extruder
G1 Z2.0 F3000 ;Move Z Axis up
G1 X10.1 Y20 Z0.28 F5000.0 ;Move to start position
G1 X10.1 Y200.0 Z0.28 F1500.0 E15 ;Draw the first line
G1 X10.4 Y200.0 Z0.28 F5000.0 ;Move to side a little
G1 X10.4 Y20 Z0.28 F1500.0 E30 ;Draw the second line
G92 E0 ;Reset Extruder
G1 Z2.0 F3000 ;Move Z Axis up

G92 E0
G92 E0
G1 F3600 E-8
;LAYER_COUNT:285
;LAYER:0
M107
G0 F6000 X161.804 Y166.322 Z0.28
;TYPE:SKIRT
G1 F3600 E0
G1 F1200 X162.099 Y166.036 E0.01913
G1 X162.336 Y165.814 E0.03425
G1 X162.719 Y165.464 E0.05841
G1 X163.437 Y164.861 E0.10207
G1 X164.141 Y164.363 E0.14223
G1 X164.244 Y164.296 E0.14795
G1 X165.211 Y163.735 E0.2
G1 X165.596 Y163.537 E0.22016
G1 X166.448 Y163.144 E0.26385
G1 X167.354 Y162.817 E0.3087
G1 X167.431 Y162.793 E0.31246
G1 X168.318 Y162.557 E0.3552
G1 X168.732 Y162.465 E0.37495
G1 X169.655 Y162.301 E0.4186
G1 X170.906 Y162.205 E0.47702
G1 X172.048 Y162.183 E0.53021
G1 X172.26 Y162.181 E0.54008
G1 X187.967 Y162.181 E1.27146
G1 X188.53 Y162.188 E1.29768
G1 X188.897 Y162.2 E1.31478
G1 X189.514 Y162.23 E1.34354
G1 X190.448 Y162.315 E1.38721
G1 X191.221 Y162.448 E1.42374
G1 X191.418 Y162.489 E1.43311
G1 X192.67 Y162.827 E1.49349
G1 X192.888 Y162.9 E1.5042
G1 X194.036 Y163.358 E1.56175
G1 X194.238 Y163.452 E1.57212
G1 X195.071 Y163.884 E1.61582
G1 X195.519 Y164.155 E1.6402
G1 X195.807 Y164.339 E1.65611
G1 X196.917 Y165.15 E1.72012
G1 X197 Y165.219 E1.72515
G1 X197.605 Y165.761 E1.76297
G1 X198.31 Y166.441 E1.80858
G1 X198.452 Y166.581 E1.81787
G1 X206.12 Y174.252 E2.32292
G1 X206.567 Y174.712 E2.35278
G1 X207.191 Y175.412 E2.39645
G1 X207.754 Y176.162 E2.44012
G1 X208.091 Y176.686 E2.46913
G1 X208.218 Y176.896 E2.48056
G1 X208.668 Y177.718 E2.52419
G1 X209.047 Y178.576 E2.56787
G1 X209.352 Y179.463 E2.61154
G1 X209.58 Y180.373 E2.65523
G1 X209.729 Y181.299 E2.6989
G1 X209.799 Y182.234 E2.74256
G1 X209.789 Y183.172 E2.78624
G1 X209.75 Y183.687 E2.81029
G1 X209.726 Y183.926 E2.82147
G1 X209.593 Y184.854 E2.86513
G1 X209.381 Y185.768 E2.90882
G1 X209.092 Y186.66 E2.95248
G1 X208.727 Y187.525 E2.99619
G1 X208.291 Y188.355 E3.03985
G1 X207.786 Y189.145 E3.08351
G1 X206.947 Y190.197 E3.14617
G1 X206.771 Y190.392 E3.1584
G1 X206.113 Y191.061 E3.20209
G1 X205.401 Y191.671 E3.24575
G1 X204.683 Y192.19 E3.287
G1 X203.876 Y192.725 E3.33209
G1 X203.069 Y193.248 E3.37687
G1 X200.024 Y195.37 E3.54969
G1 X199.57 Y195.701 E3.57585
G1 X198.789 Y196.22 E3.61951
G1 X197.967 Y196.671 E3.66317
G1 X197.109 Y197.05 E3.70685
G1 X196.222 Y197.355 E3.75052
G1 X195.313 Y197.583 E3.79416
G1 X194.387 Y197.733 E3.83784
G1 X193.451 Y197.803 E3.88155
G1 X192.514 Y197.794 E3.92518
G1 X191.897 Y197.744 E3.954
G1 X191.492 Y197.698 E3.97298
G1 X189.493 Y197.456 E4.06675
G1 X186.956 Y197.221 E4.18538
G1 X184.474 Y197.062 E4.30119
G1 X181.953 Y196.972 E4.41866
G1 X179.429 Y196.953 E4.53619
G1 X176.907 Y197.006 E4.65365
G1 X174.384 Y197.13 E4.77127
G1 X171.88 Y197.324 E4.88822
G1 X169.204 Y197.609 E5.01353
G1 X168.216 Y197.728 E5.05987
G1 X167.281 Y197.8 E5.10353
G1 X166.343 Y197.793 E5.14721
G1 X165.409 Y197.705 E5.1909
G1 X164.486 Y197.539 E5.23456
G1 X163.581 Y197.294 E5.27822
G1 X162.699 Y196.973 E5.32193
G1 X161.849 Y196.578 E5.36557
G1 X161.035 Y196.112 E5.40925
G1 X160.575 Y195.806 E5.43497
G1 X159.716 Y195.201 E5.4839
G1 X158.877 Y194.591 E5.5322
G1 X156.799 Y193.17 E5.64942
G1 X155.527 Y192.344 E5.72004
G1 X155.125 Y192.071 E5.74267
G1 X154.954 Y191.949 E5.75245
G1 X154.215 Y191.372 E5.79611
G1 X153.527 Y190.734 E5.8398
G1 X152.896 Y190.04 E5.88347
G1 X152.508 Y189.547 E5.91269
G1 X152.373 Y189.365 E5.92324
G1 X151.847 Y188.589 E5.96689
G1 X151.389 Y187.771 E6.01054
G1 X151.002 Y186.916 E6.05424
G1 X150.69 Y186.032 E6.0979
G1 X150.454 Y185.124 E6.14158
G1 X150.296 Y184.2 E6.18523
G1 X150.217 Y183.265 E6.22892
G1 X150.213 Y182.489 E6.26506
G1 X150.222 Y182.183 E6.27931
G1 X150.289 Y181.247 E6.32301
G1 X150.436 Y180.321 E6.36667
G1 X150.662 Y179.41 E6.41037
G1 X150.964 Y178.523 E6.454
G1 X151.34 Y177.664 E6.49767
G1 X151.789 Y176.84 E6.54136
G1 X152.321 Y176.036 E6.58625
G1 X152.401 Y175.926 E6.59259
G1 X153.224 Y174.925 E6.65293
G1 X153.373 Y174.764 E6.66314
G1 X153.668 Y174.457 E6.68297
G1 X161.804 Y166.322 E7.2187
G0 F6000 X162.083 Y166.609
G1 F1200 X162.378 Y166.323 E7.23784
G1 X162.605 Y166.109 E7.25236
G1 X162.988 Y165.759 E7.27652
G1 X163.694 Y165.168 E7.31939
G1 X164.359 Y164.698 E7.35731
G1 X164.462 Y164.631 E7.36303
G1 X165.394 Y164.091 E7.41319
G1 X165.779 Y163.893 E7.43335
G1 X166.615 Y163.507 E7.47623
G1 X167.473 Y163.199 E7.51867
G1 X167.55 Y163.175 E7.52243
G1 X168.405 Y162.947 E7.56363
G1 X168.819 Y162.855 E7.58338
G1 X169.725 Y162.695 E7.62622
G1 X170.914 Y162.605 E7.68174
G1 X172.056 Y162.583 E7.73493
G1 X172.26 Y162.581 E7.74443
G1 X187.967 Y162.581 E8.47581
G1 X188.524 Y162.588 E8.50175
G1 X188.878 Y162.6 E8.51825
G1 X189.495 Y162.63 E8.54701
G1 X190.412 Y162.714 E8.58989
G1 X191.14 Y162.839 E8.62428
G1 X191.337 Y162.88 E8.63365
G1 X192.543 Y163.207 E8.69184
G1 X192.761 Y163.28 E8.70254
G1 X193.867 Y163.721 E8.75798
G1 X194.069 Y163.815 E8.76836
G1 X194.886 Y164.239 E8.81122
G1 X195.304 Y164.492 E8.83397
G1 X195.592 Y164.676 E8.84988
G1 X196.661 Y165.458 E8.91156
G1 X196.744 Y165.527 E8.91658
G1 X197.327 Y166.049 E8.95302
G1 X198.032 Y166.729 E8.99863
G1 X198.169 Y166.864 E9.00759
G1 X205.833 Y174.531 E9.51238
G1 X206.28 Y174.991 E9.54224
G1 X206.892 Y175.678 E9.58508
G1 X207.443 Y176.416 E9.62797
G1 X207.748 Y176.893 E9.65433
G1 X207.875 Y177.103 E9.66576
G1 X208.317 Y177.91 E9.70861
G1 X208.687 Y178.753 E9.75147
G1 X208.983 Y179.625 E9.79435
G1 X209.201 Y180.52 E9.83725
G1 X209.342 Y181.43 E9.88013
G1 X209.402 Y182.348 E9.92296
G1 X209.352 Y183.647 E9.98349
G1 X209.328 Y183.886 E9.99468
G1 X209.196 Y184.797 E10.03754
G1 X208.986 Y185.694 E10.08044
G1 X208.699 Y186.568 E10.12327
G1 X208.337 Y187.415 E10.16617
G1 X207.903 Y188.227 E10.20904
G1 X207.4 Y188.998 E10.2519
G1 X206.65 Y189.929 E10.30757
G1 X206.474 Y190.124 E10.3198
G1 X205.828 Y190.78 E10.36267
G1 X205.127 Y191.378 E10.40558
G1 X204.462 Y191.857 E10.44374
G1 X203.658 Y192.389 E10.48863
G1 X202.86 Y192.906 E10.53291
G1 X199.815 Y195.028 E10.70573
G1 X199.335 Y195.378 E10.73339
G1 X198.568 Y195.887 E10.77625
G1 X197.76 Y196.328 E10.81912
G1 X196.916 Y196.696 E10.86199
G1 X196.044 Y196.991 E10.90485
G1 X195.149 Y197.208 E10.94774
G1 X194.239 Y197.347 E10.9906
G1 X193.32 Y197.407 E11.03348
G1 X192.4 Y197.386 E11.07633
G1 X191.941 Y197.346 E11.09779
G1 X191.54 Y197.301 E11.11658
G1 X189.541 Y197.059 E11.21034
G1 X186.983 Y196.822 E11.32996
G1 X184.48 Y196.662 E11.44675
G1 X181.97 Y196.572 E11.5637
G1 X179.424 Y196.553 E11.68226
G1 X176.878 Y196.606 E11.80083
G1 X174.369 Y196.73 E11.91781
G1 X171.874 Y196.923 E12.03433
G1 X169.118 Y197.217 E12.16339
G1 X168.168 Y197.331 E12.20794
G1 X167.25 Y197.401 E12.25081
G1 X166.329 Y197.392 E12.2937
G1 X165.413 Y197.302 E12.33656
G1 X164.508 Y197.133 E12.37943
G1 X163.621 Y196.887 E12.42229
G1 X162.759 Y196.564 E12.46515
G1 X161.928 Y196.168 E12.50802
G1 X160.805 Y195.479 E12.56937
G1 X160.088 Y194.975 E12.61018
G1 X159.133 Y194.282 E12.66512
G1 X157.021 Y192.836 E12.7843
G1 X155.744 Y192.008 E12.85517
G1 X155.358 Y191.745 E12.87692
G1 X155.187 Y191.623 E12.8867
G1 X154.461 Y191.056 E12.9296
G1 X153.787 Y190.429 E12.97246
G1 X153.171 Y189.745 E13.01532
G1 X152.829 Y189.309 E13.04113
G1 X152.694 Y189.127 E13.05168
G1 X152.179 Y188.364 E13.09454
G1 X151.731 Y187.56 E13.1374
G1 X151.355 Y186.72 E13.18025
G1 X151.053 Y185.85 E13.22313
G1 X150.827 Y184.957 E13.26603
G1 X150.68 Y184.049 E13.30886
G1 X150.613 Y183.13 E13.35176
G1 X150.613 Y182.5 E13.3811
G1 X150.622 Y182.194 E13.39535
G1 X150.689 Y181.276 E13.43821
G1 X150.835 Y180.367 E13.48108
G1 X151.06 Y179.474 E13.52396
G1 X151.361 Y178.604 E13.56683
G1 X151.737 Y177.764 E13.60969
G1 X152.184 Y176.959 E13.65256
G1 X152.644 Y176.271 E13.6911
G1 X152.724 Y176.161 E13.69743
G1 X153.517 Y175.196 E13.75559
G1 X153.666 Y175.035 E13.76581
G1 X153.951 Y174.74 E13.78491
G1 X162.083 Y166.609 E14.32038
G0 F6000 X162.361 Y166.897
G1 F1200 X162.656 Y166.611 E14.33951
G1 X162.875 Y166.404 E14.35354
G1 X163.258 Y166.054 E14.3777
G1 X163.951 Y165.475 E14.41975
G1 X164.577 Y165.034 E14.45541
G1 X164.68 Y164.967 E14.46113
G1 X165.577 Y164.446 E14.50943
G1 X165.962 Y164.248 E14.52959
G1 X166.783 Y163.871 E14.57166
G1 X167.592 Y163.581 E14.61168
G1 X167.669 Y163.557 E14.61543
G1 X168.491 Y163.338 E14.65504
G1 X168.905 Y163.246 E14.67479
G1 X169.795 Y163.089 E14.71687
G1 X170.922 Y163.005 E14.76949
G1 X172.064 Y162.983 E14.82268
G1 X172.26 Y162.981 E14.83181
G1 X187.967 Y162.981 E15.56319
G1 X188.518 Y162.988 E15.58885
G1 X188.858 Y162.999 E15.60469
G1 X189.475 Y163.029 E15.63345
G1 X190.375 Y163.113 E15.67554
G1 X191.058 Y163.231 E15.70782
G1 X191.255 Y163.272 E15.71719
G1 X192.416 Y163.586 E15.77319
G1 X192.634 Y163.659 E15.7839
G1 X193.698 Y164.083 E15.83723
G1 X193.9 Y164.177 E15.84761
G1 X194.702 Y164.594 E15.8897
G1 X195.089 Y164.829 E15.91078
G1 X195.377 Y165.013 E15.92669
G1 X196.406 Y165.765 E15.98604
G1 X196.489 Y165.834 E15.99106
G1 X197.049 Y166.337 E16.02611
G1 X197.886 Y167.146 E16.08032
G1 X205.546 Y174.81 E16.58487
G1 X205.993 Y175.27 E16.61474
G1 X206.593 Y175.945 E16.65679
G1 X207.131 Y176.67 E16.69883
G1 X207.406 Y177.1 E16.7226
G1 X207.533 Y177.31 E16.73403
G1 X207.966 Y178.102 E16.77606
G1 X208.327 Y178.93 E16.81812
G1 X208.613 Y179.787 E16.86019
G1 X208.822 Y180.665 E16.90221
G1 X208.953 Y181.559 E16.94429
G1 X209.004 Y182.46 E16.98631
G1 X208.954 Y183.607 E17.03977
G1 X208.93 Y183.846 E17.05095
G1 X208.8 Y184.74 E17.09302
G1 X208.592 Y185.619 E17.13508
G1 X208.306 Y186.475 E17.1771
G1 X207.946 Y187.304 E17.21919
G1 X207.514 Y188.097 E17.26124
G1 X207.014 Y188.849 E17.30329
G1 X206.353 Y189.661 E17.35204
G1 X206.177 Y189.856 E17.36427
G1 X205.543 Y190.499 E17.40632
G1 X204.854 Y191.083 E17.44838
G1 X204.241 Y191.524 E17.48354
G1 X203.441 Y192.053 E17.5282
G1 X202.613 Y192.589 E17.57413
G1 X199.583 Y194.701 E17.74611
G1 X199.099 Y195.054 E17.774
G1 X198.347 Y195.553 E17.81603
G1 X197.553 Y195.983 E17.85807
G1 X196.724 Y196.342 E17.90014
G1 X195.866 Y196.625 E17.94221
G1 X194.987 Y196.832 E17.98426
G1 X194.093 Y196.96 E18.02631
G1 X193.191 Y197.009 E18.06837
G1 X191.984 Y196.948 E18.12465
G1 X191.588 Y196.904 E18.1432
G1 X189.555 Y196.658 E18.23856
G1 X187.047 Y196.426 E18.35584
G1 X184.482 Y196.261 E18.47552
G1 X181.988 Y196.172 E18.59173
G1 X179.418 Y196.153 E18.7114
G1 X176.884 Y196.206 E18.82942
G1 X174.319 Y196.332 E18.949
G1 X171.837 Y196.525 E19.06492
G1 X169.096 Y196.817 E19.19328
G1 X168.12 Y196.934 E19.23905
G1 X167.22 Y197.002 E19.28108
G1 X166.317 Y196.99 E19.32313
G1 X165.418 Y196.899 E19.3652
G1 X164.531 Y196.728 E19.40726
G1 X163.663 Y196.479 E19.44931
G1 X162.82 Y196.155 E19.49137
G1 X162.009 Y195.757 E19.53343
G1 X161.035 Y195.152 E19.58682
G1 X160.187 Y194.554 E19.63514
G1 X159.348 Y193.944 E19.68344
G1 X157.252 Y192.51 E19.8017
G1 X155.962 Y191.673 E19.8733
G1 X155.59 Y191.419 E19.89427
G1 X155.419 Y191.297 E19.90406
G1 X154.708 Y190.741 E19.94608
G1 X154.049 Y190.124 E19.98812
G1 X153.446 Y189.45 E20.03023
G1 X153.151 Y189.071 E20.05259
G1 X153.016 Y188.889 E20.06315
G1 X152.51 Y188.14 E20.10524
G1 X152.073 Y187.35 E20.14727
G1 X151.708 Y186.524 E20.18932
G1 X151.416 Y185.669 E20.23139
G1 X151.202 Y184.792 E20.27343
G1 X151.066 Y183.899 E20.31549
G1 X151.01 Y182.998 E20.35753
G1 X151.012 Y182.512 E20.38016
G1 X151.021 Y182.206 E20.39441
G1 X151.088 Y181.305 E20.43648
G1 X151.234 Y180.414 E20.47852
G1 X151.458 Y179.539 E20.52058
G1 X151.759 Y178.688 E20.56261
G1 X152.133 Y177.866 E20.60466
G1 X152.579 Y177.081 E20.6467
G1 X152.968 Y176.507 E20.67899
G1 X153.048 Y176.397 E20.68533
G1 X153.811 Y175.468 E20.7413
G1 X153.96 Y175.307 E20.75152
G1 X154.234 Y175.023 E20.76989
G1 X162.361 Y166.897 E21.30504
G1 F3600 E13.30504
;MESH:Clip_40-80.stl
G0 F6000 X169.102 Y173.639
G0 X169.784 Y174.321
G0 X170.321 Y174.209
;TYPE:WALL-INNER
G1 F3600 E21.30504
G1 F1200 X162.788 Y181.74 E21.80103
G1 X163.094 Y182.481 E21.83836
G1 X162.047 Y182.481 E21.88712
G1 X162.788 Y181.741 E21.93588
G1 X170.321 Y174.209 E21.9365
G0 F6000 X170.728 Y173.931
G1 F1200 X170.646 Y173.981 E21.94097
G1 X170.511 Y174.064 E21.94835
G1 X170.637 Y173.968 E21.94849
G1 X170.728 Y173.931 E21.94865
G0 F6000 X188.858 Y174.056
G0 X189.59 Y174.134
G1 F1200 X189.529 Y174.09 E21.95215
G1 X189.467 Y174.045 E21.95571
G1 X189.533 Y174.083 E21.95575
G1 X189.59 Y174.134 E21.95581
G0 F6000 X193.538 Y178.073
G1 F1200 X189.666 Y174.201 E22.21079
G1 X189.651 Y174.187 E22.21174
G1 X189.666 Y174.2
G1 X193.538 Y178.073 E22.21206
G0 F6000 X196.892 Y181.803
G0 X196.901 Y182.481
G1 F1200 X197.206 Y181.741 E22.24933
G1 X197.946 Y182.481 E22.29806
G1 X196.901 Y182.481 E22.34672
G1 F3600 E14.34672
G0 F6000 X194.717 Y182.745
G0 X192.493 Y184.982
G0 X193.098 Y186.295
G0 X193.098 Y186.537
;TYPE:WALL-OUTER
G1 F3600 E22.34672
G1 F1200 X191.542 Y184.981 E22.44919
G1 X194.441 Y182.081 E22.64012
G1 X196.633 Y182.081 E22.74219
G1 X196.735 Y181.834 E22.75464
G1 X189.357 Y174.458 E23.24042
G1 X189.115 Y174.285 E23.25428
G1 X188.831 Y174.194 E23.26816
G1 X188.675 Y174.181 E23.27545
G1 X171.306 Y174.181 E24.08422
G1 X171.003 Y174.231 E24.09852
G1 X170.643 Y174.452 E24.11819
G1 X163.26 Y181.834 E24.60434
G1 X163.362 Y182.081 E24.61679
G1 X165.555 Y182.081 E24.7189
G1 X168.454 Y184.981 E24.90984
G1 X166.899 Y186.536 E25.01224
G1 X166.333 Y185.97 E25.04951
G1 X167.323 Y184.981 E25.11467
G1 X165.223 Y182.881 E25.25296
G1 X161.587 Y182.881 E25.42227
G1 X161.469 Y182.849 E25.42796
G1 X161.372 Y182.69 E25.43663
G1 X161.436 Y182.526 E25.44483
G1 X170.05 Y173.913 E26.01204
G1 X170.437 Y173.618 E26.0347
G1 X170.87 Y173.441 E26.05649
G1 X171.089 Y173.397 E26.06689
G1 X171.341 Y173.381 E26.07864
G1 X188.66 Y173.381 E26.88509
G1 X188.91 Y173.398 E26.89676
G1 X189.36 Y173.521 E26.91848
G1 X189.764 Y173.754 E26.9402
G1 X189.949 Y173.917 E26.95168
G1 X198.554 Y182.523 E27.51836
G1 X198.616 Y182.63 E27.52412
G1 X198.571 Y182.811 E27.53281
G1 X198.412 Y182.881 E27.5409
G1 X194.773 Y182.881 E27.71034
G1 X192.674 Y184.982 E27.84863
G1 X193.664 Y185.971 E27.91379
G1 X193.098 Y186.537 E27.95107
G0 F6000 X193.228 Y186.157
;TYPE:SKIN
G1 F1200 X191.919 Y184.848 E27.99416
G0 F6000 X192.715 Y185.361
G1 F1200 X192.361 Y184.725 E28.02956
G1 X194.483 Y182.603 E28.17551
G1 X194.925 Y182.48 E28.19782
G1 X196.339 Y182.48 E28.26659
G1 X196.73 Y182.305 E28.28742
G1 X197.248 Y182.257 E28.31272
G0 F6000 X197.027 Y181.754
G1 F1200 X193.554 Y178.281 E28.42708
G0 F6000 X193.696 Y178.139
G1 F1200 X197.109 Y181.553 E28.53947
G0 F6000 X198.094 Y182.538
G1 F1200 X198.262 Y182.706 E28.545
G0 F6000 X198.262 Y182.681
G0 X189.292 Y174.018
G0 X189.067 Y173.793
G1 F1200 X188.813 Y173.822 E28.55807
G1 X187.356 Y173.78 E28.63256
G1 X171.519 Y173.782 E29.44191
G1 X171.006 Y173.835 E29.46827
G1 X170.142 Y174.385 E29.52061
G1 X165.192 Y179.334 E29.87833
G1 X163.071 Y181.456 E30.03166
G1 X162.985 Y181.652 E30.0426
G1 X163.529 Y182.48 E30.09323
G1 X164.943 Y182.48 E30.16549
G0 F6000 X165.001 Y182.255
G1 F1200 X167.966 Y185.22 E30.26311
G0 F6000 X167.666 Y185.202
G1 F1200 X167.524 Y185.343 E30.27601
G1 X166.817 Y186.051 E30.34047
G0 F6000 X166.675 Y185.91
G0 X168.092 Y185.061
G0 X168.108 Y185.078
G1 F1200 X165.284 Y182.255 E30.43343
G0 F6000 X165.284 Y182.281
G0 X163.471 Y182.681
G0 X163.375 Y182.609
G1 F1200 X162.708 Y182.225 E30.44187
G1 X161.841 Y182.488 E30.45181
