;FLAVOR:Marlin
;TIME:22029
;Filament used: 13.7611m
;Layer height: 0.12
;MINX:114
;MINY:134
;MINZ:0.12
;MAXX:246
;MAXY:226
;MAXZ:15
;Generated with Creality Slicer 4.8.2-177
M140 S60
M105
M190 S60
M104 S200
M105
M109 S200
M82 ;absolute extrusion mode
M201 X500.00 Y500.00 Z100.00 E5000.00 ;Setup machine max acceleration
M203 X500.00 Y500.00 Z10.00 E50.00 ;Setup machine max feedrate
M204 P500.00 R1000.00 T500.00 ;Setup Print/Retract/Travel acceleration
M205 X8.00 Y8.00 Z0.40 E5.00 ;Setup Jerk
M220 S100 ;Reset Feedrate
M221 S100 ;Reset Flowrate

G28 ;Home

G92 E0 ;Reset Extruder
G1 Z2.0 F3000 ;Move Z Axis up
G1 X10.1 Y20 Z0.28 F5000.0 ;Move to start position
G1 X10.1 Y200.0 Z0.28 F1500.0 E15 ;Draw the first line
G1 X10.4 Y200.0 Z0.28 F5000.0 ;Move to side a little
G1 X10.4 Y20 Z0.28 F1500.0 E30 ;Draw the second line
G92 E0 ;Reset Extruder
G1 Z2.0 F3000 ;Move Z Axis up

G92 E0
G92 E0
G1 F3600 E-8
;LAYER_COUNT:125
;LAYER:0
M107
G0 F6000 X122.861 Y140.468 Z0.12
;TYPE:SKIRT
G1 F3600 E0
G1 F1200 X123.556 Y139.885 E0.0181
G1 X123.788 Y139.696 E0.02407
G1 X124.33 Y139.266 E0.03788
G1 X125.088 Y138.715 E0.05658
G1 X125.873 Y138.196 E0.07536
G1 X126.123 Y138.037 E0.08127
G1 X126.73 Y137.66 E0.09553
G1 X127.263 Y137.349 E0.10785
G1 X127.686 Y137.121 E0.11744
G1 X127.987 Y136.967 E0.12419
G1 X128.433 Y136.744 E0.13414
G1 X128.96 Y136.487 E0.14584
G1 X129.601 Y136.2 E0.15985
G1 X130.589 Y135.794 E0.18117
G1 X130.915 Y135.665 E0.18817
G1 X131.495 Y135.448 E0.20052
G1 X132.405 Y135.152 E0.21962
G1 X133.397 Y134.878 E0.24016
G1 X133.839 Y134.763 E0.24927
G1 X134.675 Y134.58 E0.26635
G1 X135.946 Y134.353 E0.29212
G1 X136.322 Y134.292 E0.29972
G1 X137.23 Y134.161 E0.31803
G1 X137.972 Y134.081 E0.33292
G1 X138.284 Y134.058 E0.33916
G1 X138.71 Y134.035 E0.34768
G1 X139.398 Y134.011 E0.36141
G1 X139.651 Y134.005 E0.36646
G1 X140.119 Y134 E0.3758
G1 X219.516 Y134 E1.96026
G1 X220.406 Y134.011 E1.97802
G1 X220.737 Y134.02 E1.98463
G1 X221.196 Y134.04 E1.9938
G1 X221.481 Y134.057 E1.99949
G1 X222.228 Y134.109 E2.01444
G1 X222.723 Y134.154 E2.02436
G1 X223.079 Y134.195 E2.03151
G1 X223.402 Y134.237 E2.03801
G1 X224.042 Y134.33 E2.05091
G1 X224.351 Y134.38 E2.05716
G1 X225.033 Y134.499 E2.07098
G1 X225.69 Y134.634 E2.08436
G1 X226.024 Y134.716 E2.09122
G1 X226.544 Y134.852 E2.10195
G1 X226.921 Y134.956 E2.10975
G1 X227.665 Y135.169 E2.1252
G1 X228.275 Y135.363 E2.13797
G1 X228.669 Y135.503 E2.14632
G1 X228.979 Y135.619 E2.15292
G1 X229.564 Y135.846 E2.16544
G1 X230.167 Y136.088 E2.17841
G1 X230.763 Y136.349 E2.1914
G1 X231.011 Y136.466 E2.19687
G1 X231.293 Y136.603 E2.20312
G1 X231.857 Y136.889 E2.21574
G1 X232.658 Y137.311 E2.23381
G1 X233.191 Y137.612 E2.24603
G1 X233.577 Y137.849 E2.25507
G1 X234.104 Y138.187 E2.26756
G1 X234.312 Y138.324 E2.27253
G1 X234.916 Y138.731 E2.28707
G1 X235.382 Y139.063 E2.29848
G1 X235.6 Y139.227 E2.30393
G1 X235.878 Y139.443 E2.31095
G1 X236.562 Y139.994 E2.32848
G1 X237.094 Y140.436 E2.34228
G1 X237.539 Y140.827 E2.35411
G1 X237.688 Y140.965 E2.35816
G1 X237.923 Y141.189 E2.36464
G1 X238.327 Y141.586 E2.37594
G1 X238.509 Y141.77 E2.3811
G1 X239.009 Y142.285 E2.39543
G1 X239.427 Y142.74 E2.40776
G1 X239.755 Y143.122 E2.41781
G1 X239.952 Y143.36 E2.42397
G1 X240.303 Y143.792 E2.43508
G1 X240.775 Y144.387 E2.45024
G1 X241.304 Y145.113 E2.46816
G1 X241.648 Y145.628 E2.48052
G1 X241.937 Y146.075 E2.49114
G1 X242.313 Y146.675 E2.50528
G1 X242.624 Y147.203 E2.5175
G1 X242.851 Y147.62 E2.52698
G1 X243.027 Y147.96 E2.53462
G1 X243.228 Y148.358 E2.54352
G1 X243.554 Y149.022 E2.55828
G1 X243.816 Y149.597 E2.57089
G1 X244.002 Y150.044 E2.58055
G1 X244.099 Y150.289 E2.58581
G1 X244.333 Y150.903 E2.59892
G1 X244.57 Y151.546 E2.6126
G1 X244.866 Y152.473 E2.63202
G1 X245.189 Y153.668 E2.65672
G1 X245.301 Y154.099 E2.66561
G1 X245.482 Y154.922 E2.68242
G1 X245.619 Y155.685 E2.69789
G1 X245.699 Y156.173 E2.70776
G1 X245.801 Y156.849 E2.7214
G1 X245.901 Y157.784 E2.74017
G1 X245.944 Y158.471 E2.75391
G1 X245.959 Y158.8 E2.76048
G1 X245.995 Y160.008 E2.7846
G1 X246 Y160.329 E2.791
G1 X245.999 Y199.426 E3.57123
G1 X245.989 Y200.152 E3.58572
G1 X245.98 Y200.469 E3.59204
G1 X245.933 Y201.534 E3.61332
G1 X245.896 Y202.143 E3.62549
G1 X245.857 Y202.612 E3.63489
G1 X245.805 Y203.057 E3.64383
G1 X245.674 Y204.003 E3.66288
G1 X245.623 Y204.335 E3.66959
G1 X245.521 Y204.936 E3.68175
G1 X245.33 Y205.834 E3.70007
G1 X245.185 Y206.398 E3.7117
G1 X244.998 Y207.086 E3.72592
G1 X244.914 Y207.378 E3.73199
G1 X244.794 Y207.775 E3.74026
G1 X244.592 Y208.382 E3.75303
G1 X244.272 Y209.254 E3.77157
G1 X244.157 Y209.552 E3.77794
G1 X243.91 Y210.169 E3.7912
G1 X243.681 Y210.701 E3.80276
G1 X243.594 Y210.889 E3.8069
G1 X243.42 Y211.246 E3.81482
G1 X243.001 Y212.071 E3.83329
G1 X242.707 Y212.629 E3.84587
G1 X242.446 Y213.096 E3.85655
G1 X242.319 Y213.311 E3.86153
G1 X242.144 Y213.597 E3.86822
G1 X241.915 Y213.957 E3.87674
G1 X241.677 Y214.321 E3.88542
G1 X241.242 Y214.968 E3.90098
G1 X240.935 Y215.402 E3.91159
G1 X240.862 Y215.5 E3.91402
G1 X240.622 Y215.81 E3.92185
G1 X240.177 Y216.365 E3.93604
G1 X240.025 Y216.55 E3.94082
G1 X239.569 Y217.094 E3.95499
G1 X239.187 Y217.526 E3.9665
G1 X239.037 Y217.687 E3.97089
G1 X238.849 Y217.884 E3.97632
G1 X238.594 Y218.144 E3.98359
G1 X238.158 Y218.579 E3.99588
G1 X237.676 Y219.046 E4.00927
G1 X237.25 Y219.438 E4.02083
G1 X236.888 Y219.748 E4.03034
G1 X236.423 Y220.13 E4.04235
G1 X236.24 Y220.277 E4.04703
G1 X235.622 Y220.763 E4.06272
G1 X235.103 Y221.147 E4.0756
G1 X234.814 Y221.348 E4.08263
G1 X234.571 Y221.512 E4.08848
G1 X233.967 Y221.907 E4.10288
G1 X233.371 Y222.286 E4.11698
G1 X232.602 Y222.732 E4.13472
G1 X231.901 Y223.101 E4.15053
G1 X231.555 Y223.275 E4.15825
G1 X230.909 Y223.592 E4.17261
G1 X230.294 Y223.871 E4.18609
G1 X229.933 Y224.018 E4.19387
G1 X229.337 Y224.25 E4.20663
G1 X229.117 Y224.333 E4.21133
G1 X228.451 Y224.576 E4.22547
G1 X227.847 Y224.777 E4.23818
G1 X227.644 Y224.838 E4.24241
G1 X227.389 Y224.911 E4.2477
G1 X226.954 Y225.029 E4.25669
G1 X226.163 Y225.236 E4.27301
G1 X225.959 Y225.286 E4.2772
G1 X225.287 Y225.428 E4.29091
G1 X224.064 Y225.648 E4.31571
G1 X223.696 Y225.708 E4.32315
G1 X222.903 Y225.823 E4.33914
G1 X222.316 Y225.892 E4.35093
G1 X222.084 Y225.913 E4.35558
G1 X221.646 Y225.945 E4.36435
G1 X221.363 Y225.959 E4.37
G1 X220.671 Y225.985 E4.38382
G1 X220.396 Y225.992 E4.38931
G1 X219.701 Y226 E4.40318
G1 X140.312 Y225.999 E5.98747
G1 X139.517 Y225.988 E6.00334
G1 X139.193 Y225.979 E6.00981
G1 X138.939 Y225.968 E6.01488
G1 X138.648 Y225.951 E6.0207
G1 X137.661 Y225.882 E6.04044
G1 X136.964 Y225.811 E6.05443
G1 X136.599 Y225.762 E6.06177
G1 X136.317 Y225.721 E6.06746
G1 X135.714 Y225.623 E6.07965
G1 X135.022 Y225.502 E6.09367
G1 X134.346 Y225.361 E6.10745
G1 X133.951 Y225.265 E6.11556
G1 X133.527 Y225.154 E6.12431
G1 X132.942 Y224.994 E6.13641
G1 X132.456 Y224.854 E6.14651
G1 X131.808 Y224.646 E6.16009
G1 X130.767 Y224.275 E6.18214
G1 X130.413 Y224.142 E6.18969
G1 X129.91 Y223.943 E6.20048
G1 X129.322 Y223.69 E6.21326
G1 X129.124 Y223.598 E6.21762
G1 X128.829 Y223.455 E6.22416
G1 X128.123 Y223.101 E6.23992
G1 X127.924 Y222.999 E6.24438
G1 X127.334 Y222.688 E6.25769
G1 X126.536 Y222.224 E6.27611
G1 X125.859 Y221.791 E6.29215
G1 X125.589 Y221.612 E6.29861
G1 X125.064 Y221.254 E6.3113
G1 X124.53 Y220.866 E6.32447
G1 X123.73 Y220.247 E6.34465
G1 X123.441 Y220.016 E6.35204
G1 X122.95 Y219.609 E6.36476
G1 X122.556 Y219.266 E6.37519
G1 X122.212 Y218.942 E6.38462
G1 X121.775 Y218.513 E6.39684
G1 X121.434 Y218.171 E6.40648
G1 X120.958 Y217.68 E6.42012
G1 X120.351 Y216.999 E6.43833
G1 X119.788 Y216.31 E6.45609
G1 X119.564 Y216.027 E6.46329
G1 X119.21 Y215.571 E6.47481
G1 X118.805 Y215.014 E6.48855
G1 X118.194 Y214.116 E6.51023
G1 X117.991 Y213.807 E6.51761
G1 X117.659 Y213.282 E6.53
G1 X117.197 Y212.479 E6.54849
G1 X116.875 Y211.86 E6.56241
G1 X116.732 Y211.574 E6.56879
G1 X116.404 Y210.896 E6.58383
G1 X116.152 Y210.337 E6.59606
G1 X116.072 Y210.145 E6.60021
G1 X115.943 Y209.82 E6.60719
G1 X115.574 Y208.847 E6.62796
G1 X115.397 Y208.363 E6.63824
G1 X115.127 Y207.537 E6.65558
G1 X114.937 Y206.867 E6.66948
G1 X114.862 Y206.588 E6.67525
G1 X114.674 Y205.852 E6.69041
G1 X114.482 Y204.938 E6.70904
G1 X114.368 Y204.25 E6.72296
G1 X114.267 Y203.591 E6.73627
G1 X114.174 Y202.931 E6.74957
G1 X114.103 Y202.294 E6.76236
G1 X114.089 Y202.123 E6.76578
G1 X114.059 Y201.614 E6.77596
G1 X114.035 Y201.023 E6.78776
G1 X114.011 Y200.276 E6.80268
G1 X114.003 Y199.942 E6.80934
G1 X114 Y199.679 E6.81459
G1 X114.001 Y160.552 E7.59541
G1 X114.011 Y159.845 E7.60952
G1 X114.018 Y159.582 E7.61477
G1 X114.07 Y158.219 E7.64199
G1 X114.146 Y157.28 E7.66079
G1 X114.207 Y156.814 E7.67017
G1 X114.277 Y156.352 E7.6795
G1 X114.39 Y155.643 E7.69382
G1 X114.51 Y154.95 E7.70786
G1 X114.646 Y154.286 E7.72139
G1 X114.74 Y153.905 E7.72922
G1 X114.876 Y153.385 E7.73994
G1 X114.949 Y153.12 E7.74543
G1 X115.073 Y152.69 E7.75436
G1 X115.178 Y152.347 E7.76152
G1 X115.306 Y151.952 E7.7698
G1 X115.446 Y151.547 E7.77836
G1 X115.796 Y150.595 E7.7986
G1 X115.925 Y150.26 E7.80576
G1 X116.081 Y149.875 E7.81405
G1 X116.347 Y149.272 E7.8272
G1 X116.777 Y148.37 E7.84714
G1 X116.939 Y148.044 E7.85441
G1 X117.24 Y147.463 E7.86747
G1 X117.721 Y146.626 E7.88673
G1 X118.21 Y145.856 E7.90494
G1 X118.383 Y145.593 E7.91122
G1 X118.794 Y144.985 E7.92586
G1 X119.133 Y144.51 E7.93751
G1 X119.285 Y144.309 E7.94254
G1 X119.502 Y144.031 E7.94958
G1 X119.851 Y143.599 E7.96066
G1 X120.477 Y142.851 E7.98012
G1 X120.848 Y142.43 E7.99132
G1 X121.032 Y142.232 E7.99672
G1 X121.282 Y141.972 E8.00391
G1 X121.669 Y141.584 E8.01485
G1 X121.884 Y141.374 E8.02085
G0 F1080 X122.184 Y141.082
G0 X122.454 Y140.827
G0 X122.861 Y140.468
G0 F6000 X123.118 Y140.775
G1 F1200 X123.813 Y140.192 E8.03895
G1 X124.037 Y140.009 E8.04472
G1 X124.579 Y139.579 E8.05853
G1 X125.309 Y139.049 E8.07653
G1 X126.09 Y138.532 E8.09522
G1 X126.334 Y138.376 E8.101
G1 X126.941 Y137.999 E8.11526
G1 X127.455 Y137.7 E8.12713
G1 X127.87 Y137.477 E8.13653
G1 X128.166 Y137.325 E8.14317
G1 X128.609 Y137.104 E8.15305
G1 X129.136 Y136.847 E8.16475
G1 X129.753 Y136.57 E8.17825
G1 X130.741 Y136.164 E8.19956
G1 X131.056 Y136.04 E8.20632
G1 X131.636 Y135.823 E8.21868
G1 X132.512 Y135.538 E8.23706
G1 X133.329 Y135.311 E8.25398
G1 X133.94 Y135.151 E8.26659
G1 X134.745 Y134.974 E8.28304
G1 X136.016 Y134.747 E8.3088
G1 X136.384 Y134.687 E8.31624
G1 X137.286 Y134.557 E8.33443
G1 X138.002 Y134.48 E8.3488
G1 X138.314 Y134.457 E8.35504
G1 X138.723 Y134.434 E8.36322
G1 X139.411 Y134.41 E8.37696
G1 X139.994 Y134.401 E8.38859
G1 X219.516 Y134.4 E9.97554
G1 X220.401 Y134.411 E9.9932
G1 X220.719 Y134.42 E9.99955
G1 X221.178 Y134.44 E10.00872
G1 X221.453 Y134.456 E10.01422
G1 X222.2 Y134.508 E10.02916
G1 X222.677 Y134.552 E10.03872
G1 X223.033 Y134.593 E10.04587
G1 X223.344 Y134.633 E10.05213
G1 X223.984 Y134.726 E10.06503
G1 X224.282 Y134.774 E10.07106
G1 X224.964 Y134.893 E10.08487
G1 X225.597 Y135.023 E10.09777
G1 X225.923 Y135.103 E10.10447
G1 X226.439 Y135.238 E10.11511
G1 X226.81 Y135.34 E10.12279
G1 X227.554 Y135.553 E10.13823
G1 X228.143 Y135.741 E10.15057
G1 X228.53 Y135.878 E10.15876
G1 X228.835 Y135.992 E10.16526
G1 X229.415 Y136.218 E10.17768
G1 X230.018 Y136.46 E10.19065
G1 X230.593 Y136.71 E10.20316
G1 X230.841 Y136.827 E10.20864
G1 X231.112 Y136.96 E10.21466
G1 X231.833 Y137.327 E10.2308
G1 X232.471 Y137.664 E10.2452
G1 X232.985 Y137.954 E10.25698
G1 X233.361 Y138.185 E10.26579
G1 X233.888 Y138.523 E10.27828
G1 X234.088 Y138.655 E10.28306
G1 X234.692 Y139.062 E10.2976
G1 X235.141 Y139.382 E10.3086
G1 X235.359 Y139.546 E10.31405
G1 X235.627 Y139.755 E10.32083
G1 X236.306 Y140.302 E10.33823
G1 X236.838 Y140.744 E10.35203
G1 X237.267 Y141.12 E10.36341
G1 X237.416 Y141.258 E10.36747
G1 X237.643 Y141.474 E10.37372
G1 X238.047 Y141.871 E10.38502
G1 X238.222 Y142.048 E10.38999
G1 X238.722 Y142.563 E10.40432
G1 X239.125 Y143.002 E10.41621
G1 X239.448 Y143.378 E10.4261
G1 X239.642 Y143.612 E10.43217
G1 X239.989 Y144.04 E10.44316
G1 X240.461 Y144.635 E10.45832
G1 X240.971 Y145.335 E10.4756
G1 X241.404 Y145.986 E10.4912
G1 X241.598 Y146.287 E10.49835
G1 X241.974 Y146.887 E10.51248
G1 X242.274 Y147.397 E10.52429
G1 X242.496 Y147.805 E10.53356
G1 X242.671 Y148.141 E10.54112
G1 X242.869 Y148.534 E10.5499
G1 X243.195 Y149.198 E10.56466
G1 X243.448 Y149.753 E10.57683
G1 X243.63 Y150.191 E10.5863
G1 X243.773 Y150.554 E10.59409
G1 X243.958 Y151.041 E10.60448
G1 X244.195 Y151.684 E10.61816
G1 X244.48 Y152.578 E10.63688
G1 X244.802 Y153.769 E10.6615
G1 X244.914 Y154.2 E10.67039
G1 X245.088 Y154.993 E10.68659
G1 X245.255 Y155.932 E10.70562
G1 X245.303 Y156.232 E10.71169
G1 X245.405 Y156.908 E10.72533
G1 X245.502 Y157.81 E10.74343
G1 X245.544 Y158.489 E10.75701
G1 X245.565 Y158.992 E10.76706
G1 X245.595 Y160.02 E10.78758
G1 X245.6 Y160.329 E10.79375
G1 X245.599 Y199.42 E11.57385
G1 X245.589 Y200.146 E11.58834
G1 X245.58 Y200.452 E11.59445
G1 X245.543 Y201.319 E11.61177
G1 X245.496 Y202.119 E11.62776
G1 X245.459 Y202.574 E11.63687
G1 X245.409 Y203.002 E11.64547
G1 X245.278 Y203.948 E11.66453
G1 X245.229 Y204.268 E11.67099
G1 X245.127 Y204.869 E11.68315
G1 X244.942 Y205.734 E11.70081
G1 X244.758 Y206.445 E11.71546
G1 X244.612 Y206.981 E11.72655
G1 X244.532 Y207.262 E11.73238
G1 X244.412 Y207.659 E11.74066
G1 X244.216 Y208.244 E11.75297
G1 X243.896 Y209.116 E11.7715
G1 X243.786 Y209.403 E11.77764
G1 X243.539 Y210.02 E11.7909
G1 X243.318 Y210.533 E11.80205
G1 X243.231 Y210.721 E11.80618
G1 X243.064 Y211.065 E11.81381
G1 X242.647 Y211.884 E11.83215
G1 X242.353 Y212.442 E11.84474
G1 X242.102 Y212.892 E11.85502
G1 X241.975 Y213.107 E11.86001
G1 X241.806 Y213.383 E11.86646
G1 X241.58 Y213.739 E11.87488
G1 X241.345 Y214.098 E11.88344
G1 X240.91 Y214.745 E11.899
G1 X240.614 Y215.163 E11.90922
G1 X240.541 Y215.261 E11.91166
G1 X240.31 Y215.56 E11.9192
G1 X239.865 Y216.115 E11.9334
G1 X239.719 Y216.293 E11.93799
G1 X239.263 Y216.837 E11.95216
G1 X238.895 Y217.254 E11.96326
G1 X238.745 Y217.415 E11.96765
G1 X238.564 Y217.604 E11.97287
G1 X238.311 Y217.862 E11.98008
G1 X237.88 Y218.292 E11.99223
G1 X237.398 Y218.759 E12.00562
G1 X236.988 Y219.136 E12.01674
G1 X236.634 Y219.439 E12.02604
G1 X236.169 Y219.821 E12.03805
G1 X235.374 Y220.448 E12.05825
G1 X234.874 Y220.818 E12.07066
G1 X234.585 Y221.019 E12.07769
G1 X234.352 Y221.177 E12.08331
G1 X233.752 Y221.57 E12.09762
G1 X233.156 Y221.949 E12.11172
G1 X232.416 Y222.378 E12.12879
G1 X231.72 Y222.744 E12.14448
G1 X231.379 Y222.916 E12.1521
G1 X230.733 Y223.233 E12.16646
G1 X230.14 Y223.502 E12.17945
G1 X229.788 Y223.645 E12.18704
G1 X229.192 Y223.877 E12.1998
G1 X228.98 Y223.957 E12.20432
G1 X228.314 Y224.2 E12.21847
G1 X227.731 Y224.394 E12.23073
G1 X227.528 Y224.455 E12.23496
G1 X227.283 Y224.525 E12.24005
G1 X226.853 Y224.642 E12.24894
G1 X226.067 Y224.847 E12.26515
G1 X225.863 Y224.897 E12.26934
G1 X225.217 Y225.035 E12.28252
G1 X223.994 Y225.255 E12.30732
G1 X223.638 Y225.312 E12.31452
G1 X222.845 Y225.427 E12.33051
G1 X222.28 Y225.494 E12.34186
G1 X222.048 Y225.515 E12.34651
G1 X221.62 Y225.546 E12.35507
G1 X221.348 Y225.56 E12.36051
G1 X220.656 Y225.586 E12.37433
G1 X220.391 Y225.592 E12.37962
G1 X219.701 Y225.6 E12.39339
G1 X140.317 Y225.599 E13.97758
G1 X139.522 Y225.588 E13.99345
G1 X139.21 Y225.579 E13.99968
G1 X138.956 Y225.568 E14.00475
G1 X138.676 Y225.552 E14.01035
G1 X137.689 Y225.483 E14.03009
G1 X137.018 Y225.415 E14.04355
G1 X136.653 Y225.366 E14.0509
G1 X136.38 Y225.326 E14.05641
G1 X135.783 Y225.229 E14.06848
G1 X135.091 Y225.108 E14.0825
G1 X134.439 Y224.972 E14.09579
G1 X134.051 Y224.877 E14.10376
G1 X133.632 Y224.768 E14.1124
G1 X133.053 Y224.61 E14.12438
G1 X132.567 Y224.47 E14.13447
G1 X131.943 Y224.269 E14.14755
G1 X130.902 Y223.898 E14.16961
G1 X130.56 Y223.77 E14.17689
G1 X130.057 Y223.571 E14.18769
G1 X129.49 Y223.327 E14.20001
G1 X129.292 Y223.235 E14.20436
G1 X129.008 Y223.098 E14.21066
G1 X128.302 Y222.744 E14.22642
G1 X128.11 Y222.645 E14.23073
G1 X127.52 Y222.334 E14.24404
G1 X126.752 Y221.887 E14.26177
G1 X126.075 Y221.454 E14.27781
