;FLAVOR:Marlin
;TIME:2408
;Filament used: 1.48307m
;Layer height: 0.2
;MINX:150.499
;MINY:150.489
;MINZ:0.2
;MAXX:209.534
;MAXY:209.521
;MAXZ:20
;Generated with Creality Slicer 4.8.2-177
M140 S60
M105
M190 S60
M104 S200
M105
M109 S200
M82 ;absolute extrusion mode
M201 X500.00 Y500.00 Z100.00 E5000.00 ;Setup machine max acceleration
M203 X500.00 Y500.00 Z10.00 E50.00 ;Setup machine max feedrate
M204 P500.00 R1000.00 T500.00 ;Setup Print/Retract/Travel acceleration
M205 X8.00 Y8.00 Z0.40 E5.00 ;Setup Jerk
M220 S100 ;Reset Feedrate
M221 S100 ;Reset Flowrate

G28 ;Home

G92 E0 ;Reset Extruder
G1 Z2.0 F3000 ;Move Z Axis up
G1 X10.1 Y20 Z0.28 F5000.0 ;Move to start position
G1 X10.1 Y200.0 Z0.28 F1500.0 E15 ;Draw the first line
G1 X10.4 Y200.0 Z0.28 F5000.0 ;Move to side a little
G1 X10.4 Y20 Z0.28 F1500.0 E30 ;Draw the second line
G92 E0 ;Reset Extruder
G1 Z2.0 F3000 ;Move Z Axis up

G92 E0
G92 E0
G1 F3600 E-8
;LAYER_COUNT:100
;LAYER:0
M107
G0 F6000 X158.61 Y159.56 Z0.2
;TYPE:SKIRT
G1 F3600 E0
G1 F1200 X159.277 Y158.9 E0.03121
G1 X159.997 Y158.3 E0.06238
G1 X160.495 Y157.941 E0.0828
G1 X161.633 Y157.168 E0.12856
G1 X163.713 Y155.712 E0.213
G1 X165.424 Y154.445 E0.28382
G1 X165.821 Y154.165 E0.29997
G1 X166.045 Y154.014 E0.30896
G1 X167 Y153.439 E0.34603
G1 X167.056 Y153.409 E0.34815
G1 X167.74 Y153.072 E0.37351
G1 X168.027 Y152.943 E0.38397
G1 X168.32 Y152.816 E0.3946
G1 X168.827 Y152.607 E0.41284
G1 X169.465 Y152.353 E0.43568
G1 X169.922 Y152.181 E0.45192
G1 X170.268 Y152.058 E0.46413
G1 X170.76 Y151.894 E0.48138
G1 X170.972 Y151.826 E0.48878
G1 X171.631 Y151.621 E0.51174
G1 X172.537 Y151.381 E0.54291
G1 X173.461 Y151.219 E0.57411
G1 X174.052 Y151.158 E0.59387
G1 X174.843 Y151.097 E0.62026
G1 X175.133 Y151.078 E0.62993
G1 X177.658 Y150.861 E0.71422
G1 X180.297 Y150.56 E0.80256
G1 X181.592 Y150.489 E0.8457
G1 X181.825 Y150.49 E0.85345
G1 X183.073 Y150.567 E0.89503
G1 X183.714 Y150.643 E0.9165
G1 X183.996 Y150.68 E0.92596
G1 X184.645 Y150.774 E0.94777
G1 X184.905 Y150.814 E0.95652
G1 X185.153 Y150.856 E0.96489
G1 X185.482 Y150.917 E0.97602
G1 X185.945 Y151.01 E0.99173
G1 X186.157 Y151.055 E0.99893
G1 X186.821 Y151.202 E1.02155
G1 X187.614 Y151.409 E1.04881
G1 X188.5 Y151.716 E1.08
G1 X189.175 Y152.01 E1.10449
G1 X190.057 Y152.431 E1.13699
G1 X190.411 Y152.607 E1.15014
G1 X192.677 Y153.655 E1.23318
G1 X194.563 Y154.461 E1.3014
G1 X195.038 Y154.672 E1.31868
G1 X195.691 Y154.989 E1.34283
G1 X195.885 Y155.091 E1.35012
G1 X196.696 Y155.562 E1.38131
G1 X197.131 Y155.856 E1.39877
G1 X197.31 Y155.983 E1.40607
G1 X197.578 Y156.179 E1.41712
G1 X198.079 Y156.56 E1.43805
G1 X198.61 Y156.977 E1.46051
G1 X198.855 Y157.175 E1.47098
G1 X199.094 Y157.374 E1.48133
G1 X199.303 Y157.553 E1.49048
G1 X199.724 Y157.924 E1.50914
G1 X200.245 Y158.399 E1.53259
G1 X200.911 Y159.06 E1.5638
G1 X201.517 Y159.775 E1.59498
G1 X201.871 Y160.256 E1.61484
G1 X202.277 Y160.841 E1.63852
G1 X202.715 Y161.494 E1.66467
G1 X204.164 Y163.539 E1.74804
G1 X204.78 Y164.352 E1.78196
G1 X204.921 Y164.556 E1.79021
G1 X205.703 Y165.606 E1.83375
G1 X206.231 Y166.382 E1.86497
G1 X206.69 Y167.199 E1.89614
G1 X206.935 Y167.714 E1.91511
G1 X207.329 Y168.602 E1.94742
G1 X207.482 Y168.964 E1.96049
G1 X207.639 Y169.355 E1.97451
G1 X207.768 Y169.693 E1.98654
G1 X207.911 Y170.086 E2.00045
G1 X208.01 Y170.368 E2.01039
G1 X208.107 Y170.662 E2.02069
G1 X208.321 Y171.328 E2.04395
G1 X208.569 Y172.232 E2.07513
G1 X208.74 Y173.154 E2.10632
G1 X208.808 Y173.753 E2.12637
G1 X208.877 Y174.574 E2.15377
G1 X208.971 Y175.91 E2.19832
G1 X209.344 Y179.491 E2.31807
G1 X209.452 Y180.37 E2.34752
G1 X209.534 Y181.714 E2.39231
G1 X209.534 Y181.879 E2.39779
G1 X209.456 Y183.185 E2.44131
G1 X209.387 Y183.762 E2.46064
G1 X209.35 Y184.041 E2.47
G1 X209.297 Y184.405 E2.48223
G1 X209.234 Y184.792 E2.49527
G1 X209.043 Y185.84 E2.5307
G1 X208.971 Y186.201 E2.54295
G1 X208.874 Y186.648 E2.55816
G1 X208.636 Y187.555 E2.58935
G1 X208.322 Y188.439 E2.62055
G1 X208.079 Y188.995 E2.64073
G1 X207.816 Y189.552 E2.66122
G1 X207.041 Y191.142 E2.72005
G1 X205.571 Y194.435 E2.83999
G1 X205.308 Y195.057 E2.86246
G1 X204.948 Y195.824 E2.89064
G1 X204.873 Y195.969 E2.89607
G1 X204.407 Y196.783 E2.92726
G1 X203.897 Y197.523 E2.95715
G1 X203.51 Y198.038 E2.97858
G1 X203.319 Y198.284 E2.98894
G1 X203.076 Y198.589 E3.00191
G1 X202.837 Y198.879 E3.01441
G1 X202.222 Y199.599 E3.0459
G1 X201.979 Y199.875 E3.05813
G1 X201.651 Y200.234 E3.07431
G1 X200.989 Y200.898 E3.10549
G1 X200.274 Y201.504 E3.13667
G1 X199.785 Y201.862 E3.15682
G1 X199.361 Y202.154 E3.17395
G1 X197.795 Y203.205 E3.23667
G1 X195.7 Y204.698 E3.32224
G1 X194.336 Y205.721 E3.37895
G1 X193.56 Y206.253 E3.41024
G1 X193.382 Y206.364 E3.41722
G1 X192.155 Y207.025 E3.46357
G1 X191.994 Y207.099 E3.46946
G1 X191.644 Y207.252 E3.48217
G1 X191.314 Y207.39 E3.49407
G1 X191.075 Y207.487 E3.50265
G1 X190.722 Y207.625 E3.51525
G1 X190.369 Y207.756 E3.52777
G1 X189.329 Y208.122 E3.56444
G1 X188.978 Y208.239 E3.57675
G1 X188.568 Y208.368 E3.59105
G1 X187.663 Y208.611 E3.62221
G1 X186.739 Y208.776 E3.65343
G1 X186.129 Y208.841 E3.67384
G1 X185.41 Y208.897 E3.69782
G1 X183.812 Y208.999 E3.75108
G1 X181.269 Y209.235 E3.83602
G1 X180.058 Y209.373 E3.87656
G1 X179.514 Y209.439 E3.89479
G1 X178.367 Y209.518 E3.93303
G1 X178.182 Y209.521 E3.93918
G1 X177.245 Y209.496 E3.97036
G1 X176.613 Y209.434 E3.99148
G1 X176.001 Y209.356 E4.012
G1 X175.704 Y209.314 E4.02198
G1 X175.395 Y209.266 E4.03238
G1 X175.039 Y209.204 E4.04439
G1 X173.939 Y208.996 E4.08163
G1 X173.513 Y208.907 E4.0961
G1 X173.092 Y208.81 E4.11047
G1 X172.188 Y208.561 E4.14166
G1 X171.309 Y208.235 E4.17284
G1 X170.788 Y208.001 E4.19184
G1 X169.887 Y207.566 E4.22512
G1 X168.935 Y207.092 E4.26049
G1 X165.776 Y205.645 E4.37605
G1 X164.766 Y205.204 E4.41271
G1 X163.923 Y204.792 E4.44392
G1 X163.447 Y204.518 E4.46218
G1 X163.268 Y204.409 E4.46915
G1 X162.315 Y203.758 E4.50754
G1 X161.88 Y203.426 E4.52574
G1 X161.653 Y203.248 E4.53534
G1 X161.401 Y203.045 E4.5461
G1 X161.096 Y202.79 E4.55932
G1 X160.179 Y201.995 E4.59969
G1 X159.888 Y201.734 E4.61269
G1 X159.568 Y201.436 E4.62723
G1 X158.91 Y200.768 E4.65842
G1 X158.311 Y200.047 E4.6896
G1 X157.962 Y199.562 E4.70947
G1 X157.5 Y198.881 E4.73684
G1 X157.19 Y198.408 E4.75565
G1 X155.746 Y196.325 E4.83995
G1 X155.088 Y195.436 E4.87674
G1 X154.9 Y195.157 E4.88793
G1 X154.22 Y194.227 E4.92624
G1 X153.699 Y193.447 E4.95744
G1 X153.322 Y192.773 E4.98313
G1 X153.149 Y192.437 E4.9957
G1 X152.785 Y191.657 E5.02433
G1 X152.633 Y191.291 E5.03751
G1 X152.515 Y190.993 E5.04817
G1 X152.266 Y190.353 E5.07101
G1 X152.155 Y190.057 E5.08152
G1 X152.067 Y189.81 E5.09024
G1 X151.97 Y189.524 E5.10029
G1 X151.798 Y188.992 E5.11888
G1 X151.583 Y188.29 E5.1433
G1 X151.347 Y187.383 E5.17448
G1 X151.189 Y186.458 E5.20569
G1 X151.129 Y185.849 E5.22604
G1 X151.082 Y185.188 E5.24808
G1 X151.064 Y184.88 E5.25834
G1 X150.871 Y182.39 E5.34141
G1 X150.672 Y180.593 E5.40154
G1 X150.555 Y179.429 E5.44045
G1 X150.501 Y178.447 E5.47316
G1 X150.499 Y178.26 E5.47938
G1 X150.529 Y177.322 E5.5106
G1 X150.582 Y176.786 E5.52851
G1 X150.665 Y176.118 E5.5509
G1 X150.706 Y175.818 E5.56097
G1 X150.812 Y175.122 E5.58439
G1 X150.868 Y174.789 E5.59562
G1 X150.909 Y174.566 E5.60316
G1 X150.961 Y174.303 E5.61208
G1 X151.097 Y173.663 E5.63384
G1 X151.264 Y172.94 E5.65852
G1 X151.514 Y172.036 E5.68971
G1 X151.84 Y171.157 E5.72089
G1 X152.089 Y170.607 E5.74098
G1 X152.614 Y169.53 E5.78083
G1 X153.702 Y167.227 E5.86554
G1 X154.635 Y165.102 E5.94273
G1 X154.807 Y164.724 E5.95654
G1 X155.357 Y163.679 E5.99582
G1 X155.428 Y163.56 E6.00043
G1 X155.964 Y162.746 E6.03285
G1 X156.192 Y162.433 E6.04573
G1 X156.399 Y162.159 E6.05715
G1 X156.66 Y161.821 E6.07135
G1 X157.111 Y161.252 E6.0955
G1 X157.342 Y160.971 E6.1076
G1 X157.612 Y160.657 E6.12137
G1 X157.952 Y160.274 E6.13841
G1 X158.112 Y160.097 E6.14634
G1 X158.61 Y159.56 E6.1707
G0 F6000 X158.904 Y159.832
G1 F1200 X159.559 Y159.185 E6.20132
G1 X160.267 Y158.597 E6.23193
G1 X160.719 Y158.272 E6.25045
G1 X161.833 Y157.515 E6.29525
G1 X164.002 Y155.997 E6.3833
G1 X165.663 Y154.767 E6.45204
G1 X166.045 Y154.497 E6.4676
G1 X166.269 Y154.346 E6.47659
G1 X167.188 Y153.791 E6.51229
G1 X167.244 Y153.761 E6.51441
G1 X167.904 Y153.437 E6.53886
G1 X168.191 Y153.308 E6.54933
G1 X168.474 Y153.186 E6.55958
G1 X168.975 Y152.979 E6.57761
G1 X169.613 Y152.725 E6.60045
G1 X170.061 Y152.556 E6.61637
G1 X170.395 Y152.438 E6.62815
G1 X171.09 Y152.208 E6.6525
G1 X171.749 Y152.003 E6.67546
G1 X172.64 Y151.768 E6.70611
G1 X173.547 Y151.611 E6.73672
G1 X174.083 Y151.556 E6.75464
G1 X174.874 Y151.495 E6.78103
G1 X175.187 Y151.475 E6.79146
G1 X177.67 Y151.262 E6.87435
G1 X180.343 Y150.957 E6.96383
G1 X181.59 Y150.889 E7.00537
G1 X181.823 Y150.89 E7.01312
G1 X183.026 Y150.964 E7.0532
G1 X183.667 Y151.04 E7.07467
G1 X183.938 Y151.075 E7.08376
G1 X184.587 Y151.169 E7.10557
G1 X185.086 Y151.251 E7.12239
G1 X185.403 Y151.31 E7.13312
G1 X186.07 Y151.446 E7.15576
G1 X186.734 Y151.593 E7.17838
G1 X187.499 Y151.792 E7.20467
G1 X188.368 Y152.095 E7.23528
G1 X189.003 Y152.371 E7.25831
G1 X189.879 Y152.789 E7.29059
G1 X190.247 Y152.972 E7.30426
G1 X192.518 Y154.022 E7.38748
G1 X194.4 Y154.827 E7.45556
G1 X194.875 Y155.038 E7.47284
G1 X195.505 Y155.343 E7.49612
G1 X195.699 Y155.445 E7.50341
G1 X196.494 Y155.908 E7.53401
G1 X196.9 Y156.182 E7.5503
G1 X197.079 Y156.309 E7.5576
G1 X197.337 Y156.498 E7.56824
G1 X197.832 Y156.874 E7.58892
G1 X198.363 Y157.291 E7.61137
G1 X198.599 Y157.482 E7.62147
G1 X198.838 Y157.681 E7.63181
G1 X199.04 Y157.854 E7.64066
G1 X199.455 Y158.22 E7.65906
G1 X199.976 Y158.695 E7.68251
G1 X200.628 Y159.344 E7.71311
G1 X201.222 Y160.048 E7.74375
G1 X201.542 Y160.484 E7.76174
G1 X201.948 Y161.069 E7.78542
G1 X202.388 Y161.726 E7.81172
G1 X203.831 Y163.761 E7.89469
G1 X204.461 Y164.593 E7.9294
G1 X204.592 Y164.782 E7.93705
G1 X205.383 Y165.845 E7.98112
G1 X205.9 Y166.607 E8.01175
G1 X206.349 Y167.41 E8.04235
G1 X206.569 Y167.876 E8.05949
G1 X206.963 Y168.764 E8.0918
G1 X207.111 Y169.113 E8.10441
G1 X207.268 Y169.504 E8.11842
G1 X207.392 Y169.829 E8.12999
G1 X207.535 Y170.222 E8.1439
G1 X207.63 Y170.495 E8.15352
G1 X207.726 Y170.784 E8.16364
G1 X207.94 Y171.45 E8.18691
G1 X208.183 Y172.338 E8.21753
G1 X208.348 Y173.244 E8.24816
G1 X208.409 Y173.787 E8.26634
G1 X208.478 Y174.602 E8.29354
G1 X208.573 Y175.952 E8.33855
G1 X208.945 Y179.525 E8.45803
G1 X209.055 Y180.419 E8.48799
G1 X209.134 Y181.714 E8.53114
G1 X209.134 Y181.879 E8.53663
G1 X209.059 Y183.138 E8.57858
G1 X208.99 Y183.715 E8.59791
G1 X208.954 Y183.983 E8.6069
G1 X208.901 Y184.347 E8.61914
G1 X208.84 Y184.721 E8.63174
G1 X208.649 Y185.769 E8.66717
G1 X208.58 Y186.116 E8.67894
G1 X208.483 Y186.563 E8.69415
G1 X208.249 Y187.453 E8.72476
G1 X207.938 Y188.32 E8.75539
G1 X207.717 Y188.825 E8.77373
G1 X207.456 Y189.377 E8.79404
G1 X206.674 Y190.983 E8.85345
G1 X205.224 Y194.231 E8.97175
G1 X204.94 Y194.901 E8.99596
G1 X204.593 Y195.64 E9.02311
G1 X204.518 Y195.785 E9.02854
G1 X204.06 Y196.583 E9.05914
G1 X203.577 Y197.283 E9.08743
G1 X203.19 Y197.798 E9.10886
G1 X203.006 Y198.035 E9.11883
G1 X202.763 Y198.34 E9.13181
G1 X202.533 Y198.62 E9.14386
G1 X201.918 Y199.34 E9.17535
G1 X201.684 Y199.605 E9.18711
G1 X201.356 Y199.964 E9.20328
G1 X200.706 Y200.616 E9.2339
G1 X200.002 Y201.209 E9.26452
G1 X199.558 Y201.533 E9.2828
G1 X199.138 Y201.822 E9.29976
G1 X197.545 Y202.891 E9.36357
G1 X195.488 Y204.358 E9.4476
G1 X194.096 Y205.401 E9.50545
G1 X193.348 Y205.913 E9.5356
G1 X193.17 Y206.024 E9.54258
G1 X191.988 Y206.661 E9.58724
G1 X191.827 Y206.735 E9.59313
G1 X191.49 Y206.883 E9.60537
G1 X191.16 Y207.021 E9.61727
G1 X190.929 Y207.114 E9.62555
G1 X190.576 Y207.252 E9.63816
G1 X190.236 Y207.379 E9.65023
G1 X189.196 Y207.745 E9.6869
G1 X188.858 Y207.857 E9.69874
G1 X188.448 Y207.986 E9.71304
G1 X187.559 Y208.224 E9.74365
G1 X186.652 Y208.384 E9.77428
G1 X186.097 Y208.442 E9.79284
G1 X185.384 Y208.497 E9.81662
G1 X183.821 Y208.597 E9.86872
G1 X181.236 Y208.837 E9.95506
G1 X179.994 Y208.978 E9.99664
G1 X179.466 Y209.042 E10.01433
G1 X178.361 Y209.118 E10.05117
G1 X178.176 Y209.121 E10.05732
G1 X177.256 Y209.096 E10.08793
G1 X176.664 Y209.037 E10.10772
G1 X176.052 Y208.959 E10.12824
G1 X175.765 Y208.918 E10.13788
G1 X175.456 Y208.87 E10.14828
G1 X175.114 Y208.811 E10.15982
G1 X174.014 Y208.603 E10.19706
G1 X173.603 Y208.517 E10.21102
G1 X173.182 Y208.42 E10.22539
G1 X172.295 Y208.175 E10.256
G1 X171.432 Y207.853 E10.28664
G1 X170.962 Y207.641 E10.30379
G1 X170.066 Y207.208 E10.33688
G1 X169.102 Y206.727 E10.37272
G1 X165.945 Y205.282 E10.4882
G1 X164.926 Y204.837 E10.52518
G1 X164.099 Y204.432 E10.55581
G1 X163.655 Y204.177 E10.57284
G1 X163.476 Y204.068 E10.57981
G1 X162.558 Y203.44 E10.6168
G1 X162.123 Y203.108 E10.635
G1 X161.904 Y202.937 E10.64424
G1 X161.652 Y202.734 E10.655
G1 X161.358 Y202.488 E10.66775
G1 X160.441 Y201.693 E10.70812
G1 X160.161 Y201.441 E10.72065
G1 X159.841 Y201.143 E10.73519
G1 X159.195 Y200.487 E10.76581
G1 X158.609 Y199.777 E10.79643
G1 X158.293 Y199.337 E10.81445
G1 X157.831 Y198.656 E10.84182
G1 X157.51 Y198.167 E10.86128
G1 X156.069 Y196.088 E10.94541
G1 X155.41 Y195.198 E10.98224
G1 X155.225 Y194.925 E10.99321
G1 X154.543 Y193.991 E11.03168
G1 X154.033 Y193.225 E11.06229
G1 X153.678 Y192.59 E11.08648
G1 X153.505 Y192.254 E11.09905
G1 X153.154 Y191.503 E11.12662
G1 X153.005 Y191.143 E11.13958
G1 X152.887 Y190.848 E11.15015
G1 X152.638 Y190.208 E11.17299
G1 X152.532 Y189.922 E11.18314
G1 X152.444 Y189.675 E11.19186
G1 X152.35 Y189.4 E11.20152
G1 X152.181 Y188.875 E11.21987
G1 X151.966 Y188.173 E11.24429
G1 X151.735 Y187.282 E11.2749
G1 X151.582 Y186.374 E11.30553
G1 X151.528 Y185.821 E11.32401
G1 X151.481 Y185.16 E11.34605
G1 X151.462 Y184.83 E11.35704
G1 X151.269 Y182.346 E11.43991
G1 X151.07 Y180.553 E11.49991
G1 X150.953 Y179.389 E11.53882
G1 X150.901 Y178.442 E11.57036
G1 X150.899 Y178.255 E11.57658
G1 X150.929 Y177.335 E11.6072
G1 X150.979 Y176.835 E11.62391
G1 X151.062 Y176.167 E11.6463
G1 X151.102 Y175.878 E11.65601
G1 X151.208 Y175.182 E11.67942
G1 X151.262 Y174.861 E11.69025
G1 X151.352 Y174.385 E11.70636
G1 X151.439 Y173.969 E11.7205
G1 X151.487 Y173.753 E11.72786
G1 X151.654 Y173.03 E11.75254
G1 X151.9 Y172.143 E11.78315
G1 X152.222 Y171.281 E11.81376
G1 X152.449 Y170.782 E11.83199
G1 X152.987 Y169.678 E11.87284
G1 X154.058 Y167.41 E11.95626
G1 X155.001 Y165.263 E12.03425
G1 X155.171 Y164.891 E12.04786
G1 X155.7 Y163.884 E12.08569
G1 X155.771 Y163.765 E12.0903
G1 X156.288 Y162.98 E12.12156
G1 X156.512 Y162.673 E12.1342
G1 X156.716 Y162.403 E12.14546
G1 X156.974 Y162.07 E12.15947
G1 X157.425 Y161.501 E12.18362
G1 X157.647 Y161.229 E12.19529
G1 X157.911 Y160.923 E12.20874
G1 X158.251 Y160.54 E12.22577
G1 X158.406 Y160.369 E12.23345
G1 X158.904 Y159.832 E12.2578
G0 F6000 X159.197 Y160.104
G1 F1200 X159.84 Y159.47 E12.28784
G1 X160.536 Y158.895 E12.31787
G1 X160.944 Y158.603 E12.33455
G1 X162.048 Y157.853 E12.37894
G1 X164.222 Y156.331 E12.46721
G1 X165.901 Y155.088 E12.53669
G1 X166.269 Y154.828 E12.55168
G1 X166.493 Y154.677 E12.56066
G1 X167.377 Y154.144 E12.595
G1 X167.433 Y154.114 E12.59711
G1 X168.068 Y153.802 E12.62064
G1 X168.355 Y153.673 E12.63111
G1 X168.627 Y153.555 E12.64097
G1 X169.123 Y153.35 E12.65882
G1 X169.761 Y153.096 E12.68166
G1 X170.2 Y152.931 E12.69726
G1 X170.521 Y152.817 E12.70859
G1 X171.013 Y152.653 E12.72584
G1 X171.209 Y152.59 E12.73268
G1 X171.868 Y152.385 E12.75564
G1 X172.742 Y152.156 E12.78569
G1 X173.632 Y152.004 E12.81572
G1 X174.114 Y151.955 E12.83183
G1 X174.905 Y151.894 E12.85822
G1 X175.177 Y151.877 E12.86728
G1 X177.748 Y151.656 E12.95311
G1 X180.388 Y151.355 E13.04149
G1 X181.589 Y151.289 E13.08149
G1 X181.822 Y151.29 E13.08924
G1 X182.979 Y151.361 E13.1278
G1 X183.62 Y151.437 E13.14927
G1 X183.881 Y151.471 E13.15802
G1 X184.53 Y151.565 E13.17983
G1 X185.019 Y151.645 E13.19631
G1 X185.325 Y151.702 E13.20666
G1 X185.984 Y151.836 E13.22903
G1 X186.648 Y151.983 E13.25165
G1 X187.384 Y152.175 E13.27695
G1 X188.237 Y152.473 E13.307
G1 X188.832 Y152.733 E13.3286
