;FLAVOR:Marlin
;TIME:6350
;Filament used: 5.65754m
;Layer height: 0.2
;MINX:137.602
;MINY:121.601
;MINZ:0.2
;MAXX:222.398
;MAXY:238.395
;MAXZ:6.4
;Generated with Creality Slicer 4.8.2-177
M140 S60
M105
M190 S60
M104 S200
M105
M109 S200
M82 ;absolute extrusion mode
M201 X500.00 Y500.00 Z100.00 E5000.00 ;Setup machine max acceleration
M203 X500.00 Y500.00 Z10.00 E50.00 ;Setup machine max feedrate
M204 P500.00 R1000.00 T500.00 ;Setup Print/Retract/Travel acceleration
M205 X8.00 Y8.00 Z0.40 E5.00 ;Setup Jerk
M220 S100 ;Reset Feedrate
M221 S100 ;Reset Flowrate

G28 ;Home

G92 E0 ;Reset Extruder
G1 Z2.0 F3000 ;Move Z Axis up
G1 X10.1 Y20 Z0.28 F5000.0 ;Move to start position
G1 X10.1 Y200.0 Z0.28 F1500.0 E15 ;Draw the first line
G1 X10.4 Y200.0 Z0.28 F5000.0 ;Move to side a little
G1 X10.4 Y20 Z0.28 F1500.0 E30 ;Draw the second line
G92 E0 ;Reset Extruder
G1 Z2.0 F3000 ;Move Z Axis up

G92 E0
G92 E0
G1 F3600 E-8
;LAYER_COUNT:32
;LAYER:0
M107
G0 F6000 X140.18 Y125.546 Z0.2
;TYPE:SKIRT
G1 F3600 E0
G1 F1200 X140.812 Y124.853 E0.03119
G1 X141.501 Y124.217 E0.06238
G1 X142.242 Y123.642 E0.09358
G1 X143.029 Y123.132 E0.12477
G1 X143.857 Y122.691 E0.15597
G1 X144.719 Y122.322 E0.18716
G1 X145.61 Y122.028 E0.21836
G1 X146.522 Y121.81 E0.24955
G1 X147.449 Y121.672 E0.28072
G1 X148.303 Y121.614 E0.30919
G1 X148.623 Y121.605 E0.31984
G1 X148.932 Y121.601 E0.33012
G1 X163.314 Y121.601 E0.80847
G1 X164.197 Y121.613 E0.83784
G1 X165.423 Y121.701 E0.87872
G1 X165.96 Y121.77 E0.89673
G1 X168.51 Y122.06 E0.98209
G1 X171.014 Y122.273 E1.06567
G1 X173.549 Y122.418 E1.15012
G1 X176.033 Y122.489 E1.23278
G1 X178.557 Y122.489 E1.31672
G1 X181.082 Y122.418 E1.40074
G1 X183.598 Y122.277 E1.48455
G1 X186.104 Y122.064 E1.5682
G1 X188.884 Y121.746 E1.66127
G1 X189.211 Y121.704 E1.67223
G1 X190.454 Y121.614 E1.71369
G1 X191.406 Y121.601 E1.74535
G1 X205.501 Y121.602 E2.21415
G1 X206.204 Y121.612 E2.23754
G1 X207.141 Y121.665 E2.26875
G1 X208.069 Y121.798 E2.29993
G1 X208.983 Y122.01 E2.33114
G1 X209.875 Y122.298 E2.36232
G1 X210.74 Y122.662 E2.39353
G1 X211.57 Y123.098 E2.42471
G1 X212.361 Y123.603 E2.45593
G1 X213.06 Y124.136 E2.48516
G1 X213.41 Y124.428 E2.50032
G1 X214.037 Y124.97 E2.52789
G1 X214.719 Y125.613 E2.55906
G1 X215.302 Y126.26 E2.58803
G1 X215.566 Y126.58 E2.60183
G1 X215.658 Y126.695 E2.60673
G1 X216.212 Y127.452 E2.63793
G1 X216.907 Y128.648 E2.68393
G1 X217.228 Y129.29 E2.70781
G1 X217.382 Y129.611 E2.71965
G1 X217.538 Y129.95 E2.73206
G1 X217.9 Y130.836 E2.76389
G1 X218.242 Y131.79 E2.7976
G1 X218.368 Y132.163 E2.8107
G1 X218.562 Y132.772 E2.83196
G1 X218.644 Y133.04 E2.84128
G1 X218.726 Y133.322 E2.85104
G1 X218.824 Y133.683 E2.86349
G1 X219.105 Y134.794 E2.9016
G1 X219.297 Y135.602 E2.92922
G1 X219.352 Y135.847 E2.93758
G1 X219.47 Y136.403 E2.95648
G1 X219.657 Y137.341 E2.98829
G1 X219.981 Y139.12 E3.04844
G1 X220.177 Y140.305 E3.08838
G1 X220.432 Y142.031 E3.14641
G1 X220.667 Y143.804 E3.2059
G1 X220.839 Y145.243 E3.2541
G1 X221.076 Y147.453 E3.32803
G1 X221.165 Y148.349 E3.35798
G1 X221.418 Y151.118 E3.45046
G1 X221.51 Y152.257 E3.48846
G1 X221.711 Y155.11 E3.58359
G1 X221.758 Y155.838 E3.60785
G1 X221.968 Y159.505 E3.73002
G1 X222.006 Y160.273 E3.75559
G1 X222.142 Y163.374 E3.85883
G1 X222.178 Y164.394 E3.89278
G1 X222.289 Y168.493 E4.02916
G1 X222.368 Y172.533 E4.16356
G1 X222.376 Y173.187 E4.18531
G1 X222.398 Y176.806 E4.30568
G1 X222.398 Y177.603 E4.33219
G1 X222.375 Y181.288 E4.45476
G1 X222.365 Y182.143 E4.4832
G1 X222.293 Y186.043 E4.61293
G1 X222.276 Y186.773 E4.63722
G1 X222.183 Y190.161 E4.74995
G1 X222.155 Y190.944 E4.77601
G1 X222.004 Y194.449 E4.89269
G1 X221.964 Y195.232 E4.91877
G1 X221.778 Y198.526 E5.0285
G1 X221.731 Y199.268 E5.05323
G1 X221.508 Y202.418 E5.15826
G1 X221.418 Y203.53 E5.19537
G1 X221.165 Y206.31 E5.28821
G1 X221.065 Y207.319 E5.32194
G1 X220.85 Y209.326 E5.38907
G1 X220.67 Y210.815 E5.43896
G1 X220.416 Y212.72 E5.50288
G1 X220.175 Y214.347 E5.55758
G1 X219.998 Y215.433 E5.59418
G1 X219.653 Y217.337 E5.65854
G1 X219.507 Y218.08 E5.68372
G1 X219.284 Y219.128 E5.71936
G1 X219.161 Y219.657 E5.73742
G1 X219.118 Y219.835 E5.74352
G1 X218.912 Y220.641 E5.77118
G1 X218.726 Y221.342 E5.79531
G1 X218.619 Y221.72 E5.80837
G1 X218.529 Y222.008 E5.81841
G1 X218.344 Y222.575 E5.83825
G1 X218.194 Y223.014 E5.85368
G1 X217.969 Y223.65 E5.87611
G1 X217.598 Y224.565 E5.90895
G1 X217.317 Y225.178 E5.93138
G1 X217.191 Y225.444 E5.94117
G1 X217.024 Y225.784 E5.95377
G1 X216.687 Y226.417 E5.97762
G1 X216.595 Y226.577 E5.98376
G1 X216.093 Y227.37 E6.01498
G1 X215.705 Y227.894 E6.03666
G1 X214.951 Y228.852 E6.07721
G1 X214.732 Y229.148 E6.08946
G1 X214.326 Y229.66 E6.11119
G1 X214.049 Y230 E6.12578
G1 X213.299 Y230.83 E6.16298
G1 X213.266 Y230.863 E6.16454
G1 X212.314 Y231.711 E6.20694
G1 X212.084 Y231.893 E6.2167
G1 X211.686 Y232.193 E6.23327
G1 X211.225 Y232.525 E6.25217
G1 X210.214 Y233.173 E6.29211
G1 X209.78 Y233.416 E6.30865
G1 X209.648 Y233.487 E6.31364
G1 X209.363 Y233.634 E6.3243
G1 X208.796 Y233.918 E6.34539
G1 X208.242 Y234.177 E6.36573
G1 X208.055 Y234.258 E6.37251
G1 X207.811 Y234.36 E6.38131
G1 X207.485 Y234.492 E6.39301
G1 X207.24 Y234.588 E6.40176
G1 X206.535 Y234.854 E6.42682
G1 X206.244 Y234.959 E6.43711
G1 X205.998 Y235.044 E6.44577
G1 X205.691 Y235.145 E6.45652
G1 X204.944 Y235.377 E6.48253
G1 X204.279 Y235.573 E6.50559
G1 X203.966 Y235.66 E6.5164
G1 X203.346 Y235.823 E6.53772
G1 X202.991 Y235.911 E6.54988
G1 X201.045 Y236.354 E6.61626
G1 X200.671 Y236.433 E6.62898
G1 X200.46 Y236.475 E6.63613
G1 X198.708 Y236.804 E6.69542
G1 X198.119 Y236.905 E6.7153
G1 X196.399 Y237.171 E6.77319
G1 X195.59 Y237.285 E6.80036
G1 X193.915 Y237.493 E6.8565
G1 X192.268 Y237.674 E6.91161
G1 X191.174 Y237.782 E6.94817
G1 X189.62 Y237.919 E7.00006
G1 X188.519 Y238.004 E7.03679
G1 X186.938 Y238.11 E7.08949
G1 X185.738 Y238.178 E7.12946
G1 X183.655 Y238.275 E7.19882
G1 X182.538 Y238.317 E7.236
G1 X181.017 Y238.358 E7.2866
G1 X179.831 Y238.379 E7.32606
G1 X177.893 Y238.395 E7.39052
G1 X176.757 Y238.395 E7.4283
G1 X174.71 Y238.377 E7.49639
G1 X173.521 Y238.356 E7.53594
G1 X171.946 Y238.311 E7.58835
G1 X170.946 Y238.273 E7.62163
G1 X168.925 Y238.175 E7.68893
G1 X167.878 Y238.114 E7.72381
G1 X165.754 Y237.973 E7.79461
G1 X164.669 Y237.888 E7.83081
G1 X163.377 Y237.773 E7.87395
G1 X162.196 Y237.655 E7.91343
G1 X160.674 Y237.488 E7.96435
G1 X159.094 Y237.291 E8.01731
G1 X158.174 Y237.161 E8.04821
G1 X156.619 Y236.919 E8.10056
G1 X155.753 Y236.771 E8.12978
G1 X154.245 Y236.489 E8.1808
G1 X153.515 Y236.341 E8.20558
G1 X152.628 Y236.149 E8.23576
G1 X152.373 Y236.091 E8.24446
G1 X151.956 Y235.989 E8.25874
G1 X151.286 Y235.818 E8.28174
G1 X150.46 Y235.598 E8.31017
G1 X150.16 Y235.514 E8.32053
G1 X149.565 Y235.336 E8.34118
G1 X149.295 Y235.251 E8.3506
G1 X148.628 Y235.034 E8.37393
G1 X148.331 Y234.933 E8.38436
G1 X148.065 Y234.838 E8.39376
G1 X147.765 Y234.726 E8.40441
G1 X147.275 Y234.533 E8.42192
G1 X146.591 Y234.252 E8.44652
G1 X146.067 Y234.02 E8.46558
G1 X145.676 Y233.83 E8.48004
G1 X145.343 Y233.66 E8.49247
G1 X145.087 Y233.525 E8.5021
G1 X144.567 Y233.242 E8.52179
G1 X143.508 Y232.585 E8.56324
G1 X143.307 Y232.444 E8.57141
G1 X142.958 Y232.189 E8.58578
G1 X142.496 Y231.837 E8.6051
G1 X141.774 Y231.237 E8.63632
G1 X141.107 Y230.578 E8.66751
G1 X140.594 Y229.985 E8.69359
G1 X140.404 Y229.749 E8.70367
G1 X139.847 Y228.994 E8.73487
G1 X139.357 Y228.195 E8.76605
G1 X139.008 Y227.511 E8.79159
G1 X138.856 Y227.186 E8.80352
G1 X138.737 Y226.923 E8.81312
G1 X138.529 Y226.446 E8.83043
G1 X138.191 Y225.571 E8.86163
G1 X137.929 Y224.67 E8.89284
G1 X137.744 Y223.751 E8.92401
G1 X137.617 Y222.369 E8.97017
G1 X137.607 Y222.025 E8.98162
G1 X137.602 Y221.705 E8.99226
G1 X137.603 Y133.11 E11.93895
G1 X137.613 Y132.445 E11.96107
G1 X137.667 Y131.508 E11.99228
G1 X137.801 Y130.58 E12.02347
G1 X138.013 Y129.666 E12.05468
G1 X138.302 Y128.774 E12.08586
G1 X138.667 Y127.91 E12.11706
G1 X139.103 Y127.08 E12.14824
G1 X139.609 Y126.29 E12.17944
G1 X140.18 Y125.546 E12.21064
G0 F6000 X140.574 Y125.7
G1 F1200 X141.204 Y125.028 E12.24127
G1 X141.89 Y124.414 E12.27189
G1 X142.626 Y123.862 E12.30249
G1 X143.408 Y123.375 E12.33314
G1 X144.229 Y122.959 E12.36375
G1 X145.083 Y122.615 E12.39437
G1 X145.963 Y122.346 E12.42497
G1 X146.864 Y122.155 E12.45561
G1 X147.778 Y122.043 E12.48624
G1 X148.314 Y122.014 E12.50409
G1 X148.634 Y122.005 E12.51474
G1 X148.932 Y122.001 E12.52465
G1 X163.314 Y122.001 E13.003
G1 X164.191 Y122.013 E13.03217
G1 X165.373 Y122.098 E13.07158
G1 X165.87 Y122.162 E13.08825
G1 X168.468 Y122.457 E13.17521
G1 X170.994 Y122.672 E13.25953
G1 X173.515 Y122.816 E13.34352
G1 X176.056 Y122.889 E13.42807
G1 X178.568 Y122.889 E13.51162
G1 X181.115 Y122.818 E13.59636
G1 X183.62 Y122.677 E13.67981
G1 X186.151 Y122.462 E13.7643
G1 X188.906 Y122.147 E13.85653
G1 X189.262 Y122.101 E13.86846
G1 X190.46 Y122.014 E13.90842
G1 X191.406 Y122.001 E13.93988
G1 X205.496 Y122.002 E14.40852
G1 X206.199 Y122.012 E14.4319
G1 X207.118 Y122.065 E14.46252
G1 X208.029 Y122.198 E14.49314
G1 X208.925 Y122.409 E14.52376
G1 X209.799 Y122.697 E14.55436
G1 X210.646 Y123.06 E14.58501
G1 X211.457 Y123.495 E14.61562
G1 X212.228 Y123.999 E14.64626
G1 X212.805 Y124.444 E14.67049
G1 X213.148 Y124.731 E14.68537
G1 X213.775 Y125.273 E14.71293
G1 X214.445 Y125.905 E14.74357
G1 X214.994 Y126.516 E14.77089
G1 X215.253 Y126.83 E14.78443
G1 X215.345 Y126.945 E14.78933
G1 X215.889 Y127.688 E14.81995
G1 X216.549 Y128.827 E14.86374
G1 X216.87 Y129.469 E14.88761
G1 X217.018 Y129.778 E14.89901
G1 X217.174 Y130.117 E14.91142
G1 X217.523 Y130.971 E14.9421
G1 X217.865 Y131.925 E14.97581
G1 X217.987 Y132.285 E14.98845
G1 X218.181 Y132.894 E15.00971
G1 X218.259 Y133.151 E15.01864
G1 X218.341 Y133.433 E15.02841
G1 X218.436 Y133.781 E15.04041
G1 X218.716 Y134.886 E15.07832
G1 X218.908 Y135.694 E15.10595
G1 X218.961 Y135.931 E15.11402
G1 X219.078 Y136.481 E15.13273
G1 X219.227 Y137.222 E15.15786
G1 X219.587 Y139.192 E15.22447
G1 X219.619 Y139.376 E15.23068
G1 X219.809 Y140.544 E15.27004
G1 X220.058 Y142.246 E15.32725
G1 X220.286 Y143.983 E15.38552
G1 X220.441 Y145.286 E15.42917
G1 X220.678 Y147.492 E15.50296
G1 X220.767 Y148.386 E15.53284
G1 X221.02 Y151.151 E15.62519
G1 X221.111 Y152.285 E15.66303
G1 X221.312 Y155.135 E15.75805
G1 X221.359 Y155.861 E15.78225
G1 X221.569 Y159.525 E15.90432
G1 X221.607 Y160.291 E15.92983
G1 X221.742 Y163.388 E16.03293
G1 X221.778 Y164.405 E16.06678
G1 X221.889 Y168.501 E16.20306
G1 X221.968 Y172.537 E16.33732
G1 X221.976 Y173.19 E16.35904
G1 X221.998 Y176.809 E16.47942
G1 X221.998 Y177.6 E16.50572
G1 X221.975 Y181.283 E16.62822
G1 X221.965 Y182.136 E16.6566
G1 X221.893 Y186.034 E16.78627
G1 X221.876 Y186.762 E16.81049
G1 X221.783 Y190.147 E16.92311
G1 X221.755 Y190.927 E16.94907
G1 X221.605 Y194.429 E17.06566
G1 X221.565 Y195.21 E17.09167
G1 X221.379 Y198.501 E17.2013
G1 X221.332 Y199.239 E17.2259
G1 X221.109 Y202.386 E17.33083
G1 X221.02 Y203.494 E17.3678
G1 X220.767 Y206.271 E17.46055
G1 X220.668 Y207.276 E17.49413
G1 X220.453 Y209.278 E17.5611
G1 X220.274 Y210.762 E17.61082
G1 X220.042 Y212.509 E17.66944
G1 X219.78 Y214.283 E17.72908
G1 X219.603 Y215.369 E17.76568
G1 X219.57 Y215.561 E17.77216
G1 X219.228 Y217.433 E17.83545
G1 X219.083 Y218.157 E17.86001
G1 X218.893 Y219.044 E17.89018
G1 X218.772 Y219.565 E17.90797
G1 X218.553 Y220.433 E17.93774
G1 X218.339 Y221.239 E17.96548
G1 X218.236 Y221.603 E17.97806
G1 X218.149 Y221.885 E17.98788
G1 X217.966 Y222.446 E18.0075
G1 X217.817 Y222.88 E18.02277
G1 X217.592 Y223.516 E18.0452
G1 X217.235 Y224.398 E18.07685
G1 X216.954 Y225.011 E18.09928
G1 X216.832 Y225.267 E18.10871
G1 X216.665 Y225.607 E18.12131
G1 X216.34 Y226.218 E18.14433
G1 X216.248 Y226.378 E18.15047
G1 X215.755 Y227.155 E18.18107
G1 X215.391 Y227.647 E18.20143
G1 X214.518 Y228.757 E18.2484
G1 X214.418 Y228.9 E18.2542
G1 X214.016 Y229.407 E18.27572
G1 X213.739 Y229.747 E18.29031
G1 X213.016 Y230.547 E18.32617
G1 X212.983 Y230.58 E18.32773
G1 X212.066 Y231.397 E18.36857
G1 X211.836 Y231.579 E18.37833
G1 X211.453 Y231.869 E18.39431
G1 X210.992 Y232.201 E18.4132
G1 X210.017 Y232.825 E18.4517
G1 X209.789 Y232.954 E18.46042
G1 X209.458 Y233.134 E18.47295
G1 X209.184 Y233.277 E18.48323
G1 X208.617 Y233.561 E18.50432
G1 X208.083 Y233.81 E18.52392
G1 X207.896 Y233.891 E18.5307
G1 X207.661 Y233.989 E18.53916
G1 X207.099 Y234.214 E18.5593
G1 X206.394 Y234.48 E18.58436
G1 X206.114 Y234.581 E18.59426
G1 X205.868 Y234.666 E18.60292
G1 X205.572 Y234.763 E18.61328
G1 X204.831 Y234.994 E18.63909
G1 X204.166 Y235.19 E18.66215
G1 X203.864 Y235.274 E18.67258
G1 X203.244 Y235.437 E18.6939
G1 X202.902 Y235.521 E18.70561
G1 X200.956 Y235.964 E18.77199
G1 X200.59 Y236.042 E18.78444
G1 X200.386 Y236.082 E18.79135
G1 X198.434 Y236.447 E18.8574
G1 X197.91 Y236.534 E18.87507
G1 X196.188 Y236.798 E18.93301
G1 X195.535 Y236.889 E18.95494
G1 X193.871 Y237.095 E19.01071
G1 X192.229 Y237.276 E19.06565
G1 X191.139 Y237.384 E19.10208
G1 X189.589 Y237.52 E19.15384
G1 X188.492 Y237.605 E19.19043
G1 X186.915 Y237.711 E19.243
G1 X185.719 Y237.778 E19.28284
G1 X183.64 Y237.875 E19.35207
G1 X182.527 Y237.917 E19.38911
G1 X181.01 Y237.958 E19.43958
G1 X179.828 Y237.979 E19.4789
G1 X177.89 Y237.995 E19.54336
G1 X176.761 Y237.995 E19.58091
G1 X174.717 Y237.977 E19.6489
G1 X173.532 Y237.956 E19.68832
G1 X171.961 Y237.912 E19.74059
G1 X170.965 Y237.874 E19.77374
G1 X168.948 Y237.775 E19.84091
G1 X167.904 Y237.715 E19.87569
G1 X165.785 Y237.574 E19.94633
G1 X164.704 Y237.489 E19.98239
G1 X163.416 Y237.375 E20.0254
G1 X162.239 Y237.258 E20.06474
G1 X160.88 Y237.11 E20.1102
G1 X159.149 Y236.895 E20.16822
G1 X158.236 Y236.766 E20.19889
G1 X156.681 Y236.524 E20.25123
G1 X155.982 Y236.405 E20.27481
G1 X154.319 Y236.095 E20.33108
G1 X153.599 Y235.95 E20.35551
G1 X152.712 Y235.758 E20.38569
G1 X152.467 Y235.702 E20.39405
G1 X152.055 Y235.602 E20.40815
G1 X151.389 Y235.432 E20.43101
G1 X150.563 Y235.212 E20.45944
G1 X150.274 Y235.13 E20.46944
G1 X149.684 Y234.954 E20.48991
G1 X149.419 Y234.871 E20.49915
G1 X148.752 Y234.654 E20.52248
G1 X148.466 Y234.556 E20.53253
G1 X148.2 Y234.461 E20.54193
G1 X147.911 Y234.353 E20.55219
G1 X147.427 Y234.163 E20.56948
G1 X146.743 Y233.882 E20.59408
G1 X146.238 Y233.659 E20.61244
G1 X145.858 Y233.474 E20.6265
G1 X145.525 Y233.304 E20.63893
G1 X145.278 Y233.173 E20.64823
G1 X144.758 Y232.89 E20.66792
G1 X143.738 Y232.258 E20.70783
G1 X143.537 Y232.117 E20.716
G1 X143.2 Y231.871 E20.72988
G1 X142.738 Y231.519 E20.74919
G1 X142.031 Y230.929 E20.77982
G1 X141.377 Y230.281 E20.81044
G1 X140.905 Y229.734 E20.83447
G1 X140.715 Y229.498 E20.84455
G1 X140.17 Y228.757 E20.87514
G1 X139.69 Y227.971 E20.90577
G1 X139.37 Y227.342 E20.92925
G1 X139.218 Y227.017 E20.94118
G1 X139.104 Y226.763 E20.95044
G1 X138.896 Y226.286 E20.96775
G1 X138.565 Y225.427 E20.99837
G1 X138.309 Y224.542 E21.02901
G1 X138.132 Y223.639 E21.05961
G1 X138.016 Y222.357 E21.10243
G1 X138.006 Y222.013 E21.11387
G1 X138.002 Y221.705 E21.12412
G1 X138.003 Y133.116 E24.0706
G1 X138.013 Y132.451 E24.09272
G1 X138.067 Y131.532 E24.12334
G1 X138.2 Y130.621 E24.15396
G1 X138.412 Y129.725 E24.18459
G1 X138.701 Y128.85 E24.21523
G1 X139.065 Y128.005 E24.24584
G1 X139.5 Y127.194 E24.27644
G1 X140.005 Y126.423 E24.3071
G1 X140.574 Y125.7 E24.3377
G0 F6000 X140.968 Y125.857
G1 F1200 X141.595 Y125.207 E24.36774
G1 X142.277 Y124.615 E24.39778
G1 X143.009 Y124.086 E24.42781
G1 X143.785 Y123.624 E24.45785
G1 X144.599 Y123.233 E24.48789
G1 X145.444 Y122.914 E24.51793
G1 X146.314 Y122.672 E24.54796
G1 X147.202 Y122.508 E24.578
G1 X148.325 Y122.414 E24.61548
G1 X148.645 Y122.405 E24.62613
G1 X148.932 Y122.401 E24.63567
G1 X163.314 Y122.401 E25.11402
G1 X164.184 Y122.413 E25.14296
G1 X165.322 Y122.495 E25.18091
G1 X165.767 Y122.552 E25.19583
G1 X168.46 Y122.859 E25.28598
G1 X170.973 Y123.072 E25.36986
G1 X173.48 Y123.216 E25.45338
G1 X176.045 Y123.289 E25.53873
G1 X178.579 Y123.289 E25.62301
G1 X181.114 Y123.218 E25.70736
G1 X183.641 Y123.076 E25.79154
G1 X186.194 Y122.859 E25.87676
G1 X188.945 Y122.545 E25.96885
