;FLAVOR:Marlin
;TIME:5498
;Filament used: 3.43253m
;Layer height: 0.2
;MINX:146.625
;MINY:159.42
;MINZ:0.2
;MAXX:213.293
;MAXY:197.598
;MAXZ:48
;Generated with Creality Slicer 4.8.2-177
M140 S60
M105
M190 S60
M104 S200
M105
M109 S200
M82 ;absolute extrusion mode
M201 X500.00 Y500.00 Z100.00 E5000.00 ;Setup machine max acceleration
M203 X500.00 Y500.00 Z10.00 E50.00 ;Setup machine max feedrate
M204 P500.00 R1000.00 T500.00 ;Setup Print/Retract/Travel acceleration
M205 X8.00 Y8.00 Z0.40 E5.00 ;Setup Jerk
M220 S100 ;Reset Feedrate
M221 S100 ;Reset Flowrate

G28 ;Home

G92 E0 ;Reset Extruder
G1 Z2.0 F3000 ;Move Z Axis up
G1 X10.1 Y20 Z0.28 F5000.0 ;Move to start position
G1 X10.1 Y200.0 Z0.28 F1500.0 E15 ;Draw the first line
G1 X10.4 Y200.0 Z0.28 F5000.0 ;Move to side a little
G1 X10.4 Y20 Z0.28 F1500.0 E30 ;Draw the second line
G92 E0 ;Reset Extruder
G1 Z2.0 F3000 ;Move Z Axis up

G92 E0
G92 E0
G1 F3600 E-8
;LAYER_COUNT:240
;LAYER:0
M107
G0 F6000 X150.415 Y164.534 Z0.2
;TYPE:SKIRT
G1 F3600 E0
G1 F1200 X151.331 Y163.714 E0.04089
G1 X151.495 Y163.583 E0.04787
G1 X152.252 Y163.03 E0.07905
G1 X152.892 Y162.633 E0.1041
G1 X153.091 Y162.519 E0.11173
G1 X154.353 Y161.9 E0.15848
G1 X154.643 Y161.78 E0.16892
G1 X155.524 Y161.458 E0.20012
G1 X156.088 Y161.296 E0.21963
G1 X156.169 Y161.275 E0.22242
G1 X156.793 Y161.133 E0.2437
G1 X156.995 Y161.093 E0.25055
G1 X158.216 Y160.921 E0.29156
G1 X158.85 Y160.868 E0.31272
G1 X159.098 Y160.85 E0.32099
G1 X181.77 Y159.472 E1.07646
G1 X182.317 Y159.446 E1.09467
G1 X182.607 Y159.436 E1.10432
G1 X183.364 Y159.42 E1.12951
G1 X183.931 Y159.423 E1.14837
G1 X184.751 Y159.448 E1.17565
G1 X185.074 Y159.463 E1.18641
G1 X185.576 Y159.495 E1.20314
G1 X185.846 Y159.517 E1.21215
G1 X186.208 Y159.552 E1.22424
G1 X186.458 Y159.58 E1.23261
G1 X186.865 Y159.631 E1.24625
G1 X187.117 Y159.666 E1.25472
G1 X187.775 Y159.764 E1.27684
G1 X188.232 Y159.842 E1.29226
G1 X188.676 Y159.929 E1.30731
G1 X189.043 Y160.007 E1.31979
G1 X189.307 Y160.067 E1.32879
G1 X189.739 Y160.17 E1.34357
G1 X190.035 Y160.245 E1.35372
G1 X190.468 Y160.361 E1.36863
G1 X190.739 Y160.437 E1.37799
G1 X190.898 Y160.484 E1.38351
G1 X191.217 Y160.584 E1.39463
G1 X192.041 Y160.855 E1.42348
G1 X192.54 Y161.032 E1.44109
G1 X193.041 Y161.224 E1.45893
G1 X193.381 Y161.361 E1.47112
G1 X193.893 Y161.577 E1.48961
G1 X194.401 Y161.807 E1.50815
G1 X195.223 Y162.204 E1.53851
G1 X195.532 Y162.359 E1.55001
G1 X195.896 Y162.553 E1.56373
G1 X196.406 Y162.835 E1.58311
G1 X196.85 Y163.094 E1.60021
G1 X197.183 Y163.299 E1.61322
G1 X197.741 Y163.657 E1.63527
G1 X198.031 Y163.851 E1.64687
G1 X198.505 Y164.179 E1.66604
G1 X198.748 Y164.351 E1.67595
G1 X199.01 Y164.543 E1.68675
G1 X199.251 Y164.725 E1.69679
G1 X199.657 Y165.04 E1.71389
G1 X199.93 Y165.259 E1.72553
G1 X200.151 Y165.444 E1.73511
G1 X200.608 Y165.837 E1.75516
G1 X200.8 Y166.005 E1.76364
G1 X201.063 Y166.242 E1.77542
G1 X201.263 Y166.428 E1.7845
G1 X201.528 Y166.679 E1.79664
G1 X201.855 Y167.002 E1.81193
G1 X202.388 Y167.552 E1.8374
G1 X202.495 Y167.666 E1.8426
G1 X202.75 Y167.948 E1.85525
G1 X203.334 Y168.615 E1.88474
G1 X203.76 Y169.133 E1.90704
G1 X204.203 Y169.706 E1.93113
G1 X204.391 Y169.956 E1.94154
G1 X204.571 Y170.203 E1.9517
G1 X204.724 Y170.418 E1.96048
G1 X204.956 Y170.753 E1.97403
G1 X205.114 Y170.988 E1.98345
G1 X205.323 Y171.307 E1.99613
G1 X205.563 Y171.686 E2.01106
G1 X205.81 Y172.1 E2.02709
G1 X205.988 Y172.414 E2.03909
G1 X206.344 Y173.096 E2.06468
G1 X206.452 Y173.322 E2.07301
G1 X206.82 Y174.185 E2.10422
G1 X207.113 Y175.076 E2.13541
G1 X207.255 Y175.634 E2.15456
G1 X207.318 Y175.912 E2.16404
G1 X207.512 Y177.037 E2.20201
G1 X207.523 Y177.129 E2.2051
G1 X207.595 Y178.064 E2.23629
G1 X207.587 Y178.998 E2.26735
G1 X207.573 Y179.271 E2.27644
G1 X207.485 Y180.205 E2.30765
G1 X207.226 Y181.504 E2.3517
G1 X207.154 Y181.778 E2.36113
G1 X206.877 Y182.674 E2.39232
G1 X206.376 Y183.857 E2.43505
G1 X206.332 Y183.946 E2.43835
G1 X206.016 Y184.538 E2.46067
G1 X205.693 Y185.102 E2.48229
G1 X205.46 Y185.49 E2.49734
G1 X205.246 Y185.827 E2.51062
G1 X205.064 Y186.105 E2.52167
G1 X204.874 Y186.386 E2.53295
G1 X204.655 Y186.699 E2.54566
G1 X204.496 Y186.92 E2.55471
G1 X204.224 Y187.289 E2.56996
G1 X204.045 Y187.525 E2.57981
G1 X203.854 Y187.77 E2.59014
G1 X203.583 Y188.104 E2.60445
G1 X203.024 Y188.766 E2.63327
G1 X202.668 Y189.168 E2.65113
G1 X202.436 Y189.417 E2.66245
G1 X202.226 Y189.636 E2.67254
G1 X201.714 Y190.156 E2.69681
G1 X201.5 Y190.367 E2.7068
G1 X201.318 Y190.542 E2.7152
G1 X201.024 Y190.815 E2.72855
G1 X200.601 Y191.193 E2.74741
G1 X200.23 Y191.514 E2.76373
G1 X200.01 Y191.697 E2.77325
G1 X199.622 Y192.008 E2.78979
G1 X199.183 Y192.348 E2.80826
G1 X198.864 Y192.587 E2.82151
G1 X198.592 Y192.783 E2.83267
G1 X198.117 Y193.114 E2.85192
G1 X197.638 Y193.43 E2.87101
G1 X196.81 Y193.945 E2.90344
G1 X196.339 Y194.221 E2.9216
G1 X195.822 Y194.508 E2.94126
G1 X195.542 Y194.659 E2.95184
G1 X195.291 Y194.789 E2.96125
G1 X194.984 Y194.942 E2.97265
G1 X194.579 Y195.136 E2.98759
G1 X194.314 Y195.258 E2.99729
G1 X194.07 Y195.367 E3.00618
G1 X193.797 Y195.485 E3.01607
G1 X193.158 Y195.75 E3.03908
G1 X192.871 Y195.864 E3.04935
G1 X192.523 Y195.997 E3.06174
G1 X192.212 Y196.111 E3.07276
G1 X191.896 Y196.221 E3.08389
G1 X191.433 Y196.374 E3.10011
G1 X191.172 Y196.456 E3.10921
G1 X190.765 Y196.578 E3.12334
G1 X190.304 Y196.705 E3.13924
G1 X189.533 Y196.9 E3.16569
G1 X189.095 Y197.001 E3.18065
G1 X188.609 Y197.103 E3.19716
G1 X188.299 Y197.164 E3.20767
G1 X187.888 Y197.238 E3.22156
G1 X187.467 Y197.305 E3.23574
G1 X186.861 Y197.39 E3.25609
G1 X186.344 Y197.45 E3.2734
G1 X185.77 Y197.503 E3.29257
G1 X185.436 Y197.529 E3.30372
G1 X184.852 Y197.565 E3.32318
G1 X184.466 Y197.582 E3.33603
G1 X184.013 Y197.594 E3.3511
G1 X183.689 Y197.598 E3.36188
G1 X183.013 Y197.596 E3.38436
G1 X182.51 Y197.583 E3.4011
G1 X181.563 Y197.536 E3.43263
G1 X180.172 Y197.451 E3.47898
G1 X159.238 Y196.179 E4.17654
G1 X158.374 Y196.114 E4.20535
G1 X157.796 Y196.054 E4.22468
G1 X157.719 Y196.044 E4.22726
G1 X157.123 Y195.95 E4.24733
G1 X156.892 Y195.907 E4.25515
G1 X155.978 Y195.696 E4.28635
G1 X155.349 Y195.502 E4.30824
G1 X155.109 Y195.42 E4.31668
G1 X154.235 Y195.079 E4.34788
G1 X153.385 Y194.661 E4.37938
G1 X153.109 Y194.51 E4.38985
G1 X152.307 Y194.025 E4.42102
G1 X151.591 Y193.508 E4.45039
G1 X151.39 Y193.35 E4.4589
G1 X150.678 Y192.74 E4.49008
G1 X150.127 Y192.187 E4.51605
G1 X149.945 Y191.991 E4.52494
G1 X149.337 Y191.277 E4.55613
G1 X148.729 Y190.417 E4.59116
G1 X148.585 Y190.191 E4.60008
G1 X148.115 Y189.379 E4.63128
G1 X147.813 Y188.754 E4.65437
G1 X147.683 Y188.462 E4.665
G1 X147.338 Y187.59 E4.69619
G1 X147.068 Y186.686 E4.72757
G1 X147.004 Y186.433 E4.73625
G1 X146.813 Y185.514 E4.76747
G1 X146.742 Y185.013 E4.7843
G1 X146.713 Y184.765 E4.7926
G1 X146.647 Y183.905 E4.82129
G1 X146.636 Y183.616 E4.83091
G1 X146.628 Y183.271 E4.84239
G1 X146.625 Y182.745 E4.85988
G1 X146.627 Y174.109 E5.14712
G1 X146.637 Y173.454 E5.16891
G1 X146.686 Y172.579 E5.19805
G1 X146.716 Y172.264 E5.20858
G1 X146.844 Y171.335 E5.23977
G1 X146.958 Y170.788 E5.25835
G1 X147.002 Y170.601 E5.26474
G1 X147.256 Y169.698 E5.29594
G1 X147.493 Y169.044 E5.31908
G1 X147.643 Y168.668 E5.33254
G1 X148.027 Y167.813 E5.36372
G1 X148.524 Y166.926 E5.39753
G1 X148.61 Y166.788 E5.40294
G1 X149.14 Y166.014 E5.43414
G1 X149.531 Y165.522 E5.45504
G1 X149.781 Y165.225 E5.46796
G1 X150.415 Y164.534 E5.49915
G0 F6000 X150.709 Y164.805
G1 F1200 X151.58 Y164.027 E5.53799
G1 X151.744 Y163.896 E5.54497
G1 X152.488 Y163.353 E5.57561
G1 X153.091 Y162.98 E5.59919
G1 X153.29 Y162.866 E5.60682
G1 X154.506 Y162.269 E5.65187
G1 X154.796 Y162.149 E5.66231
G1 X155.661 Y161.835 E5.69292
G1 X156.189 Y161.683 E5.71119
G1 X156.27 Y161.662 E5.71398
G1 X156.871 Y161.525 E5.73448
G1 X157.073 Y161.485 E5.74133
G1 X158.249 Y161.32 E5.78082
G1 X158.883 Y161.267 E5.80199
G1 X159.123 Y161.25 E5.80999
G1 X181.789 Y159.872 E6.56525
G1 X182.336 Y159.846 E6.58347
G1 X182.615 Y159.836 E6.59275
G1 X183.372 Y159.82 E6.61794
G1 X183.919 Y159.823 E6.63613
G1 X184.739 Y159.848 E6.66342
G1 X185.05 Y159.862 E6.67377
G1 X185.544 Y159.894 E6.69024
G1 X186.031 Y159.936 E6.70649
G1 X186.408 Y159.977 E6.71911
G1 X186.815 Y160.028 E6.73275
G1 X187.058 Y160.062 E6.74091
G1 X187.716 Y160.16 E6.76304
G1 X188.157 Y160.235 E6.77792
G1 X188.593 Y160.321 E6.7927
G1 X188.96 Y160.399 E6.80518
G1 X189.214 Y160.456 E6.81383
G1 X189.646 Y160.559 E6.8286
G1 X189.931 Y160.631 E6.83838
G1 X190.364 Y160.747 E6.85329
G1 X190.785 Y160.868 E6.86786
G1 X191.092 Y160.964 E6.87856
G1 X191.916 Y161.235 E6.90741
G1 X192.397 Y161.406 E6.92439
G1 X192.898 Y161.598 E6.94223
G1 X193.225 Y161.73 E6.95396
G1 X193.737 Y161.946 E6.97244
G1 X194.227 Y162.167 E6.99032
G1 X195.049 Y162.564 E7.02068
G1 X195.347 Y162.714 E7.03178
G1 X195.702 Y162.903 E7.04516
G1 X196.212 Y163.185 E7.06454
G1 X196.64 Y163.434 E7.08101
G1 X196.973 Y163.639 E7.09402
G1 X197.524 Y163.993 E7.1158
G1 X197.804 Y164.179 E7.12698
G1 X198.278 Y164.507 E7.14615
G1 X198.512 Y164.674 E7.15571
G1 X198.774 Y164.866 E7.16652
G1 X199.006 Y165.041 E7.17618
G1 X199.412 Y165.356 E7.19327
G1 X199.678 Y165.569 E7.20461
G1 X199.89 Y165.747 E7.21381
G1 X200.347 Y166.14 E7.23386
G1 X200.532 Y166.303 E7.24206
G1 X200.795 Y166.54 E7.25384
G1 X200.988 Y166.718 E7.26257
G1 X201.253 Y166.969 E7.27471
G1 X201.568 Y167.28 E7.28943
G1 X202.096 Y167.826 E7.31469
G1 X202.203 Y167.94 E7.31989
G1 X202.449 Y168.211 E7.33207
G1 X203.033 Y168.878 E7.36155
G1 X203.444 Y169.378 E7.38308
G1 X203.887 Y169.951 E7.40717
G1 X204.068 Y170.191 E7.41717
G1 X204.248 Y170.438 E7.42733
G1 X204.395 Y170.646 E7.43581
G1 X204.627 Y170.981 E7.44936
G1 X204.779 Y171.207 E7.45842
G1 X204.988 Y171.526 E7.4711
G1 X205.224 Y171.899 E7.48578
G1 X205.462 Y172.298 E7.50123
G1 X205.64 Y172.612 E7.51324
G1 X205.983 Y173.269 E7.53789
G1 X206.091 Y173.495 E7.54622
G1 X206.452 Y174.342 E7.57684
G1 X206.737 Y175.217 E7.60745
G1 X206.865 Y175.722 E7.62478
G1 X206.928 Y176 E7.63426
G1 X207.115 Y177.085 E7.67088
G1 X207.126 Y177.177 E7.67396
G1 X207.196 Y178.095 E7.70458
G1 X207.187 Y178.978 E7.73395
G1 X207.173 Y179.251 E7.74305
G1 X207.086 Y180.167 E7.77365
G1 X206.839 Y181.402 E7.81554
G1 X206.767 Y181.676 E7.82496
G1 X206.495 Y182.555 E7.85556
G1 X206.017 Y183.68 E7.89622
G1 X205.973 Y183.769 E7.89952
G1 X205.669 Y184.339 E7.92101
G1 X205.346 Y184.903 E7.94263
G1 X205.122 Y185.277 E7.95712
G1 X204.912 Y185.608 E7.97016
G1 X204.73 Y185.886 E7.98121
G1 X204.546 Y186.157 E7.99211
G1 X204.327 Y186.47 E8.00481
G1 X204.174 Y186.682 E8.01351
G1 X203.902 Y187.051 E8.02876
G1 X203.73 Y187.279 E8.03826
G1 X203.539 Y187.524 E8.04859
G1 X203.278 Y187.846 E8.06237
G1 X202.719 Y188.508 E8.09119
G1 X202.375 Y188.895 E8.10841
G1 X202.143 Y189.144 E8.11973
G1 X201.941 Y189.355 E8.12945
G1 X201.429 Y189.875 E8.15372
G1 X201.223 Y190.079 E8.16336
G1 X201.041 Y190.254 E8.17176
G1 X200.757 Y190.517 E8.18464
G1 X200.334 Y190.895 E8.2035
G1 X199.97 Y191.209 E8.21949
G1 X199.758 Y191.386 E8.22868
G1 X199.558 Y191.548 E8.23724
G1 X199.377 Y191.691 E8.24491
G1 X198.938 Y192.031 E8.26338
G1 X198.625 Y192.266 E8.2764
G1 X198.363 Y192.455 E8.28714
G1 X197.888 Y192.786 E8.3064
G1 X197.426 Y193.09 E8.32479
G1 X196.598 Y193.605 E8.35722
G1 X196.145 Y193.872 E8.37471
G1 X195.628 Y194.159 E8.39438
G1 X195.358 Y194.303 E8.40456
G1 X195.107 Y194.433 E8.41396
G1 X194.811 Y194.581 E8.42497
G1 X194.406 Y194.775 E8.4399
G1 X194.15 Y194.893 E8.44928
G1 X193.906 Y195.002 E8.45817
G1 X193.644 Y195.115 E8.46766
G1 X193.005 Y195.38 E8.49067
G1 X192.728 Y195.491 E8.50059
G1 X192.38 Y195.624 E8.51298
G1 X192.081 Y195.733 E8.52357
G1 X191.575 Y195.907 E8.54136
G1 X191.309 Y195.994 E8.55067
G1 X191.058 Y196.073 E8.55942
G1 X190.651 Y196.195 E8.57356
G1 X190.206 Y196.317 E8.5889
G1 X189.435 Y196.512 E8.61535
G1 X189.013 Y196.61 E8.62976
G1 X188.527 Y196.712 E8.64628
G1 X188.228 Y196.77 E8.65641
G1 X187.817 Y196.844 E8.6703
G1 X187.411 Y196.909 E8.68398
G1 X186.805 Y196.994 E8.70433
G1 X186.308 Y197.052 E8.72097
G1 X185.734 Y197.105 E8.74014
G1 X185.411 Y197.13 E8.75092
G1 X184.827 Y197.166 E8.77038
G1 X184.456 Y197.182 E8.78273
G1 X184.003 Y197.194 E8.7978
G1 X183.691 Y197.198 E8.80818
G1 X183.015 Y197.196 E8.83066
G1 X182.529 Y197.183 E8.84683
G1 X181.588 Y197.136 E8.87817
G1 X180.411 Y197.063 E8.91739
G1 X180.06 Y197.044 E8.92909
G1 X159.098 Y195.768 E9.62757
G1 X158.405 Y195.715 E9.65069
G1 X157.848 Y195.658 E9.66931
G1 X157.771 Y195.648 E9.6719
G1 X157.196 Y195.557 E9.69126
G1 X156.965 Y195.514 E9.69907
G1 X156.068 Y195.306 E9.7297
G1 X155.478 Y195.124 E9.75024
G1 X155.238 Y195.042 E9.75867
G1 X154.38 Y194.706 E9.78932
G1 X153.577 Y194.31 E9.8191
G1 X153.301 Y194.159 E9.82956
G1 X152.514 Y193.683 E9.86015
G1 X151.838 Y193.194 E9.8879
G1 X151.637 Y193.036 E9.89641
G1 X150.939 Y192.436 E9.92702
G1 X150.42 Y191.915 E9.95148
G1 X150.238 Y191.719 E9.96037
G1 X149.642 Y191.018 E9.99098
G1 X149.066 Y190.202 E10.0242
G1 X148.922 Y189.976 E10.03311
G1 X148.462 Y189.179 E10.06372
G1 X148.178 Y188.591 E10.08544
G1 X148.048 Y188.299 E10.09607
G1 X147.711 Y187.443 E10.12667
G1 X147.456 Y186.588 E10.15634
G1 X147.392 Y186.335 E10.16502
G1 X147.205 Y185.433 E10.19566
G1 X147.14 Y184.966 E10.21134
G1 X147.111 Y184.718 E10.21965
G1 X147.047 Y183.89 E10.24727
G1 X147.036 Y183.601 E10.25689
G1 X147.028 Y183.268 E10.26797
G1 X147.025 Y182.745 E10.28536
G1 X147.027 Y174.115 E10.5724
G1 X147.037 Y173.46 E10.59418
G1 X147.084 Y172.617 E10.62227
G1 X147.114 Y172.302 E10.63279
G1 X147.241 Y171.39 E10.66342
G1 X147.348 Y170.879 E10.68078
G1 X147.392 Y170.692 E10.68717
G1 X147.641 Y169.806 E10.71778
G1 X147.865 Y169.192 E10.73952
G1 X148.015 Y168.816 E10.75298
G1 X148.392 Y167.977 E10.78358
G1 X148.864 Y167.138 E10.81559
G1 X148.95 Y167 E10.821
G1 X149.47 Y166.24 E10.85163
G1 X149.837 Y165.78 E10.8712
G1 X150.087 Y165.483 E10.88411
G1 X150.709 Y164.805 E10.91472
G0 F6000 X151.004 Y165.076
G1 F1200 X151.83 Y164.339 E10.95154
G1 X151.994 Y164.208 E10.95852
G1 X152.724 Y163.677 E10.98854
G1 X153.29 Y163.327 E11.01067
G1 X153.489 Y163.213 E11.0183
G1 X154.659 Y162.639 E11.06165
G1 X154.949 Y162.519 E11.07209
G1 X155.798 Y162.211 E11.10213
G1 X156.289 Y162.07 E11.11912
G1 X156.37 Y162.049 E11.1219
G1 X156.949 Y161.917 E11.14165
G1 X157.151 Y161.877 E11.1485
G1 X158.282 Y161.718 E11.18649
G1 X158.916 Y161.665 E11.20765
G1 X159.147 Y161.649 E11.21535
G1 X181.808 Y160.272 E11.97045
G1 X182.355 Y160.246 E11.98866
G1 X182.623 Y160.236 E11.99758
G1 X183.38 Y160.22 E12.02276
G1 X183.907 Y160.223 E12.04029
G1 X184.727 Y160.248 E12.06758
G1 X185.026 Y160.261 E12.07753
G1 X185.293 Y160.277 E12.08643
G1 X185.781 Y160.315 E12.10271
G1 X186.127 Y160.348 E12.11427
G1 X186.358 Y160.374 E12.122
G1 X186.765 Y160.425 E12.13564
G1 X187 Y160.457 E12.14353
G1 X187.658 Y160.555 E12.16566
G1 X188.081 Y160.628 E12.17994
G1 X188.509 Y160.712 E12.19444
G1 X188.876 Y160.79 E12.20692
G1 X189.122 Y160.845 E12.21531
G1 X189.554 Y160.948 E12.23008
G1 X189.827 Y161.017 E12.23944
G1 X190.26 Y161.133 E12.25435
G1 X190.671 Y161.251 E12.26857
G1 X190.967 Y161.344 E12.27889
G1 X191.791 Y161.615 E12.30774
G1 X192.254 Y161.779 E12.32408
G1 X192.755 Y161.971 E12.34193
G1 X193.07 Y162.098 E12.35322
G1 X193.582 Y162.314 E12.37171
G1 X194.053 Y162.527 E12.3889
G1 X194.875 Y162.924 E12.41926
G1 X195.162 Y163.068 E12.42994
G1 X195.509 Y163.253 E12.44302
G1 X196.019 Y163.535 E12.4624
G1 X196.43 Y163.775 E12.47823
G1 X196.763 Y163.98 E12.49124
G1 X197.307 Y164.329 E12.51273
G1 X197.576 Y164.508 E12.52348
G1 X198.05 Y164.836 E12.54265
G1 X198.275 Y164.997 E12.55186
G1 X198.537 Y165.189 E12.56266
G1 X198.761 Y165.357 E12.57197
G1 X199.167 Y165.672 E12.58906
G1 X199.425 Y165.879 E12.60006
G1 X199.63 Y166.05 E12.60894
G1 X200.087 Y166.443 E12.62899
G1 X200.527 Y166.837 E12.64864
G1 X200.713 Y167.009 E12.65706
G1 X200.978 Y167.26 E12.6692
G1 X201.282 Y167.559 E12.68338
G1 X201.804 Y168.099 E12.70836
G1 X201.911 Y168.213 E12.71356
G1 X202.148 Y168.475 E12.72531
G1 X202.732 Y169.142 E12.7548
G1 X203.128 Y169.622 E12.7755
